%
O01001 (Automatic CAM Program)
(Using high feed G1 F196.85 instead of G0.)
(T1 D=0.125 CR=0. - ZMIN=1.874 - flat end mill)
(T5 D=0.25 CR=0. TAPER=90deg - ZMIN=1.9291 - spot drill)
(T10 D=0.0625 CR=0. - ZMIN=1.9213 - flat end mill)
N10 G90 G17
N15 G20
N20 G53 G0 Z0.

(2D Pocket12)
N25 T1 M6
N30 S6000 M3
N35 G17 G90
N40 G58
N45 M8
N50 G1 X-3.723 Y-1.515 F196.85
N55 G0 G43 Z2.5906 H1
N60 T5
N65 G0 Z2.1969
N70 G1 Z2.0984 F13.123
N75 Z1.9803
N80 X-3.7241 Y-1.0622 F26.4
N85 G2 X-3.6615 Y-0.9995 I0.0625 J0.0002
N90 G1 X-3.1952 Y-1.0004
N95 X-3.1454 Y-1.0005
N100 Z1.9928
N105 G0 Z2.1969
N110 G1 X-3.1459 Y-0.9995 F196.85
N115 Z2.0984 F13.123
N120 Z1.9803
N125 X-3.1953 Y-0.9994 F26.4
N130 X-3.7248 Y-0.9984
N135 X-3.7251 Y-0.9986
N140 X-3.7253 Y-0.9989
N145 X-3.724 Y-1.5154
N150 Z1.9928
N155 G0 Z2.5906
N160 G1 X-2.8609 Y-0.9668 F196.85
N165 G0 Z2.1969
N170 G1 Z2.0984 F13.123
N175 Z1.9803
N180 X-2.8606 Y-0.9515 F26.4
N185 X-2.8545 Y-0.6908
N190 G2 X-2.7923 Y-0.6297 I0.0625 J-0.0015
N195 G1 X-1.1223 Y-0.623
N200 X-1.0636 Y-0.6228
N205 Z1.9928
N210 G0 Z2.1969
N215 G1 X-1.0638 Y-0.6218 F196.85
N220 Z2.0984 F13.123
N225 Z1.9803
N230 X-1.1218 Y-0.622 F26.4
N235 X-2.8536 Y-0.629
N240 X-2.8539 Y-0.6291
N245 X-2.8541 Y-0.6295
N250 X-2.8606 Y-0.9099
N255 X-2.8619 Y-0.9665
N260 Z1.9928
N265 G0 Z2.5906
N270 G1 X-0.9982 Y-1.4341 F196.85
N275 G0 Z2.1969
N280 G1 Z2.0984 F13.123
N285 Z1.9803
N290 X-0.996 Y-1.4896 F26.4
N295 X-0.9797 Y-1.8905
N300 G2 X-1.0404 Y-1.9555 I-0.0624 J-0.0025
N305 G1 X-2.6098 Y-1.9987
N310 X-2.665 Y-2.0002
N315 Z1.9928
N320 G0 Z2.1969
N325 G1 X-2.6646 Y-2.0012 F196.85
N330 Z2.0984 F13.123
N335 Z1.9803
N340 X-2.613 Y-1.9997 F26.4
N345 X-0.9766 Y-1.9547
N350 X-0.9761 Y-1.9542
N355 X-0.9948 Y-1.4947
N360 X-0.9972 Y-1.434
N365 Z1.9928
N370 G0 Z2.5906
N375 G1 X-3.1122 Y-0.9906 F196.85
N380 G0 Z2.1969
N385 G1 Z2.0984 F13.123
N390 Z1.9606
N395 X-3.1216 F26.4
N400 Y-1.0094
N405 X-2.8784
N410 Y-0.9906
N415 X-3.1122
N420 X-3.114 Y-0.9909 Z1.961
N425 X-3.1157 Y-0.9914 Z1.9613
N430 X-3.117 Y-0.9922 Z1.9624
N435 X-3.1182 Y-0.9931 Z1.9634
N440 X-3.1195 Y-0.9946 Z1.9664
N445 X-3.1199 Y-0.9952 Z1.97
N450 G0 Z2.5906
N455 G1 X-3.1042 Y-1.9948 F196.85
N460 G0 Z2.1969
N465 G1 Z2.025 F13.123
N470 Z1.9534 F26.4
N475 X-3.1045 Y-1.9949 Z1.9507
N480 X-3.1054 Y-1.9953 Z1.948
N485 X-3.1067 Y-1.9959 Z1.9457
N490 X-3.1086 Y-1.9966 Z1.9437
N495 X-3.1108 Y-1.9975 Z1.9422
N500 X-3.1132 Y-1.9985 Z1.9413
N505 X-3.1158 Y-1.9996 Z1.9409
N510 X-3.116 Y-2.
N515 G3 X-2.884 I0.116 J0.
N520 X-3.116 I-0.116 J0.
N525 G2 X-3.1441 Y-2.0492 I-0.0571 J0.
N530 G3 X-3.1567 Y-2.1044 I0.0198 J-0.0336
N535 X-2.813 Y-1.9948 I0.1561 J0.1043
N540 X-3.1867 Y-1.975 I-0.1877 J-0.0052
N545 G1 X-3.188 Y-1.9826
N550 X-3.1892 Y-1.9901
N555 G3 X-3.1884 Y-2.0203 I0.0935 J-0.0125
N560 G1 X-3.1867 Y-2.0278
N565 X-3.1851 Y-2.0353
N570 G3 X-3.1567 Y-2.1044 I0.1844 J0.0352
N575 G2 X-3.1544 Y-2.1618 I-0.0458 J-0.0306
N580 G3 X-3.1404 Y-2.2176 I0.0367 J-0.0204
N585 X-2.7419 Y-1.9928 I0.14 J0.2175
N590 X-3.2568 Y-1.9656 I-0.2585 J-0.0072
N595 G2 X-3.259 Y-1.9789 I-0.2132 J0.0285
N600 G3 X-3.2612 Y-1.9921 I0.2109 J-0.0418
N605 X-3.2604 Y-2.0223 I0.0935 J-0.0125
N610 X-3.2574 Y-2.0354 I0.2112 J0.0403
N615 G2 X-3.2545 Y-2.0485 I-0.2084 J-0.0534
N620 G3 X-3.1404 Y-2.2176 I0.2541 J0.0484
N625 X-3.1305 Y-2.2055 I0.0043 J0.0066
N630 G1 X-3.3211 Y-2.007
N635 G3 X-3.3345 Y-2.014 I-0.0057 J-0.0055
N640 G1 X-3.3253 Y-2.062
N645 G3 X-3.3283 Y-1.9561 I0.3253 J0.062
N650 G1 X-3.3347 Y-2.0043
N655 X-3.3348 Y-2.0067 Z1.9414
N660 X-3.3343 Y-2.0091 Z1.9419
N665 X-3.3336 Y-2.0109 Z1.9433
N670 X-3.3325 Y-2.0127 Z1.9446
N675 X-3.3307 Y-2.0147 Z1.9487
N680 X-3.33 Y-2.0153 Z1.9534
N685 G0 Z2.5906
N690 G1 X-2.9838 Y-2.0105 F196.85
N695 G0 Z2.1969
N700 G1 Z2.0984 F13.123
N705 Z1.9771
N710 X-2.983 Y-2.01 Z1.9723
N715 X-2.981 Y-2.0081 Z1.9682
N720 X-2.9799 Y-2.0065 Z1.9669
N725 X-2.979 Y-2.0047 Z1.9655
N730 X-2.9783 Y-2.0024 Z1.965
N735 X-2.9781 Y-2. Z1.9646
N740 G3 X-3.0219 I-0.0219 J0. F26.4
N745 X-2.9781 I0.0219 J0.
N750 X-2.9862 Y-1.9921 I-0.0079 J0.
N755 G1 X-3.0946 Y-1.9963
N760 G3 X-3.1014 Y-2.0076 I0.0003 J-0.0079
N765 G1 X-3.086 Y-2.0404
N770 G3 X-3.0881 Y-1.9644 I0.086 J0.0404
N775 G1 X-3.1017 Y-1.9981
N780 X-3.1019 Y-1.9992
N785 X-3.1016 Y-2.0004
N790 X-3.1009 Y-2.0013
N795 X-3.0999 Y-2.002
N800 X-3.0988 Y-2.0021
N805 X-3.0845 Y-2.0015
N810 X-2.9986 Y-2.0023
N815 X-2.9975 Y-2.0025
N820 X-2.9966 Y-2.003
N825 X-2.9875 Y-2.0103
N830 X-2.9863 Y-2.0109
N835 X-2.985 Y-2.011
N840 X-2.9838 Y-2.0105
N845 Z1.9416 F13.123
N850 X-2.983 Y-2.01 Z1.9369
N855 X-2.981 Y-2.0081 Z1.9328
N860 X-2.9799 Y-2.0065 Z1.9314
N865 X-2.979 Y-2.0047 Z1.9301
N870 X-2.9783 Y-2.0024 Z1.9296
N875 X-2.9781 Y-2. Z1.9291
N880 G3 X-3.0219 I-0.0219 J0. F26.4
N885 X-2.9781 I0.0219 J0.
N890 X-2.9862 Y-1.9921 I-0.0079 J0.
N895 G1 X-3.0946 Y-1.9963
N900 G3 X-3.1014 Y-2.0076 I0.0003 J-0.0079
N905 G1 X-3.086 Y-2.0404
N910 G3 X-3.0881 Y-1.9644 I0.086 J0.0404
N915 G1 X-3.1017 Y-1.9981
N920 X-3.1022 Y-2. Z1.9295
N925 X-3.1024 Y-2.0019 Z1.9299
N930 X-3.1023 Y-2.0036 Z1.931
N935 X-3.1019 Y-2.0052 Z1.9322
N940 X-3.1009 Y-2.0073 Z1.9355
N945 X-3.1005 Y-2.0079 Z1.9395
N950 G0 Z2.5906
N955 G1 X-0.9781 Y-1.0968 F196.85
N960 G0 Z2.1969
N965 G1 Z2.0984 F13.123
N970 Z1.9731
N975 X-0.9773 Y-1.0963 Z1.9683
N980 X-0.9754 Y-1.0944 Z1.9643
N985 X-0.9742 Y-1.0928 Z1.9629
N990 X-0.9733 Y-1.091 Z1.9616
N995 X-0.9726 Y-1.0887 Z1.9611
N1000 X-0.9724 Y-1.0863 Z1.9606
N1005 Y-0.9124 F26.4
N1010 G3 X-0.9849 Y-0.8905 I-0.0254 J0.
N1015 G1 X-0.989 Y-0.888
N1020 G3 X-1.011 I-0.011 J-0.0173
N1025 G1 X-1.0151 Y-0.8905
N1030 G3 X-1.0276 Y-0.9124 I0.0128 J-0.0219
N1035 G1 Y-1.0876
N1040 G3 X-1.0151 Y-1.1095 I0.0254 J0.
N1045 G1 X-1.011 Y-1.112
N1050 G3 X-0.989 I0.011 J0.0173
N1055 G1 X-0.9849 Y-1.1095
N1060 G3 X-0.9724 Y-1.0876 I-0.0128 J0.0219
N1065 G1 Y-1.0863
N1070 G2 X-0.9367 Y-1.0329 I0.0579 J0.
N1075 G3 X-0.9011 Y-0.9794 I-0.0223 J0.0535
N1080 G1 Y-0.853
N1085 G3 X-0.9389 Y-0.8337 I-0.0989 J-0.147
N1090 G2 X-0.9798 Y-0.775 I0.0216 J0.0587
N1095 G1 Y-0.6097
N1100 X-1.0202
N1105 Y-0.775
N1110 G2 X-1.0611 Y-0.8337 I-0.0625 J0.
N1115 G3 X-1.0989 Y-0.853 I0.0611 J-0.1663
N1120 G1 Y-1.147
N1125 G3 X-1.0611 Y-1.1663 I0.0989 J0.147
N1130 G2 X-1.0202 Y-1.225 I-0.0216 J-0.0587
N1135 G1 Y-1.3903
N1140 X-0.9798
N1145 Y-1.225
N1150 G2 X-0.9389 Y-1.1663 I0.0625 J0.
N1155 G3 X-0.9011 Y-1.147 I-0.0611 J0.1663
N1160 G1 Y-0.9794
N1165 G3 X-0.9118 Y-0.975 I-0.0062 J0.
N1170 G1 X-0.9357 Y-1.0001
N1175 X-0.9788 Y-1.0803
N1180 X-0.9829 Y-1.0932
N1185 X-0.983 Y-1.0945
N1190 X-0.9827 Y-1.0957
N1195 X-0.9818 Y-1.0967
N1200 X-0.9806 Y-1.0973
N1205 X-0.9793
N1210 X-0.9781 Y-1.0968
N1215 Z1.9338 F13.123
N1220 X-0.9773 Y-1.0963 Z1.929
N1225 X-0.9754 Y-1.0944 Z1.9249
N1230 X-0.9742 Y-1.0928 Z1.9236
N1235 X-0.9733 Y-1.091 Z1.9222
N1240 X-0.9726 Y-1.0887 Z1.9217
N1245 X-0.9724 Y-1.0863 Z1.9213
N1250 Y-0.9124 F26.4
N1255 G3 X-0.9849 Y-0.8905 I-0.0254 J0.
N1260 G1 X-0.989 Y-0.888
N1265 G3 X-1.011 I-0.011 J-0.0173
N1270 G1 X-1.0151 Y-0.8905
N1275 G3 X-1.0276 Y-0.9124 I0.0128 J-0.0219
N1280 G1 Y-1.0876
N1285 G3 X-1.0151 Y-1.1095 I0.0254 J0.
N1290 G1 X-1.011 Y-1.112
N1295 G3 X-0.989 I0.011 J0.0173
N1300 G1 X-0.9849 Y-1.1095
N1305 G3 X-0.9724 Y-1.0876 I-0.0128 J0.0219
N1310 G1 Y-1.0863
N1315 G2 X-0.9367 Y-1.0329 I0.0579 J0.
N1320 G3 X-0.9011 Y-0.9794 I-0.0223 J0.0535
N1325 G1 Y-0.853
N1330 G3 X-0.9389 Y-0.8337 I-0.0989 J-0.147
N1335 G2 X-0.9798 Y-0.775 I0.0216 J0.0587
N1340 G1 Y-0.6097
N1345 X-1.0202
N1350 Y-0.775
N1355 G2 X-1.0611 Y-0.8337 I-0.0625 J0.
N1360 G3 X-1.0989 Y-0.853 I0.0611 J-0.1663
N1365 G1 Y-1.147
N1370 G3 X-1.0611 Y-1.1663 I0.0989 J0.147
N1375 G2 X-1.0202 Y-1.225 I-0.0216 J-0.0587
N1380 G1 Y-1.3903
N1385 X-0.9798
N1390 Y-1.225
N1395 G2 X-0.9389 Y-1.1663 I0.0625 J0.
N1400 G3 X-0.9011 Y-1.147 I-0.0611 J0.1663
N1405 G1 Y-0.9794
N1410 X-0.9014 Y-0.977 Z1.9217
N1415 X-0.9021 Y-0.9747 Z1.9222
N1420 X-0.9031 Y-0.973 Z1.9236
N1425 X-0.9044 Y-0.9714 Z1.9249
N1430 X-0.9064 Y-0.9696 Z1.929
N1435 X-0.9072 Y-0.9691 Z1.9338
N1440 G0 Z2.5906

(Trace6)
N1445 G1 X-3.7222 Y-2.02 F196.85
N1450 G0 Z2.5906
N1455 Z2.1969
N1460 G1 Z1.9213 F13.123
N1465 X-3.7235 Y-1.5094 Z1.9803 F15.4
N1470 Z2.1969
N1475 X-3.7222 Y-2.02 F196.85
N1480 Z1.9213 F13.123
N1485 X-3.6592 Y-2.0183 F15.4
N1490 X-3.4944 Y-2.0137 Z1.874
N1495 X-3.1648 Y-2.0046
N1500 X-3. Y-2. Z1.9213
N1505 Z2.1969
N1510 X-3.7222 Y-2.02 F196.85
N1515 Z1.9213 F13.123
N1520 X-3.7235 Y-1.5094 Z1.9803 F15.4
N1525 Z2.1969
N1530 X-3.7222 Y-2.02 F196.85
N1535 Z1.9213 F13.123
N1540 X-3.6592 Y-2.0183 F15.4
N1545 X-3.4944 Y-2.0137 Z1.874
N1550 X-3.1648 Y-2.0046
N1555 X-3. Y-2. Z1.9213
N1560 Z2.1969
N1565 G0 Z2.5906
N1570 M9
N1575 M5
N1580 G53 G0 Z0.

(2D Contour11)
N1585 T5 M6
N1590 S4500 M3
N1595 G17 G90
N1600 G58
N1605 M8
N1610 G1 X-0.9254 Y-0.9387 F196.85
N1615 G0 G43 Z2.5906 H5
N1620 T10
N1625 G0 Z2.1969
N1630 G1 Z2.0394 F13.123
N1635 Z1.9541
N1640 G18 G2 X-0.9004 Z1.9291 I0.025 K0. F25.
N1645 G1 X-0.8754
N1650 G17 G3 X-0.8504 Y-0.9137 I0. J0.025
N1655 G1 Y-0.8281 F0.984
N1660 G3 X-0.9214 Y-0.7861 I-0.1496 J-0.1719
N1665 G2 X-0.9291 Y-0.775 I0.0041 J0.0111
N1670 G1 Y-0.5718
N1675 X-0.9419 Y-0.5591
N1680 X-1.0581
N1685 X-1.0709 Y-0.5718
N1690 Y-0.775
N1695 G2 X-1.0786 Y-0.7861 I-0.0118 J0.
N1700 G3 X-1.1496 Y-0.8281 I0.0786 J-0.2139
N1705 G1 Y-1.1719
N1710 G3 X-1.0786 Y-1.2139 I0.1496 J0.1719
N1715 G2 X-1.0709 Y-1.225 I-0.0041 J-0.0111
N1720 G1 Y-1.4282
N1725 X-1.0581 Y-1.4409
N1730 X-0.9419
N1735 X-0.9291 Y-1.4282
N1740 Y-1.225
N1745 G2 X-0.9214 Y-1.2139 I0.0118 J0.
N1750 G3 X-0.8504 Y-1.1719 I-0.0786 J0.2139
N1755 G1 Y-0.9137
N1760 Y-0.8281
N1765 G3 X-0.9214 Y-0.7861 I-0.1496 J-0.1719
N1770 G2 X-0.9291 Y-0.775 I0.0041 J0.0111
N1775 G1 Y-0.5718
N1780 X-0.9419 Y-0.5591
N1785 X-1.0581
N1790 X-1.0709 Y-0.5718
N1795 Y-0.775
N1800 G2 X-1.0786 Y-0.7861 I-0.0118 J0.
N1805 G3 X-1.1496 Y-0.8281 I0.0786 J-0.2139
N1810 G1 Y-1.1719
N1815 G3 X-1.0786 Y-1.2139 I0.1496 J0.1719
N1820 G2 X-1.0709 Y-1.225 I-0.0041 J-0.0111
N1825 G1 Y-1.4282
N1830 X-1.0581 Y-1.4409
N1835 X-0.9419
N1840 X-0.9291 Y-1.4282
N1845 Y-1.225
N1850 G2 X-0.9214 Y-1.2139 I0.0118 J0.
N1855 G3 X-0.8504 Y-1.1719 I-0.0786 J0.2139
N1860 G1 Y-0.9137
N1865 G3 X-0.8754 Y-0.8887 I-0.025 J0. F25.
N1870 G1 X-0.9004
N1875 G18 G3 X-0.9254 Z1.9541 I0. K0.025
N1880 G0 Z2.5906

(2D Contour12)
N1885 G17
N1890 G1 X-3.1372 Y-0.9969 F196.85
N1895 G0 Z2.5906
N1900 Z2.1969
N1905 G1 Z2.0394 F13.123
N1910 Z1.9856
N1915 G19 G2 Y-1.0219 Z1.9606 J-0.025 K0. F25.
N1920 G1 Y-1.0469
N1925 G17 G3 X-3.1122 Y-1.0719 I0.025 J0.
N1930 G1 X-2.8553 F0.984
N1935 G3 X-2.8159 Y-1.0325 I0. J0.0394
N1940 G1 Y-0.9675
N1945 G3 X-2.8553 Y-0.9281 I-0.0394 J0.
N1950 G1 X-3.1447
N1955 G3 X-3.1841 Y-0.9675 I0. J-0.0394
N1960 G1 Y-1.0325
N1965 G3 X-3.1447 Y-1.0719 I0.0394 J0.
N1970 G1 X-2.8553
N1975 G3 X-2.8159 Y-1.0325 I0. J0.0394
N1980 G1 Y-0.9675
N1985 G3 X-2.8553 Y-0.9281 I-0.0394 J0.
N1990 G1 X-3.1447
N1995 G3 X-3.1841 Y-0.9675 I0. J-0.0394
N2000 G1 Y-1.0325
N2005 G3 X-3.1447 Y-1.0719 I0.0394 J0.
N2010 G1 X-3.1122
N2015 G3 X-3.0872 Y-1.0469 I0. J0.025 F25.
N2020 G1 Y-1.0219
N2025 G19 G3 Y-0.9969 Z1.9856 J0. K0.025
N2030 G0 Z2.5906
N2035 M9
N2040 M5
N2045 G53 G0 Z0.

(2D Pocket13)
N2050 T10 M6
N2055 S6000 M3
N2060 G17 G90
N2065 G58
N2070 M8
N2075 G1 X-3.1069 Y-0.996 F196.85
N2080 G0 G43 Z2.5906 H10
N2085 T1
N2090 G0 Z2.1969
N2095 G1 Z2.0984 F13.123
N2100 Z1.9669
N2105 X-3.1074 Y-0.9954 Z1.9638
N2110 X-3.1083 Y-0.9946 Z1.9626
N2115 X-3.1092 Y-0.9939 Z1.9615
N2120 X-3.1107 Y-0.9934 Z1.961
N2125 X-3.1122 Y-0.9932 Z1.9606
N2130 X-3.1139 F13.2
N2135 X-3.1155 Y-0.9934
N2140 X-3.1169 Y-0.9941
N2145 X-3.1181 Y-0.9953
N2150 X-3.1188 Y-0.9967
N2155 X-3.119 Y-0.9983
N2160 Y-1.0017
N2165 X-3.1188 Y-1.0033
N2170 X-3.1181 Y-1.0047
N2175 X-3.1169 Y-1.0059
N2180 X-3.1155 Y-1.0066
N2185 X-3.1139 Y-1.0068
N2190 X-2.8907
N2195 G3 Y-0.9932 I0. J0.0068
N2200 G1 X-3.1122
N2205 G2 X-3.1318 Y-0.9831 I0. J0.0241
N2210 G3 X-3.1528 Y-0.9898 I-0.0094 J-0.0067
N2215 G1 Y-1.0325
N2220 G3 X-3.1447 Y-1.0406 I0.0081 J0.
N2225 G1 X-2.8553
N2230 G3 X-2.8472 Y-1.0325 I0. J0.0081
N2235 G1 Y-0.9675
N2240 G3 X-2.8553 Y-0.9594 I-0.0081 J0.
N2245 G1 X-3.1447
N2250 G3 X-3.1528 Y-0.9675 I0. J-0.0081
N2255 G1 Y-0.9898
N2260 X-3.1526 Y-0.9913 Z1.961
N2265 X-3.1519 Y-0.9928 Z1.9615
N2270 X-3.1513 Y-0.9937 Z1.9626
N2275 X-3.1504 Y-0.9945 Z1.9638
N2280 X-3.1497 Y-0.9949 Z1.9669
N2285 G0 Z2.5906
N2290 G1 X-0.982 Y-0.8937 F196.85
N2295 G0 Z2.1969
N2300 G1 Z2.0984 F13.123
N2305 Z1.9275
N2310 X-0.9821 Y-0.8929 Z1.9244
N2315 X-0.9824 Y-0.8918 Z1.9232
N2320 X-0.9828 Y-0.8908 Z1.9221
N2325 X-0.9838 Y-0.8895 Z1.9217
N2330 X-0.985 Y-0.8886 Z1.9213
N2335 X-0.989 Y-0.8861 F13.2
N2340 G3 X-1.011 I-0.011 J-0.0171
N2345 G1 X-1.0165 Y-0.8894
N2350 G3 X-1.0292 Y-0.9116 I0.0128 J-0.0222
N2355 G1 Y-1.0884
N2360 G3 X-1.0165 Y-1.1106 I0.0256 J0.
N2365 G1 X-1.011 Y-1.1139
N2370 G3 X-0.989 I0.011 J0.0171
N2375 G1 X-0.9835 Y-1.1106
N2380 G3 X-0.9708 Y-1.0884 I-0.0128 J0.0222
N2385 G1 Y-0.9116
N2390 G3 X-0.9835 Y-0.8894 I-0.0256 J0.
N2395 G1 X-0.985 Y-0.8886
N2400 G2 X-0.9964 Y-0.8643 I0.0123 J0.0206
N2405 G3 X-1.0198 Y-0.851 I-0.0142 J0.0022
N2410 G2 X-1.0485 Y-0.8676 I-0.0629 J0.076
N2415 G3 X-1.0628 Y-0.888 I0.0076 J-0.0205
N2420 G1 Y-1.112
N2425 G3 X-1.0485 Y-1.1324 I0.0218 J0.
N2430 G2 X-1.0072 Y-1.1616 I-0.0341 J-0.0925
N2435 G3 X-0.9928 I0.0072 J0.006
N2440 G2 X-0.9515 Y-1.1324 I0.0755 J-0.0634
N2445 G3 X-0.9372 Y-1.112 I-0.0076 J0.0205
N2450 G1 Y-0.888
N2455 G3 X-0.9515 Y-0.8676 I-0.0218 J0.
N2460 G2 X-0.9928 Y-0.8384 I0.0341 J0.0925
N2465 G3 X-1.0072 I-0.0072 J-0.006
N2470 G2 X-1.0198 Y-0.851 I-0.0755 J0.0634
N2475 X-1.0522 Y-0.8506 I-0.016 J0.0193
N2480 G3 X-1.0844 Y-0.8471 I-0.0186 J-0.0213
N2485 G1 X-1.085 Y-0.8474
N2490 G3 X-1.0964 Y-0.8668 I0.0108 J-0.0194
N2495 G1 Y-1.1332
N2500 G3 X-1.085 Y-1.1526 I0.0222 J0.
N2505 X-1.0727 Y-1.1584 I0.0471 J0.0846
N2510 X-1.06 Y-1.1631 I0.3145 J0.8164
N2515 G2 X-1.0282 Y-1.1871 I-0.0236 J-0.0643
N2520 X-1.0159 Y-1.225 I-0.052 J-0.0378
N2525 G1 X-1.0177 Y-1.3752
N2530 G3 X-1.0051 Y-1.3877 I0.0126 J0.
N2535 G1 X-0.9949
N2540 G3 X-0.9823 Y-1.3752 I0. J0.0126
N2545 G1 X-0.9841 Y-1.225
N2550 G2 X-0.9718 Y-1.1871 I0.0643 J0.
N2555 X-0.94 Y-1.1631 I0.0554 J-0.0403
N2560 G3 X-0.9273 Y-1.1584 I-0.302 J0.8217
N2565 X-0.915 Y-1.1526 I-0.0348 J0.0904
N2570 X-0.9036 Y-1.1332 I-0.0108 J0.0194
N2575 G1 Y-0.8668
N2580 G3 X-0.915 Y-0.8474 I-0.0222 J0.
N2585 X-0.9273 Y-0.8416 I-0.0471 J-0.0846
N2590 X-0.94 Y-0.8369 I-0.3145 J-0.8164
N2595 G2 X-0.9718 Y-0.8129 I0.0236 J0.0643
N2600 X-0.9841 Y-0.775 I0.052 J0.0378
N2605 G1 X-0.9823 Y-0.6248
N2610 G3 X-0.9949 Y-0.6123 I-0.0126 J0.
N2615 G1 X-1.0051
N2620 G3 X-1.0177 Y-0.6248 I0. J-0.0126
N2625 G1 X-1.0159 Y-0.775
N2630 G2 X-1.0282 Y-0.8129 I-0.0643 J0.
N2635 X-1.06 Y-0.8369 I-0.0554 J0.0403
N2640 G3 X-1.0727 Y-0.8416 I0.3018 J-0.8212
N2645 X-1.0844 Y-0.8471 I0.0348 J-0.0904
N2650 G2 X-1.108 Y-0.8434 I-0.0094 J0.0172
N2655 G3 X-1.1302 Y-0.8523 I-0.0093 J-0.0089
N2660 G1 Y-1.1628
N2665 G3 X-1.0719 Y-1.1956 I0.1302 J0.1628
N2670 G2 X-1.0514 Y-1.225 I-0.0108 J-0.0293
N2675 G1 Y-1.4201
N2680 X-1.05 Y-1.4215
N2685 X-0.95
N2690 X-0.9486 Y-1.4201
N2695 Y-1.225
N2700 G2 X-0.9281 Y-1.1956 I0.0313 J0.
N2705 G3 X-0.8698 Y-1.1628 I-0.0719 J0.1956
N2710 G1 Y-0.8372
N2715 G3 X-0.9281 Y-0.8044 I-0.1302 J-0.1628
N2720 G2 X-0.9486 Y-0.775 I0.0108 J0.0293
N2725 G1 Y-0.5799
N2730 X-0.95 Y-0.5785
N2735 X-1.05
N2740 X-1.0514 Y-0.5799
N2745 Y-0.775
N2750 G2 X-1.0719 Y-0.8044 I-0.0313 J0.
N2755 G3 X-1.1302 Y-0.8372 I0.0719 J-0.1956
N2760 G1 Y-0.8523
N2765 X-1.1299 Y-0.8538 Z1.9217
N2770 X-1.1293 Y-0.8553 Z1.9221
N2775 X-1.1286 Y-0.8562 Z1.9232
N2780 X-1.1278 Y-0.857 Z1.9244
N2785 X-1.1271 Y-0.8574 Z1.9275
N2790 G0 Z2.5906

N2795 M5
N2800 M9
N2805 G53 G0 Z0.
N2810 X-2.5
N2815 G53 G0 Y0.
N2820 M30

%
