%
O09999 (Automatic CAM Program)
(Using high feed G1 F196.85 instead of G0.)
(T1 D=0.125 CR=0. - ZMIN=0.374 - flat end mill)
(T5 D=0.25 CR=0. TAPER=90deg - ZMIN=0.4291 - spot drill)
(T10 D=0.0625 CR=0. - ZMIN=0.4213 - flat end mill)
N10 G90 G17
N15 G20
N20 G53 G0 Z0.

(2D Pocket1)
N25 T1 M6
N30 S6000 M3
N35 G17 G90
N40 G54
N45 M8
N50 G1 X-0.5638 Y-0.5994 F196.85
N55 G0 G43 Z1.0906 H1
N60 T5
N65 G0 Z0.6969
N70 G1 Z0.5984 F13.123
N75 Z0.4803
N80 X-0.6012 Y-0.5864 F26.4
N85 X-0.6146 Y-0.5817
N90 X-1.3746 Y-0.3181
N95 X-1.375 Y-0.3182
N100 X-2.0002 Y-0.6396
N105 X-2.0012 Y-0.6412
N110 X-1.881 Y-0.5794
N115 X-1.3985 Y-0.3314
N120 G2 X-1.3495 Y-0.3279 I0.0286 J-0.0556
N125 G1 X-0.6016 Y-0.5873
N130 X-0.5635 Y-0.6005
N135 Z0.4928
N140 G0 Z1.0906
N145 G1 X-0.5015 Y-1.4339 F196.85
N150 G0 Z0.6969
N155 G1 Z0.5984 F13.123
N160 Z0.4803
N165 X-0.5025 Y-1.4932 F26.4
N170 X-0.5055 Y-1.6645
N175 G2 X-0.568 Y-1.7259 I-0.0625 J0.0011
N180 G1 X-1.2592
N185 Z0.4928
N190 G0 Z0.6969
N195 G1 X-1.2588 Y-1.7269 F196.85
N200 Z0.5984 F13.123
N205 Z0.4803
N210 X-0.5061 F26.4
N215 X-0.5056 Y-1.7264
N220 X-0.5015 Y-1.491
N225 X-0.5005 Y-1.4337
N230 Z0.4928
N235 G0 Z1.0906
N240 G1 X-2.0052 Y-1.1042 F196.85
N245 G0 Z0.6969
N250 G1 Z0.525 F13.123
N255 Z0.4534 F26.4
N260 X-2.0051 Y-1.1045 Z0.4507
N265 X-2.0047 Y-1.1054 Z0.448
N270 X-2.0041 Y-1.1067 Z0.4457
N275 X-2.0034 Y-1.1086 Z0.4437
N280 X-2.0025 Y-1.1108 Z0.4422
N285 X-2.0015 Y-1.1132 Z0.4413
N290 X-2.0004 Y-1.1158 Z0.4409
N295 X-2. Y-1.116
N300 G3 Y-0.884 I0. J0.116
N305 Y-1.116 I0. J-0.116
N310 G2 X-1.9923 Y-1.1257 I0. J-0.0079
N315 G1 X-2.0044 Y-1.1792
N320 G3 X-1.9966 Y-1.1888 I0.0077 J-0.0017
N325 X-1.8667 Y-0.8662 I-0.0034 J0.1888
N330 X-1.9274 Y-0.8266 I-0.1253 J-0.1258
N335 X-1.9984 Y-0.8129 I-0.0727 J-0.1861
N340 X-2.0712 Y-0.826 I-0.0017 J-0.1992
N345 X-2.1333 Y-0.8662 I0.0635 J-0.1663
N350 X-2.0061 Y-1.1888 I0.1333 J-0.1338
N355 G2 X-1.9985 Y-1.1976 I-0.0003 J-0.0079
N360 G1 X-2.0052 Y-1.2511
N365 G3 X-1.9973 Y-1.2599 I0.0078 J-0.001
N370 X-1.8166 Y-0.8158 I-0.0027 J0.2599
N375 X-1.9 Y-0.761 I-0.1753 J-0.1761
N380 X-1.9978 Y-0.7418 I-0.1001 J-0.2514
N385 X-2.098 Y-0.7602 I-0.0023 J-0.2701
N390 X-2.1834 Y-0.8158 I0.0903 J-0.232
N395 X-2.0072 Y-1.2598 I0.1834 J-0.1842
N400 G2 X-1.9996 Y-1.2687 I-0.0002 J-0.0079
N405 G1 X-2.0071 Y-1.326
N410 G3 X-1.9981 Y-1.3348 I0.0078 J-0.001
N415 G1 X-1.9498 Y-1.3274
N420 G3 X-2.0557 Y-1.3265 I-0.0502 J0.3274
N425 G1 X-2.0078 Y-1.3347
N430 X-2.0054 Y-1.3348 Z0.4414
N435 X-2.003 Y-1.3344 Z0.4419
N440 X-2.0011 Y-1.3338 Z0.4433
N445 X-1.9993 Y-1.3328 Z0.4446
N450 X-1.9972 Y-1.3311 Z0.4487
N455 X-1.9966 Y-1.3304 Z0.4534
N460 G0 Z1.0906
N465 G1 X-1.9838 Y-1.0105 F196.85
N470 G0 Z0.6969
N475 G1 Z0.5984 F13.123
N480 Z0.4771
N485 X-1.983 Y-1.01 Z0.4723
N490 X-1.981 Y-1.0081 Z0.4682
N495 X-1.9799 Y-1.0065 Z0.4669
N500 X-1.979 Y-1.0047 Z0.4655
N505 X-1.9783 Y-1.0024 Z0.465
N510 X-1.978 Y-1. Z0.4646
N515 G3 X-2.0219 I-0.0219 J0. F26.4
N520 X-1.978 I0.0219 J0.
N525 X-1.9937 Y-0.9989 I-0.0079 J0.
N530 G1 X-2.007 Y-1.0933
N535 G3 X-1.9961 Y-1.1016 I0.0078 J-0.0011
N540 G1 X-1.9627 Y-1.0874
N545 G3 X-2.0387 Y-1.0867 I-0.0373 J0.0874
N550 G1 X-2.0056 Y-1.1015
N555 X-2.0045 Y-1.1018
N560 X-2.0033 Y-1.1016
N565 X-2.0023 Y-1.1009
N570 X-2.0017 Y-1.1
N575 X-2.0014 Y-1.0988
N580 Y-1.0845
N585 X-1.9972 Y-1.014
N590 G3 X-2.0006 Y-1.0192 I-0.0062 J0.0004
N595 G1 X-1.9838 Y-1.0105
N600 Z0.4416 F13.123
N605 X-1.983 Y-1.01 Z0.4369
N610 X-1.981 Y-1.0081 Z0.4328
N615 X-1.9799 Y-1.0065 Z0.4314
N620 X-1.979 Y-1.0047 Z0.4301
N625 X-1.9783 Y-1.0024 Z0.4296
N630 X-1.978 Y-1. Z0.4291
N635 G3 X-2.0219 I-0.0219 J0. F26.4
N640 X-1.978 I0.0219 J0.
N645 X-1.9937 Y-0.9989 I-0.0079 J0.
N650 G1 X-2.007 Y-1.0933
N655 G3 X-1.9961 Y-1.1016 I0.0078 J-0.0011
N660 G1 X-1.9627 Y-1.0874
N665 G3 X-2.0387 Y-1.0867 I-0.0373 J0.0874
N670 G1 X-2.0056 Y-1.1015
N675 X-2.0037 Y-1.1021 Z0.4295
N680 X-2.0018 Y-1.1024 Z0.4299
N685 X-2.0001 Y-1.1023 Z0.431
N690 X-1.9984 Y-1.102 Z0.4322
N695 X-1.9964 Y-1.1011 Z0.4355
N700 X-1.9957 Y-1.1007 Z0.4395
N705 G0 Z1.0906
N710 G1 X-0.4781 Y-1.0968 F196.85
N715 G0 Z0.6969
N720 G1 Z0.5984 F13.123
N725 Z0.4731
N730 X-0.4773 Y-1.0963 Z0.4683
N735 X-0.4754 Y-1.0944 Z0.4643
N740 X-0.4742 Y-1.0928 Z0.4629
N745 X-0.4733 Y-1.091 Z0.4616
N750 X-0.4726 Y-1.0887 Z0.4611
N755 X-0.4724 Y-1.0863 Z0.4606
N760 Y-0.9124 F26.4
N765 G3 X-0.4849 Y-0.8905 I-0.0254 J0.
N770 G1 X-0.489 Y-0.888
N775 G3 X-0.511 I-0.011 J-0.0173
N780 G1 X-0.5151 Y-0.8905
N785 G3 X-0.5276 Y-0.9124 I0.0128 J-0.0219
N790 G1 Y-1.0876
N795 G3 X-0.5151 Y-1.1095 I0.0254 J0.
N800 G1 X-0.511 Y-1.112
N805 G3 X-0.489 I0.011 J0.0173
N810 G1 X-0.4849 Y-1.1095
N815 G3 X-0.4724 Y-1.0876 I-0.0128 J0.0219
N820 G1 Y-1.0863
N825 G2 X-0.4367 Y-1.0329 I0.0579 J0.
N830 G3 X-0.4011 Y-0.9794 I-0.0223 J0.0535
N835 G1 Y-0.853
N840 G3 X-0.4389 Y-0.8337 I-0.0989 J-0.147
N845 G2 X-0.4798 Y-0.775 I0.0216 J0.0587
N850 G1 Y-0.6097
N855 X-0.5202
N860 Y-0.775
N865 G2 X-0.5611 Y-0.8337 I-0.0625 J0.
N870 G3 X-0.5989 Y-0.853 I0.0611 J-0.1663
N875 G1 Y-1.147
N880 G3 X-0.5611 Y-1.1663 I0.0989 J0.147
N885 G2 X-0.5202 Y-1.225 I-0.0216 J-0.0587
N890 G1 Y-1.3903
N895 X-0.4798
N900 Y-1.225
N905 G2 X-0.4389 Y-1.1663 I0.0625 J0.
N910 G3 X-0.4011 Y-1.147 I-0.0611 J0.1663
N915 G1 Y-0.9794
N920 G3 X-0.4118 Y-0.975 I-0.0062 J0.
N925 G1 X-0.4357 Y-1.0001
N930 X-0.4788 Y-1.0803
N935 X-0.4829 Y-1.0932
N940 X-0.483 Y-1.0945
N945 X-0.4827 Y-1.0957
N950 X-0.4818 Y-1.0967
N955 X-0.4806 Y-1.0973
N960 X-0.4793
N965 X-0.4781 Y-1.0968
N970 Z0.4338 F13.123
N975 X-0.4773 Y-1.0963 Z0.429
N980 X-0.4754 Y-1.0944 Z0.4249
N985 X-0.4742 Y-1.0928 Z0.4236
N990 X-0.4733 Y-1.091 Z0.4222
N995 X-0.4726 Y-1.0887 Z0.4217
N1000 X-0.4724 Y-1.0863 Z0.4213
N1005 Y-0.9124 F26.4
N1010 G3 X-0.4849 Y-0.8905 I-0.0254 J0.
N1015 G1 X-0.489 Y-0.888
N1020 G3 X-0.511 I-0.011 J-0.0173
N1025 G1 X-0.5151 Y-0.8905
N1030 G3 X-0.5276 Y-0.9124 I0.0128 J-0.0219
N1035 G1 Y-1.0876
N1040 G3 X-0.5151 Y-1.1095 I0.0254 J0.
N1045 G1 X-0.511 Y-1.112
N1050 G3 X-0.489 I0.011 J0.0173
N1055 G1 X-0.4849 Y-1.1095
N1060 G3 X-0.4724 Y-1.0876 I-0.0128 J0.0219
N1065 G1 Y-1.0863
N1070 G2 X-0.4367 Y-1.0329 I0.0579 J0.
N1075 G3 X-0.4011 Y-0.9794 I-0.0223 J0.0535
N1080 G1 Y-0.853
N1085 G3 X-0.4389 Y-0.8337 I-0.0989 J-0.147
N1090 G2 X-0.4798 Y-0.775 I0.0216 J0.0587
N1095 G1 Y-0.6097
N1100 X-0.5202
N1105 Y-0.775
N1110 G2 X-0.5611 Y-0.8337 I-0.0625 J0.
N1115 G3 X-0.5989 Y-0.853 I0.0611 J-0.1663
N1120 G1 Y-1.147
N1125 G3 X-0.5611 Y-1.1663 I0.0989 J0.147
N1130 G2 X-0.5202 Y-1.225 I-0.0216 J-0.0587
N1135 G1 Y-1.3903
N1140 X-0.4798
N1145 Y-1.225
N1150 G2 X-0.4389 Y-1.1663 I0.0625 J0.
N1155 G3 X-0.4011 Y-1.147 I-0.0611 J0.1663
N1160 G1 Y-0.9794
N1165 X-0.4014 Y-0.977 Z0.4217
N1170 X-0.4021 Y-0.9747 Z0.4222
N1175 X-0.4031 Y-0.973 Z0.4236
N1180 X-0.4044 Y-0.9714 Z0.4249
N1185 X-0.4064 Y-0.9696 Z0.429
N1190 X-0.4072 Y-0.9691 Z0.4338
N1195 G0 Z1.0906

(Trace1)
N1200 G1 X-2.0061 Y-1.7264 F196.85
N1205 G0 Z1.0906
N1210 Z0.6969
N1215 G1 Z0.4213 F13.123
N1220 X-1.2561 Z0.4803 F15.4
N1225 Z0.6969
N1230 G0 X-2.0061
N1235 G1 Z0.4213 F13.123
N1240 X-2.0056 Y-1.6634 F15.4
N1245 X-2.0042 Y-1.4976 Z0.374
N1250 X-2.0014 Y-1.1659
N1255 X-2. Y-1. Z0.4213
N1260 Z0.6969
N1265 X-2.0061 Y-1.7264 F196.85
N1270 Z0.4213 F13.123
N1275 X-1.2561 Z0.4803 F15.4
N1280 Z0.6969
N1285 G0 X-2.0061
N1290 G1 Z0.4213 F13.123
N1295 X-2.0056 Y-1.6634 F15.4
N1300 X-2.0042 Y-1.4976 Z0.374
N1305 X-2.0014 Y-1.1659
N1310 X-2. Y-1. Z0.4213
N1315 Z0.6969
N1320 G0 Z1.0906
N1325 M9
N1330 M5
N1335 G53 G0 Z0.

(2D Contour1)
N1340 T5 M6
N1345 S4500 M3
N1350 G17 G90
N1355 G54
N1360 M8
N1365 G1 X-0.4254 Y-0.9387 F196.85
N1370 G0 G43 Z1.0906 H5
N1375 T10
N1380 G0 Z0.6969
N1385 G1 Z0.5394 F13.123
N1390 Z0.4541
N1395 G18 G2 X-0.4004 Z0.4291 I0.025 K0. F25.
N1400 G1 X-0.3754
N1405 G17 G3 X-0.3504 Y-0.9137 I0. J0.025
N1410 G1 Y-0.8281 F0.984
N1415 G3 X-0.4214 Y-0.7861 I-0.1496 J-0.1719
N1420 G2 X-0.4291 Y-0.775 I0.0041 J0.0111
N1425 G1 Y-0.5718
N1430 X-0.4419 Y-0.5591
N1435 X-0.5581
N1440 X-0.5709 Y-0.5718
N1445 Y-0.775
N1450 G2 X-0.5786 Y-0.7861 I-0.0118 J0.
N1455 G3 X-0.6496 Y-0.8281 I0.0786 J-0.2139
N1460 G1 Y-1.1719
N1465 G3 X-0.5786 Y-1.2139 I0.1496 J0.1719
N1470 G2 X-0.5709 Y-1.225 I-0.0041 J-0.0111
N1475 G1 Y-1.4282
N1480 X-0.5581 Y-1.4409
N1485 X-0.4419
N1490 X-0.4291 Y-1.4282
N1495 Y-1.225
N1500 G2 X-0.4214 Y-1.2139 I0.0118 J0.
N1505 G3 X-0.3504 Y-1.1719 I-0.0786 J0.2139
N1510 G1 Y-0.9137
N1515 Y-0.8281
N1520 G3 X-0.4214 Y-0.7861 I-0.1496 J-0.1719
N1525 G2 X-0.4291 Y-0.775 I0.0041 J0.0111
N1530 G1 Y-0.5718
N1535 X-0.4419 Y-0.5591
N1540 X-0.5581
N1545 X-0.5709 Y-0.5718
N1550 Y-0.775
N1555 G2 X-0.5786 Y-0.7861 I-0.0118 J0.
N1560 G3 X-0.6496 Y-0.8281 I0.0786 J-0.2139
N1565 G1 Y-1.1719
N1570 G3 X-0.5786 Y-1.2139 I0.1496 J0.1719
N1575 G2 X-0.5709 Y-1.225 I-0.0041 J-0.0111
N1580 G1 Y-1.4282
N1585 X-0.5581 Y-1.4409
N1590 X-0.4419
N1595 X-0.4291 Y-1.4282
N1600 Y-1.225
N1605 G2 X-0.4214 Y-1.2139 I0.0118 J0.
N1610 G3 X-0.3504 Y-1.1719 I-0.0786 J0.2139
N1615 G1 Y-0.9137
N1620 G3 X-0.3754 Y-0.8887 I-0.025 J0. F25.
N1625 G1 X-0.4004
N1630 G18 G3 X-0.4254 Z0.4541 I0. K0.025
N1635 G0 Z1.0906
N1640 M9
N1645 M5
N1650 G53 G0 Z0.

(2D Pocket2)
N1655 T10 M6
N1660 S6000 M3
N1665 G17 G90
N1670 G54
N1675 M8
N1680 G1 X-0.482 Y-0.8937 F196.85
N1685 G0 G43 Z1.0906 H10
N1690 T1
N1695 G0 Z0.6969
N1700 G1 Z0.5984 F13.123
N1705 Z0.4275
N1710 X-0.4821 Y-0.8929 Z0.4244
N1715 X-0.4824 Y-0.8918 Z0.4232
N1720 X-0.4828 Y-0.8908 Z0.4221
N1725 X-0.4838 Y-0.8895 Z0.4217
N1730 X-0.485 Y-0.8886 Z0.4213
N1735 X-0.489 Y-0.8861 F13.2
N1740 G3 X-0.511 I-0.011 J-0.0171
N1745 G1 X-0.5165 Y-0.8894
N1750 G3 X-0.5292 Y-0.9116 I0.0128 J-0.0222
N1755 G1 Y-1.0884
N1760 G3 X-0.5165 Y-1.1106 I0.0256 J0.
N1765 G1 X-0.511 Y-1.1139
N1770 G3 X-0.489 I0.011 J0.0171
N1775 G1 X-0.4835 Y-1.1106
N1780 G3 X-0.4708 Y-1.0884 I-0.0128 J0.0222
N1785 G1 Y-0.9116
N1790 G3 X-0.4835 Y-0.8894 I-0.0256 J0.
N1795 G1 X-0.485 Y-0.8886
N1800 G2 X-0.4964 Y-0.8643 I0.0123 J0.0206
N1805 G3 X-0.5198 Y-0.851 I-0.0142 J0.0022
N1810 G2 X-0.5485 Y-0.8676 I-0.0629 J0.076
N1815 G3 X-0.5628 Y-0.888 I0.0076 J-0.0205
N1820 G1 Y-1.112
N1825 G3 X-0.5485 Y-1.1324 I0.0218 J0.
N1830 G2 X-0.5072 Y-1.1616 I-0.0341 J-0.0925
N1835 G3 X-0.4928 I0.0072 J0.006
N1840 G2 X-0.4515 Y-1.1324 I0.0755 J-0.0634
N1845 G3 X-0.4372 Y-1.112 I-0.0076 J0.0205
N1850 G1 Y-0.888
N1855 G3 X-0.4515 Y-0.8676 I-0.0218 J0.
N1860 G2 X-0.4928 Y-0.8384 I0.0341 J0.0925
N1865 G3 X-0.5072 I-0.0072 J-0.006
N1870 G2 X-0.5198 Y-0.851 I-0.0755 J0.0634
N1875 X-0.5522 Y-0.8506 I-0.016 J0.0193
N1880 G3 X-0.5844 Y-0.8471 I-0.0186 J-0.0213
N1885 G1 X-0.585 Y-0.8474
N1890 G3 X-0.5964 Y-0.8668 I0.0108 J-0.0194
N1895 G1 Y-1.1332
N1900 G3 X-0.585 Y-1.1526 I0.0222 J0.
N1905 X-0.5727 Y-1.1584 I0.0471 J0.0846
N1910 X-0.56 Y-1.1631 I0.3145 J0.8164
N1915 G2 X-0.5282 Y-1.1871 I-0.0236 J-0.0643
N1920 X-0.5159 Y-1.225 I-0.052 J-0.0378
N1925 G1 X-0.5177 Y-1.3752
N1930 G3 X-0.5051 Y-1.3877 I0.0126 J0.
N1935 G1 X-0.4949
N1940 G3 X-0.4823 Y-1.3752 I0. J0.0126
N1945 G1 X-0.4841 Y-1.225
N1950 G2 X-0.4718 Y-1.1871 I0.0643 J0.
N1955 X-0.44 Y-1.1631 I0.0554 J-0.0403
N1960 G3 X-0.4273 Y-1.1584 I-0.3018 J0.8212
N1965 X-0.415 Y-1.1526 I-0.0348 J0.0904
N1970 X-0.4036 Y-1.1332 I-0.0108 J0.0194
N1975 G1 Y-0.8668
N1980 G3 X-0.415 Y-0.8474 I-0.0222 J0.
N1985 X-0.4273 Y-0.8416 I-0.0471 J-0.0846
N1990 X-0.44 Y-0.8369 I-0.3147 J-0.8169
N1995 G2 X-0.4718 Y-0.8129 I0.0236 J0.0643
N2000 X-0.4841 Y-0.775 I0.052 J0.0378
N2005 G1 X-0.4823 Y-0.6248
N2010 G3 X-0.4949 Y-0.6123 I-0.0126 J0.
N2015 G1 X-0.5051
N2020 G3 X-0.5177 Y-0.6248 I0. J-0.0126
N2025 G1 X-0.5159 Y-0.775
N2030 G2 X-0.5282 Y-0.8129 I-0.0643 J0.
N2035 X-0.56 Y-0.8369 I-0.0554 J0.0403
N2040 G3 X-0.5727 Y-0.8416 I0.3016 J-0.8206
N2045 X-0.5844 Y-0.8471 I0.0348 J-0.0904
N2050 G2 X-0.608 Y-0.8434 I-0.0094 J0.0172
N2055 G3 X-0.6302 Y-0.8523 I-0.0093 J-0.0089
N2060 G1 Y-1.1628
N2065 G3 X-0.5719 Y-1.1956 I0.1302 J0.1628
N2070 G2 X-0.5514 Y-1.225 I-0.0108 J-0.0293
N2075 G1 Y-1.4201
N2080 X-0.55 Y-1.4215
N2085 X-0.45
N2090 X-0.4486 Y-1.4201
N2095 Y-1.225
N2100 G2 X-0.4281 Y-1.1956 I0.0312 J0.
N2105 G3 X-0.3698 Y-1.1628 I-0.0719 J0.1956
N2110 G1 Y-0.8372
N2115 G3 X-0.4281 Y-0.8044 I-0.1302 J-0.1628
N2120 G2 X-0.4486 Y-0.775 I0.0108 J0.0293
N2125 G1 Y-0.5799
N2130 X-0.45 Y-0.5785
N2135 X-0.55
N2140 X-0.5514 Y-0.5799
N2145 Y-0.775
N2150 G2 X-0.5719 Y-0.8044 I-0.0312 J0.
N2155 G3 X-0.6302 Y-0.8372 I0.0719 J-0.1956
N2160 G1 Y-0.8523
N2165 X-0.6299 Y-0.8538 Z0.4217
N2170 X-0.6293 Y-0.8553 Z0.4221
N2175 X-0.6286 Y-0.8562 Z0.4232
N2180 X-0.6278 Y-0.857 Z0.4244
N2185 X-0.6271 Y-0.8574 Z0.4275
N2190 G0 Z1.0906

N2195 M5
N2200 M9
N2205 G53 G0 Z0.
N2210 X-1.5
N2215 G53 G0 Y0.
N2220 M30

%
