%
O09999 (Automatic CAM Program)
(Using high feed G1 F196.85 instead of G0.)
(T1 D=0.125 CR=0. - ZMIN=0.374 - flat end mill)
(T5 D=0.25 CR=0. TAPER=90deg - ZMIN=0.4291 - spot drill)
(T10 D=0.0625 CR=0. - ZMIN=0.4213 - flat end mill)
N10 G90 G17
N15 G20
N20 G53 G0 Z0.

(2D Pocket1)
N25 T1 M6
N30 S6000 M3
N35 G17 G90
N40 G54
N45 M8
N50 G1 X-1.3542 Y-0.2505 F196.85
N55 G0 G43 Z1.0906 H1
N60 T5
N65 G0 Z0.6969
N70 G1 Z0.5984 F13.123
N75 Z0.4803
N80 X-0.563 F26.4
N85 G2 X-0.5005 Y-0.313 I0. J-0.0625
N90 G1 Y-0.6114
N95 Y-0.6646
N100 Z0.4928
N105 G0 Z0.6969
N110 G1 X-0.4995 Y-0.6649 F196.85
N115 Z0.5984 F13.123
N120 Z0.4803
N125 Y-0.25 F26.4
N130 X-0.5 Y-0.2495
N135 X-1.3048
N140 X-1.3546
N145 Z0.4928
N150 G0 Z1.0906
N155 G1 X-2.4995 Y-0.5661 F196.85
N160 G0 Z0.6969
N165 G1 Z0.5984 F13.123
N170 Z0.4803
N175 Y-0.313 F26.4
N180 G2 X-2.437 Y-0.2505 I0.0625 J0.
N185 G1 X-1.6952
N190 X-1.6454
N195 Z0.4928
N200 G0 Z0.6969
N205 G1 X-1.6458 Y-0.2495 F196.85
N210 Z0.5984 F13.123
N215 Z0.4803
N220 X-2.5 F26.4
N225 X-2.5003 Y-0.2497
N230 X-2.5005 Y-0.25
N235 Y-0.5079
N240 Y-0.5659
N245 Z0.4928
N250 G0 Z1.0906
N255 G1 X-2.4359 Y-1.3983 F196.85
N260 G0 Z0.6969
N265 G1 Z0.5984 F13.123
N270 Z0.4803
N275 X-2.3841 Y-1.4142 F26.4
N280 X-2. Y-1.5324
N285 Z0.4928
N290 G0 Z0.6969
N295 G1 X-2.0001 Y-1.5313 F196.85
N300 Z0.5984 F13.123
N305 Z0.4803
N310 X-2.3963 Y-1.4094 F26.4
N315 X-2.4361 Y-1.3971
N320 Z0.4928
N325 G0 Z1.0906
N330 G1 X-1.3878 Y-0.2406 F196.85
N335 G0 Z0.6969
N340 G1 Z0.5984 F13.123
N345 Z0.4606
N350 X-1.6216 F26.4
N355 Y-0.2594
N360 X-1.3784
N365 Y-0.2406
N370 X-1.3878
N375 X-1.3902 Y-0.2409 Z0.4611
N380 X-1.3925 Y-0.2416 Z0.4616
N385 X-1.3943 Y-0.2425 Z0.4629
N390 X-1.3959 Y-0.2436 Z0.4643
N395 X-1.3978 Y-0.2456 Z0.4683
N400 X-1.3983 Y-0.2464 Z0.4731
N405 G0 Z1.0906
N410 G1 X-0.5974 Y-1.0646 F196.85
N415 G0 Z0.6969
N420 G1 Z0.525 F13.123
N425 Z0.4534 F26.4
N430 X-0.5972 Y-1.0648 Z0.4507
N435 X-0.5966 Y-1.0655 Z0.448
N440 X-0.5956 Y-1.0667 Z0.4457
N445 X-0.5943 Y-1.0682 Z0.4437
N450 X-0.5928 Y-1.07 Z0.4422
N455 X-0.5911 Y-1.072 Z0.4413
N460 X-0.5893 Y-1.0741 Z0.4409
N465 X-0.5885 Y-1.0751
N470 G3 X-0.6027 Y-1.054 I0.0885 J0.0751
N475 G2 X-0.6053 Y-1.1101 I-0.0492 J-0.0259
N480 G3 X-0.5917 Y-1.1645 I0.0323 J-0.0209
N485 X-0.3449 Y-0.8953 I0.0912 J0.1641
N490 X-0.671 Y-1.0791 I-0.1556 J-0.105
N495 G1 X-0.668 Y-1.0861
N500 X-0.665 Y-1.0932
N505 G3 X-0.6481 Y-1.1182 I0.0856 J0.0396
N510 G1 X-0.6427 Y-1.1236
N515 X-0.6373 Y-1.129
N520 G3 X-0.5917 Y-1.1645 I0.1368 J0.1286
N525 G2 X-0.5634 Y-1.2145 I-0.0268 J-0.0482
N530 G3 X-0.5255 Y-1.2577 I0.042 J-0.0014
N535 X-0.286 Y-0.8556 I0.0252 J0.2574
N540 X-0.7352 Y-1.1087 I-0.2144 J-0.1447
N545 G2 X-0.7299 Y-1.1211 I-0.1951 J-0.0902
N550 G3 X-0.7247 Y-1.1335 I0.2004 J0.0779
N555 X-0.7078 Y-1.1585 I0.0856 J0.0396
N560 X-0.6983 Y-1.168 I0.1566 J0.1472
N565 G2 X-0.6888 Y-1.1775 I-0.1471 J-0.1567
N570 G3 X-0.5255 Y-1.2577 I0.1885 J0.1771
N575 X-0.5228 Y-1.2423 I0.0008 J0.0078
N580 G1 X-0.7671 Y-1.1782
N585 G3 X-0.7748 Y-1.1912 I-0.002 J-0.0076
N590 G1 X-0.7413 Y-1.2268
N595 G3 X-0.8006 Y-1.139 I0.2413 J0.2268
N600 G1 X-0.7802 Y-1.1832
N605 X-0.7789 Y-1.1852 Z0.4414
N610 X-0.7773 Y-1.1869 Z0.4419
N615 X-0.7757 Y-1.1882 Z0.4433
N620 X-0.7739 Y-1.1891 Z0.4446
N625 X-0.7713 Y-1.1898 Z0.4487
N630 X-0.7703 Y-1.1899 Z0.4534
N635 G0 Z1.0906
N640 G1 X-0.4838 Y-1.0105 F196.85
N645 G0 Z0.6969
N650 G1 Z0.5984 F13.123
N655 Z0.4771
N660 X-0.483 Y-1.01 Z0.4723
N665 X-0.481 Y-1.0081 Z0.4682
N670 X-0.4799 Y-1.0065 Z0.4669
N675 X-0.479 Y-1.0047 Z0.4655
N680 X-0.4783 Y-1.0024 Z0.465
N685 X-0.478 Y-1. Z0.4646
N690 G3 X-0.5219 I-0.0219 J0. F26.4
N695 X-0.478 I0.0219 J0.
N700 X-0.4899 Y-0.9932 I-0.0079 J0.
N705 G1 X-0.5813 Y-1.0473
N710 G3 X-0.5815 Y-1.0608 I0.004 J-0.0068
N715 G1 X-0.5509 Y-1.0802
N720 G3 X-0.5934 Y-1.0172 I0.0509 J0.0802
N725 G1 X-0.5868 Y-1.0529
N730 X-0.5864 Y-1.054
N735 X-0.5856 Y-1.0548
N740 X-0.5845 Y-1.0553
N745 X-0.5833
N750 X-0.5822 Y-1.0548
N755 X-0.5704 Y-1.0467
N760 X-0.5025 Y-1.0061
N765 X-0.5011 Y-1.0056
N770 X-0.4997 Y-1.0055
N775 X-0.4983 Y-1.0059
N780 X-0.4881 Y-1.0108
N785 X-0.4867 Y-1.0112
N790 X-0.4852 Y-1.0111
N795 X-0.4838 Y-1.0105
N800 Z0.4416 F13.123
N805 X-0.483 Y-1.01 Z0.4369
N810 X-0.481 Y-1.0081 Z0.4328
N815 X-0.4799 Y-1.0065 Z0.4314
N820 X-0.479 Y-1.0047 Z0.4301
N825 X-0.4783 Y-1.0024 Z0.4296
N830 X-0.478 Y-1. Z0.4291
N835 G3 X-0.5219 I-0.0219 J0. F26.4
N840 X-0.478 I0.0219 J0.
N845 X-0.4899 Y-0.9932 I-0.0079 J0.
N850 G1 X-0.5813 Y-1.0473
N855 G3 X-0.5815 Y-1.0608 I0.004 J-0.0068
N860 G1 X-0.5509 Y-1.0802
N865 G3 X-0.5934 Y-1.0172 I0.0509 J0.0802
N870 G1 X-0.5868 Y-1.0529
N875 X-0.5863 Y-1.0548 Z0.4295
N880 X-0.5854 Y-1.0566 Z0.4299
N885 X-0.5844 Y-1.0579 Z0.431
N890 X-0.5832 Y-1.0591 Z0.4322
N895 X-0.5813 Y-1.0603 Z0.4355
N900 X-0.5806 Y-1.0606 Z0.4395
N905 G0 Z1.0906
N910 G1 X-2.4781 Y-1.0968 F196.85
N915 G0 Z0.6969
N920 G1 Z0.5984 F13.123
N925 Z0.4731
N930 X-2.4773 Y-1.0963 Z0.4683
N935 X-2.4754 Y-1.0944 Z0.4643
N940 X-2.4742 Y-1.0928 Z0.4629
N945 X-2.4733 Y-1.091 Z0.4616
N950 X-2.4726 Y-1.0887 Z0.4611
N955 X-2.4724 Y-1.0863 Z0.4606
N960 Y-0.9124 F26.4
N965 G3 X-2.4849 Y-0.8905 I-0.0254 J0.
N970 G1 X-2.489 Y-0.888
N975 G3 X-2.511 I-0.011 J-0.0173
N980 G1 X-2.5151 Y-0.8905
N985 G3 X-2.5276 Y-0.9124 I0.0128 J-0.0219
N990 G1 Y-1.0876
N995 G3 X-2.5151 Y-1.1095 I0.0254 J0.
N1000 G1 X-2.511 Y-1.112
N1005 G3 X-2.489 I0.011 J0.0173
N1010 G1 X-2.4849 Y-1.1095
N1015 G3 X-2.4724 Y-1.0876 I-0.0128 J0.0219
N1020 G1 Y-1.0863
N1025 G2 X-2.4367 Y-1.0329 I0.0579 J0.
N1030 G3 X-2.4011 Y-0.9794 I-0.0223 J0.0535
N1035 G1 Y-0.853
N1040 G3 X-2.4389 Y-0.8337 I-0.0989 J-0.147
N1045 G2 X-2.4798 Y-0.775 I0.0216 J0.0587
N1050 G1 Y-0.6097
N1055 X-2.5202
N1060 Y-0.775
N1065 G2 X-2.5611 Y-0.8337 I-0.0625 J0.
N1070 G3 X-2.5989 Y-0.853 I0.0611 J-0.1663
N1075 G1 Y-1.147
N1080 G3 X-2.5611 Y-1.1663 I0.0989 J0.147
N1085 G2 X-2.5202 Y-1.225 I-0.0216 J-0.0587
N1090 G1 Y-1.3903
N1095 X-2.4798
N1100 Y-1.225
N1105 G2 X-2.4389 Y-1.1663 I0.0625 J0.
N1110 G3 X-2.4011 Y-1.147 I-0.0611 J0.1663
N1115 G1 Y-0.9794
N1120 G3 X-2.4118 Y-0.975 I-0.0063 J0.
N1125 G1 X-2.4357 Y-1.0001
N1130 X-2.4788 Y-1.0803
N1135 X-2.4829 Y-1.0932
N1140 X-2.483 Y-1.0945
N1145 X-2.4827 Y-1.0957
N1150 X-2.4818 Y-1.0967
N1155 X-2.4806 Y-1.0973
N1160 X-2.4793
N1165 X-2.4781 Y-1.0968
N1170 Z0.4338 F13.123
N1175 X-2.4773 Y-1.0963 Z0.429
N1180 X-2.4754 Y-1.0944 Z0.4249
N1185 X-2.4742 Y-1.0928 Z0.4236
N1190 X-2.4733 Y-1.091 Z0.4222
N1195 X-2.4726 Y-1.0887 Z0.4217
N1200 X-2.4724 Y-1.0863 Z0.4213
N1205 Y-0.9124 F26.4
N1210 G3 X-2.4849 Y-0.8905 I-0.0254 J0.
N1215 G1 X-2.489 Y-0.888
N1220 G3 X-2.511 I-0.011 J-0.0173
N1225 G1 X-2.5151 Y-0.8905
N1230 G3 X-2.5276 Y-0.9124 I0.0128 J-0.0219
N1235 G1 Y-1.0876
N1240 G3 X-2.5151 Y-1.1095 I0.0254 J0.
N1245 G1 X-2.511 Y-1.112
N1250 G3 X-2.489 I0.011 J0.0173
N1255 G1 X-2.4849 Y-1.1095
N1260 G3 X-2.4724 Y-1.0876 I-0.0128 J0.0219
N1265 G1 Y-1.0863
N1270 G2 X-2.4367 Y-1.0329 I0.0579 J0.
N1275 G3 X-2.4011 Y-0.9794 I-0.0223 J0.0535
N1280 G1 Y-0.853
N1285 G3 X-2.4389 Y-0.8337 I-0.0989 J-0.147
N1290 G2 X-2.4798 Y-0.775 I0.0216 J0.0587
N1295 G1 Y-0.6097
N1300 X-2.5202
N1305 Y-0.775
N1310 G2 X-2.5611 Y-0.8337 I-0.0625 J0.
N1315 G3 X-2.5989 Y-0.853 I0.0611 J-0.1663
N1320 G1 Y-1.147
N1325 G3 X-2.5611 Y-1.1663 I0.0989 J0.147
N1330 G2 X-2.5202 Y-1.225 I-0.0216 J-0.0587
N1335 G1 Y-1.3903
N1340 X-2.4798
N1345 Y-1.225
N1350 G2 X-2.4389 Y-1.1663 I0.0625 J0.
N1355 G3 X-2.4011 Y-1.147 I-0.0611 J0.1663
N1360 G1 Y-0.9794
N1365 X-2.4014 Y-0.977 Z0.4217
N1370 X-2.4021 Y-0.9747 Z0.4222
N1375 X-2.4031 Y-0.973 Z0.4236
N1380 X-2.4044 Y-0.9714 Z0.4249
N1385 X-2.4064 Y-0.9696 Z0.429
N1390 X-2.4072 Y-0.9691 Z0.4338
N1395 G0 Z1.0906

(Trace1)
N1400 G1 X-1.5109 Y-1.6824 F196.85
N1405 G0 Z1.0906
N1410 Z0.6969
N1415 G1 Z0.4213 F13.123
N1420 X-2.0054 Y-1.5302 Z0.4803 F15.4
N1425 Z0.6969
N1430 X-1.5109 Y-1.6824 F196.85
N1435 Z0.4213 F13.123
N1440 X-1.4587 Y-1.6472 F15.4
N1445 X-1.219 Y-1.4854 Z0.374
N1450 X-0.7397 Y-1.1618
N1455 X-0.5 Y-1. Z0.4213
N1460 Z0.6969
N1465 X-1.5109 Y-1.6824 F196.85
N1470 Z0.4213 F13.123
N1475 X-2.0054 Y-1.5302 Z0.4803 F15.4
N1480 Z0.6969
N1485 X-1.5109 Y-1.6824 F196.85
N1490 Z0.4213 F13.123
N1495 X-1.4587 Y-1.6472 F15.4
N1500 X-1.219 Y-1.4854 Z0.374
N1505 X-0.7397 Y-1.1618
N1510 X-0.5 Y-1. Z0.4213
N1515 Z0.6969
N1520 G0 Z1.0906
N1525 M9
N1530 M5
N1535 G53 G0 Z0.

(2D Contour1)
N1540 T5 M6
N1545 S4500 M3
N1550 G17 G90
N1555 G54
N1560 M8
N1565 G1 X-2.4254 Y-0.9387 F196.85
N1570 G0 G43 Z1.0906 H5
N1575 T10
N1580 G0 Z0.6969
N1585 G1 Z0.5394 F13.123
N1590 Z0.4541
N1595 G18 G2 X-2.4004 Z0.4291 I0.025 K0. F25.
N1600 G1 X-2.3754
N1605 G17 G3 X-2.3504 Y-0.9137 I0. J0.025
N1610 G1 Y-0.8281 F0.984
N1615 G3 X-2.4214 Y-0.7861 I-0.1496 J-0.1719
N1620 G2 X-2.4291 Y-0.775 I0.0041 J0.0111
N1625 G1 Y-0.5718
N1630 X-2.4419 Y-0.5591
N1635 X-2.5581
N1640 X-2.5709 Y-0.5718
N1645 Y-0.775
N1650 G2 X-2.5786 Y-0.7861 I-0.0118 J0.
N1655 G3 X-2.6496 Y-0.8281 I0.0786 J-0.2139
N1660 G1 Y-1.1719
N1665 G3 X-2.5786 Y-1.2139 I0.1496 J0.1719
N1670 G2 X-2.5709 Y-1.225 I-0.0041 J-0.0111
N1675 G1 Y-1.4282
N1680 X-2.5581 Y-1.4409
N1685 X-2.4419
N1690 X-2.4291 Y-1.4282
N1695 Y-1.225
N1700 G2 X-2.4214 Y-1.2139 I0.0118 J0.
N1705 G3 X-2.3504 Y-1.1719 I-0.0786 J0.2139
N1710 G1 Y-0.9137
N1715 Y-0.8281
N1720 G3 X-2.4214 Y-0.7861 I-0.1496 J-0.1719
N1725 G2 X-2.4291 Y-0.775 I0.0041 J0.0111
N1730 G1 Y-0.5718
N1735 X-2.4419 Y-0.5591
N1740 X-2.5581
N1745 X-2.5709 Y-0.5718
N1750 Y-0.775
N1755 G2 X-2.5786 Y-0.7861 I-0.0118 J0.
N1760 G3 X-2.6496 Y-0.8281 I0.0786 J-0.2139
N1765 G1 Y-1.1719
N1770 G3 X-2.5786 Y-1.2139 I0.1496 J0.1719
N1775 G2 X-2.5709 Y-1.225 I-0.0041 J-0.0111
N1780 G1 Y-1.4282
N1785 X-2.5581 Y-1.4409
N1790 X-2.4419
N1795 X-2.4291 Y-1.4282
N1800 Y-1.225
N1805 G2 X-2.4214 Y-1.2139 I0.0118 J0.
N1810 G3 X-2.3504 Y-1.1719 I-0.0786 J0.2139
N1815 G1 Y-0.9137
N1820 G3 X-2.3754 Y-0.8887 I-0.025 J0. F25.
N1825 G1 X-2.4004
N1830 G18 G3 X-2.4254 Z0.4541 I0. K0.025
N1835 G0 Z1.0906

(2D Contour2)
N1840 G17
N1845 G1 X-1.5872 Y-0.2531 F196.85
N1850 G0 Z1.0906
N1855 Z0.6969
N1860 G1 Z0.5394 F13.123
N1865 Z0.4856
N1870 G19 G3 Y-0.2281 Z0.4606 J0.025 K0. F25.
N1875 G1 Y-0.2031
N1880 G17 G3 X-1.6122 Y-0.1781 I-0.025 J0.
N1885 G1 X-1.6447 F0.984
N1890 G3 X-1.6841 Y-0.2175 I0. J-0.0394
N1895 G1 Y-0.2825
N1900 G3 X-1.6447 Y-0.3219 I0.0394 J0.
N1905 G1 X-1.3553
N1910 G3 X-1.3159 Y-0.2825 I0. J0.0394
N1915 G1 Y-0.2175
N1920 G3 X-1.3553 Y-0.1781 I-0.0394 J0.
N1925 G1 X-1.6122
N1930 X-1.6447
N1935 G3 X-1.6841 Y-0.2175 I0. J-0.0394
N1940 G1 Y-0.2825
N1945 G3 X-1.6447 Y-0.3219 I0.0394 J0.
N1950 G1 X-1.3553
N1955 G3 X-1.3159 Y-0.2825 I0. J0.0394
N1960 G1 Y-0.2175
N1965 G3 X-1.3553 Y-0.1781 I-0.0394 J0.
N1970 G1 X-1.6122
N1975 G3 X-1.6372 Y-0.2031 I0. J-0.025 F25.
N1980 G1 Y-0.2281
N1985 G19 G2 Y-0.2531 Z0.4856 J0. K0.025
N1990 G0 Z1.0906
N1995 M9
N2000 M5
N2005 G53 G0 Z0.

(2D Pocket2)
N2010 T10 M6
N2015 S6000 M3
N2020 G17 G90
N2025 G54
N2030 M8
N2035 G1 X-1.3867 Y-0.2553 F196.85
N2040 G0 G43 Z1.0906 H10
N2045 T1
N2050 G0 Z0.6969
N2055 G1 Z0.5984 F13.123
N2060 Z0.4669
N2065 X-1.3861 Y-0.2548 Z0.4638
N2070 X-1.3853 Y-0.2539 Z0.4626
N2075 X-1.3846 Y-0.253 Z0.4615
N2080 X-1.3841 Y-0.2515 Z0.461
N2085 X-1.3839 Y-0.25 Z0.4606
N2090 X-1.3841 Y-0.2482 F13.2
N2095 X-1.3848 Y-0.2466
N2100 X-1.3859 Y-0.2452
N2105 X-1.3873 Y-0.2441
N2110 X-1.3889 Y-0.2434
N2115 X-1.3907 Y-0.2432
N2120 X-1.6139
N2125 X-1.6155 Y-0.2434
N2130 X-1.6169 Y-0.2441
N2135 X-1.6181 Y-0.2453
N2140 X-1.6188 Y-0.2467
N2145 X-1.619 Y-0.2483
N2150 Y-0.2517
N2155 X-1.6188 Y-0.2533
N2160 X-1.6181 Y-0.2547
N2165 X-1.6169 Y-0.2559
N2170 X-1.6155 Y-0.2566
N2175 X-1.6139 Y-0.2568
N2180 X-1.3907
N2185 X-1.3889 Y-0.2566
N2190 X-1.3873 Y-0.2559
N2195 X-1.3859 Y-0.2548
N2200 X-1.3848 Y-0.2534
N2205 X-1.3841 Y-0.2518
N2210 X-1.3839 Y-0.25
N2215 G2 X-1.3707 Y-0.2317 I0.0193 J0.
N2220 G3 X-1.3743 Y-0.2094 I-0.0036 J0.0109
N2225 G1 X-1.6447
N2230 G3 X-1.6528 Y-0.2175 I0. J-0.0081
N2235 G1 Y-0.2825
N2240 G3 X-1.6447 Y-0.2906 I0.0081 J0.
N2245 G1 X-1.3553
N2250 G3 X-1.3472 Y-0.2825 I0. J0.0081
N2255 G1 Y-0.2175
N2260 G3 X-1.3553 Y-0.2094 I-0.0081 J0.
N2265 G1 X-1.3743
N2270 X-1.3758 Y-0.2096 Z0.461
N2275 X-1.3772 Y-0.2103 Z0.4615
N2280 X-1.3782 Y-0.2109 Z0.4626
N2285 X-1.3789 Y-0.2118 Z0.4638
N2290 X-1.3794 Y-0.2125 Z0.4669
N2295 G0 Z1.0906
N2300 G1 X-2.482 Y-0.8937 F196.85
N2305 G0 Z0.6969
N2310 G1 Z0.5984 F13.123
N2315 Z0.4275
N2320 X-2.4821 Y-0.8929 Z0.4244
N2325 X-2.4824 Y-0.8918 Z0.4232
N2330 X-2.4828 Y-0.8908 Z0.4221
N2335 X-2.4838 Y-0.8895 Z0.4217
N2340 X-2.485 Y-0.8886 Z0.4213
N2345 X-2.489 Y-0.8861 F13.2
N2350 G3 X-2.511 I-0.011 J-0.0171
N2355 G1 X-2.5165 Y-0.8894
N2360 G3 X-2.5292 Y-0.9116 I0.0128 J-0.0222
N2365 G1 Y-1.0884
N2370 G3 X-2.5165 Y-1.1106 I0.0256 J0.
N2375 G1 X-2.511 Y-1.1139
N2380 G3 X-2.489 I0.011 J0.0171
N2385 G1 X-2.4835 Y-1.1106
N2390 G3 X-2.4708 Y-1.0884 I-0.0128 J0.0222
N2395 G1 Y-0.9116
N2400 G3 X-2.4835 Y-0.8894 I-0.0256 J0.
N2405 G1 X-2.485 Y-0.8886
N2410 G2 X-2.4964 Y-0.8643 I0.0123 J0.0206
N2415 G3 X-2.5198 Y-0.851 I-0.0142 J0.0022
N2420 G2 X-2.5485 Y-0.8676 I-0.0629 J0.076
N2425 G3 X-2.5628 Y-0.888 I0.0076 J-0.0205
N2430 G1 Y-1.112
N2435 G3 X-2.5485 Y-1.1324 I0.0218 J0.
N2440 G2 X-2.5072 Y-1.1616 I-0.0341 J-0.0925
N2445 G3 X-2.4928 I0.0072 J0.006
N2450 G2 X-2.4515 Y-1.1324 I0.0755 J-0.0634
N2455 G3 X-2.4372 Y-1.112 I-0.0076 J0.0205
N2460 G1 Y-0.888
N2465 G3 X-2.4515 Y-0.8676 I-0.0218 J0.
N2470 G2 X-2.4928 Y-0.8384 I0.0341 J0.0925
N2475 G3 X-2.5072 I-0.0072 J-0.006
N2480 G2 X-2.5198 Y-0.851 I-0.0755 J0.0634
N2485 X-2.5522 Y-0.8506 I-0.016 J0.0193
N2490 G3 X-2.5844 Y-0.8471 I-0.0186 J-0.0213
N2495 G1 X-2.585 Y-0.8474
N2500 G3 X-2.5964 Y-0.8668 I0.0108 J-0.0194
N2505 G1 Y-1.1332
N2510 G3 X-2.585 Y-1.1526 I0.0222 J0.
N2515 X-2.5727 Y-1.1584 I0.0471 J0.0846
N2520 X-2.56 Y-1.1631 I0.3145 J0.8164
N2525 G2 X-2.5282 Y-1.1871 I-0.0236 J-0.0643
N2530 X-2.5159 Y-1.225 I-0.052 J-0.0378
N2535 G1 X-2.5177 Y-1.3752
N2540 G3 X-2.5051 Y-1.3877 I0.0126 J0.
N2545 G1 X-2.4949
N2550 G3 X-2.4823 Y-1.3752 I0. J0.0126
N2555 G1 X-2.4841 Y-1.225
N2560 G2 X-2.4718 Y-1.1871 I0.0643 J0.
N2565 X-2.44 Y-1.1631 I0.0554 J-0.0403
N2570 G3 X-2.4273 Y-1.1584 I-0.302 J0.8217
N2575 X-2.415 Y-1.1526 I-0.0348 J0.0904
N2580 X-2.4036 Y-1.1332 I-0.0108 J0.0194
N2585 G1 Y-0.8668
N2590 G3 X-2.415 Y-0.8474 I-0.0222 J0.
N2595 X-2.4273 Y-0.8416 I-0.0471 J-0.0846
N2600 X-2.44 Y-0.8369 I-0.3145 J-0.8164
N2605 G2 X-2.4718 Y-0.8129 I0.0236 J0.0643
N2610 X-2.4841 Y-0.775 I0.052 J0.0378
N2615 G1 X-2.4823 Y-0.6248
N2620 G3 X-2.4949 Y-0.6123 I-0.0126 J0.
N2625 G1 X-2.5051
N2630 G3 X-2.5177 Y-0.6248 I0. J-0.0126
N2635 G1 X-2.5159 Y-0.775
N2640 G2 X-2.5282 Y-0.8129 I-0.0643 J0.
N2645 X-2.56 Y-0.8369 I-0.0554 J0.0403
N2650 G3 X-2.5727 Y-0.8416 I0.302 J-0.8217
N2655 X-2.5844 Y-0.8471 I0.0348 J-0.0904
N2660 G2 X-2.608 Y-0.8434 I-0.0094 J0.0172
N2665 G3 X-2.6302 Y-0.8523 I-0.0093 J-0.0089
N2670 G1 Y-1.1628
N2675 G3 X-2.5719 Y-1.1956 I0.1302 J0.1628
N2680 G2 X-2.5514 Y-1.225 I-0.0108 J-0.0293
N2685 G1 Y-1.4201
N2690 X-2.55 Y-1.4215
N2695 X-2.45
N2700 X-2.4486 Y-1.4201
N2705 Y-1.225
N2710 G2 X-2.4281 Y-1.1956 I0.0312 J0.
N2715 G3 X-2.3698 Y-1.1628 I-0.0719 J0.1956
N2720 G1 Y-0.8372
N2725 G3 X-2.4281 Y-0.8044 I-0.1302 J-0.1628
N2730 G2 X-2.4486 Y-0.775 I0.0108 J0.0293
N2735 G1 Y-0.5799
N2740 X-2.45 Y-0.5785
N2745 X-2.55
N2750 X-2.5514 Y-0.5799
N2755 Y-0.775
N2760 G2 X-2.5719 Y-0.8044 I-0.0312 J0.
N2765 G3 X-2.6302 Y-0.8372 I0.0719 J-0.1956
N2770 G1 Y-0.8523
N2775 X-2.6299 Y-0.8538 Z0.4217
N2780 X-2.6293 Y-0.8553 Z0.4221
N2785 X-2.6286 Y-0.8562 Z0.4232
N2790 X-2.6278 Y-0.857 Z0.4244
N2795 X-2.6271 Y-0.8574 Z0.4275
N2800 G0 Z1.0906

N2805 M5
N2810 M9
N2815 G53 G0 Z0.
N2820 X-1.5
N2825 G53 G0 Y0.
N2830 M30

%
