%
O10015 (Automatic CAM Program)
(Using high feed G1 F196.85 instead of G0.)
(T1 D=0.125 CR=0. - ZMIN=0.374 - flat end mill)
(T5 D=0.25 CR=0. TAPER=90deg - ZMIN=0.4291 - spot drill)
(T10 D=0.0625 CR=0. - ZMIN=0.4213 - flat end mill)
N10 G90 G17
N15 G20
N20 G53 G0 Z0.

(2D Pocket1)
N25 T1 M6
N30 S6000 M3
N35 G17 G90
N40 G54
N45 M8
N50 G1 X-2.4995 Y-0.564 F196.85
N55 G0 G43 Z1.0906 H1
N60 T5
N65 G0 Z0.6969
N70 G1 Z0.5984 F13.123
N75 Z0.4803
N80 Y-0.313 F26.4
N85 G2 X-2.437 Y-0.2505 I0.0625 J0.
N90 G1 X-1.6975
N95 X-1.6477
N100 Z0.4928
N105 G0 Z0.6969
N110 G1 X-1.6476 Y-0.2495 F196.85
N115 Z0.5984 F13.123
N120 Z0.4803
N125 X-2.5 F26.4
N130 X-2.5003 Y-0.2497
N135 X-2.5005 Y-0.25
N140 Y-0.5059
N145 Y-0.5639
N150 Z0.4928
N155 G0 Z1.0906
N160 G1 X-1.3524 Y-0.2505 F196.85
N165 G0 Z0.6969
N170 G1 Z0.5984 F13.123
N175 Z0.4803
N180 X-0.563 F26.4
N185 G2 X-0.5005 Y-0.313 I0. J-0.0625
N190 G1 Y-0.6094
N195 Y-0.6626
N200 Z0.4928
N205 G0 Z0.6969
N210 G1 X-0.4995 Y-0.6627 F196.85
N215 Z0.5984 F13.123
N220 Z0.4803
N225 Y-0.25 F26.4
N230 X-0.5 Y-0.2495
N235 X-1.3025
N240 X-1.3523
N245 Z0.4928
N250 G0 Z1.0906
N255 G1 X-1.4913 Y-1.7247 F196.85
N260 G0 Z0.6969
N265 G1 Z0.5984 F13.123
N270 Z0.4803
N275 X-2.4391 Y-1.7303 F26.4
N280 G2 X-2.502 Y-1.6673 I-0.0004 J0.0625
N285 G1 X-2.5005 Y-1.4936
N290 X-2.5 Y-1.4356
N295 Z0.4928
N300 G0 Z0.6969
N305 G1 X-2.501 Y-1.4357 F196.85
N310 Z0.5984 F13.123
N315 Z0.4803
N320 X-2.5015 Y-1.4946 F26.4
N325 X-2.5035 Y-1.7312
N330 X-2.503 Y-1.7317
N335 X-1.4913 Y-1.7257
N340 Z0.4928
N345 G0 Z1.0906
N350 G1 X-1.3878 Y-0.2387 F196.85
N355 G0 Z0.6969
N360 G1 Z0.5984 F13.123
N365 Z0.4606
N370 X-1.6235 F26.4
N375 Y-0.2613
N380 X-1.3765
N385 Y-0.2387
N390 X-1.3878
N395 X-1.3902 Y-0.2389 Z0.4611
N400 X-1.3925 Y-0.2396 Z0.4616
N405 X-1.3943 Y-0.2405 Z0.4629
N410 X-1.3959 Y-0.2417 Z0.4643
N415 X-1.3978 Y-0.2436 Z0.4683
N420 X-1.3983 Y-0.2444 Z0.4731
N425 G0 Z1.0906
N430 G1 X-0.4989 Y-1.1188 F196.85
N435 G0 Z0.6969
N440 G1 Z0.525 F13.123
N445 Z0.4534 F26.4
N450 X-0.4986 Z0.4507
N455 X-0.4976 Y-1.1186 Z0.448
N460 X-0.4962 Y-1.1185 Z0.4457
N465 X-0.4942 Y-1.1182 Z0.4437
N470 X-0.4919 Y-1.1179 Z0.4422
N475 X-0.4892 Y-1.1176 Z0.4413
N480 X-0.4865 Y-1.1172 Z0.4409
N485 X-0.4852 Y-1.1171
N490 G3 X-0.5091 Y-1.1177 I-0.0148 J0.1171
N495 G2 X-0.4628 Y-1.1497 I-0.0043 J-0.0557
N500 G3 X-0.4093 Y-1.1673 I0.035 J0.0164
N505 X-0.5047 Y-0.811 I-0.0906 J0.1667
N510 X-0.5256 Y-1.1886 I0.0047 J-0.1897
N515 G1 X-0.5179 Y-1.1899
N520 X-0.5102 Y-1.1912
N525 G3 X-0.4802 Y-1.1905 I0.0127 J0.0934
N530 G1 X-0.4726 Y-1.1888
N535 X-0.465 Y-1.1871
N540 G3 X-0.4093 Y-1.1673 I-0.0349 J0.1865
N545 G2 X-0.3519 Y-1.1702 I0.0263 J-0.0484
N550 G3 X-0.295 Y-1.1615 I0.0237 J0.0347
N555 X-0.5065 Y-0.7399 I-0.2049 J0.161
N560 X-0.5351 Y-1.2587 I0.0065 J-0.2605
N565 G2 X-0.5218 Y-1.2609 I-0.0291 J-0.2146
N570 G3 X-0.5084 Y-1.2632 I0.0424 J0.2123
N575 X-0.4784 Y-1.2624 I0.0127 J0.0934
N580 X-0.4652 Y-1.2595 I-0.0398 J0.2128
N585 G2 X-0.452 Y-1.2566 I0.053 J-0.2099
N590 G3 X-0.295 Y-1.1615 I-0.0479 J0.2562
N595 X-0.3065 Y-1.1508 I-0.0062 J0.0049
N600 G1 X-0.4936 Y-1.323
N605 G3 X-0.4869 Y-1.3365 I0.0053 J-0.0058
N610 G1 X-0.4387 Y-1.3275
N615 G3 X-0.5448 Y-1.3301 I-0.0612 J0.3275
N620 G1 X-0.4965 Y-1.3367
N625 X-0.4942 Z0.4414
N630 X-0.4918 Y-1.3363 Z0.4419
N635 X-0.4899 Y-1.3356 Z0.4433
N640 X-0.4882 Y-1.3345 Z0.4446
N645 X-0.4862 Y-1.3327 Z0.4487
N650 X-0.4855 Y-1.332 Z0.4534
N655 G0 Z1.0906
N660 G1 X-0.4838 Y-1.0105 F196.85
N665 G0 Z0.6969
N670 G1 Z0.5984 F13.123
N675 Z0.4771
N680 X-0.483 Y-1.01 Z0.4723
N685 X-0.481 Y-1.0081 Z0.4682
N690 X-0.4799 Y-1.0065 Z0.4669
N695 X-0.479 Y-1.0047 Z0.4655
N700 X-0.4783 Y-1.0024 Z0.465
N705 X-0.478 Y-1. Z0.4646
N710 G3 X-0.5219 I-0.0219 J0. F26.4
N715 X-0.478 I0.0219 J0.
N720 X-0.4938 Y-0.9992 I-0.0079 J0.
N725 G1 X-0.5039 Y-1.0934
N730 G3 X-0.4927 Y-1.1014 I0.0078 J-0.0008
N735 G1 X-0.4598 Y-1.0861
N740 G3 X-0.5358 Y-1.088 I-0.0402 J0.0861
N745 G1 X-0.5022 Y-1.1016
N750 X-0.5011 Y-1.1019
N755 X-0.4999 Y-1.1016
N760 X-0.4989 Y-1.1009
N765 X-0.4983 Y-1.1
N770 X-0.4981 Y-1.0988
N775 X-0.4986 Y-1.0845
N780 X-0.4968 Y-1.0142
N785 G3 X-0.5001 Y-1.0195 I-0.0062 J0.0002
N790 G1 X-0.4838 Y-1.0105
N795 Z0.4416 F13.123
N800 X-0.483 Y-1.01 Z0.4369
N805 X-0.481 Y-1.0081 Z0.4328
N810 X-0.4799 Y-1.0065 Z0.4314
N815 X-0.479 Y-1.0047 Z0.4301
N820 X-0.4783 Y-1.0024 Z0.4296
N825 X-0.478 Y-1. Z0.4291
N830 G3 X-0.5219 I-0.0219 J0. F26.4
N835 X-0.478 I0.0219 J0.
N840 X-0.4938 Y-0.9992 I-0.0079 J0.
N845 G1 X-0.5039 Y-1.0934
N850 G3 X-0.4927 Y-1.1014 I0.0078 J-0.0008
N855 G1 X-0.4598 Y-1.0861
N860 G3 X-0.5358 Y-1.088 I-0.0402 J0.0861
N865 G1 X-0.5022 Y-1.1016
N870 X-0.5003 Y-1.1022 Z0.4295
N875 X-0.4983 Y-1.1024 Z0.4299
N880 X-0.4967 Y-1.1023 Z0.431
N885 X-0.495 Y-1.1019 Z0.4322
N890 X-0.493 Y-1.101 Z0.4355
N895 X-0.4923 Y-1.1005 Z0.4395
N900 G0 Z1.0906
N905 G1 X-2.4762 Y-1.0971 F196.85
N910 G0 Z0.6969
N915 G1 Z0.5984 F13.123
N920 Z0.4731
N925 X-2.4754 Y-1.0966 Z0.4683
N930 X-2.4734 Y-1.0947 Z0.4643
N935 X-2.4722 Y-1.0931 Z0.4629
N940 X-2.4713 Y-1.0912 Z0.4616
N945 X-2.4706 Y-1.089 Z0.4611
N950 X-2.4704 Y-1.0866 Z0.4606
N955 Y-0.911 F26.4
N960 G3 X-2.483 Y-0.8891 I-0.0254 J0.
N965 G1 X-2.4894 Y-0.8851
N970 G3 X-2.5106 I-0.0106 J-0.016
N975 G1 X-2.517 Y-0.8891
N980 G3 X-2.5296 Y-0.911 I0.0128 J-0.0219
N985 G1 Y-1.089
N990 G3 X-2.517 Y-1.1109 I0.0254 J0.
N995 G1 X-2.5106 Y-1.1149
N1000 G3 X-2.4894 I0.0106 J0.016
N1005 G1 X-2.483 Y-1.1109
N1010 G3 X-2.4704 Y-1.089 I-0.0128 J0.0219
N1015 G1 Y-1.0866
N1020 G2 X-2.4348 Y-1.0331 I0.0579 J0.
N1025 G3 X-2.3991 Y-0.9796 I-0.0223 J0.0535
N1030 G1 Y-0.852
N1035 G3 X-2.4372 Y-0.8322 I-0.1009 J-0.148
N1040 G2 X-2.4779 Y-0.7737 I0.0219 J0.0585
N1045 G1 Y-0.6078
N1050 X-2.5221
N1055 Y-0.7737
N1060 G2 X-2.5628 Y-0.8322 I-0.0625 J0.
N1065 G3 X-2.6009 Y-0.852 I0.0628 J-0.1678
N1070 G1 Y-1.148
N1075 G3 X-2.5628 Y-1.1678 I0.1009 J0.148
N1080 G2 X-2.5221 Y-1.2263 I-0.0219 J-0.0585
N1085 G1 Y-1.3922
N1090 X-2.4779
N1095 Y-1.2263
N1100 G2 X-2.4372 Y-1.1678 I0.0625 J0.
N1105 G3 X-2.3991 Y-1.148 I-0.0628 J0.1678
N1110 G1 Y-0.9796
N1115 G3 X-2.4098 Y-0.9753 I-0.0062 J0.
N1120 G1 X-2.4344 Y-1.0007
N1125 X-2.4768 Y-1.0791
N1130 X-2.4814 Y-1.0931
N1135 X-2.4815 Y-1.0945
N1140 X-2.4811 Y-1.0959
N1145 X-2.4802 Y-1.0969
N1150 X-2.4789 Y-1.0975
N1155 X-2.4775 Y-1.0976
N1160 X-2.4762 Y-1.0971
N1165 Z0.4338 F13.123
N1170 X-2.4754 Y-1.0966 Z0.429
N1175 X-2.4734 Y-1.0947 Z0.4249
N1180 X-2.4722 Y-1.0931 Z0.4236
N1185 X-2.4713 Y-1.0912 Z0.4222
N1190 X-2.4706 Y-1.089 Z0.4217
N1195 X-2.4704 Y-1.0866 Z0.4213
N1200 Y-0.911 F26.4
N1205 G3 X-2.483 Y-0.8891 I-0.0254 J0.
N1210 G1 X-2.4894 Y-0.8851
N1215 G3 X-2.5106 I-0.0106 J-0.016
N1220 G1 X-2.517 Y-0.8891
N1225 G3 X-2.5296 Y-0.911 I0.0128 J-0.0219
N1230 G1 Y-1.089
N1235 G3 X-2.517 Y-1.1109 I0.0254 J0.
N1240 G1 X-2.5106 Y-1.1149
N1245 G3 X-2.4894 I0.0106 J0.016
N1250 G1 X-2.483 Y-1.1109
N1255 G3 X-2.4704 Y-1.089 I-0.0128 J0.0219
N1260 G1 Y-1.0866
N1265 G2 X-2.4348 Y-1.0331 I0.0579 J0.
N1270 G3 X-2.3991 Y-0.9796 I-0.0223 J0.0535
N1275 G1 Y-0.852
N1280 G3 X-2.4372 Y-0.8322 I-0.1009 J-0.148
N1285 G2 X-2.4779 Y-0.7737 I0.0219 J0.0585
N1290 G1 Y-0.6078
N1295 X-2.5221
N1300 Y-0.7737
N1305 G2 X-2.5628 Y-0.8322 I-0.0625 J0.
N1310 G3 X-2.6009 Y-0.852 I0.0628 J-0.1678
N1315 G1 Y-1.148
N1320 G3 X-2.5628 Y-1.1678 I0.1009 J0.148
N1325 G2 X-2.5221 Y-1.2263 I-0.0219 J-0.0585
N1330 G1 Y-1.3922
N1335 X-2.4779
N1340 Y-1.2263
N1345 G2 X-2.4372 Y-1.1678 I0.0625 J0.
N1350 G3 X-2.3991 Y-1.148 I-0.0628 J0.1678
N1355 G1 Y-0.9796
N1360 X-2.3994 Y-0.9773 Z0.4217
N1365 X-2.4002 Y-0.975 Z0.4222
N1370 X-2.4011 Y-0.9732 Z0.4236
N1375 X-2.4024 Y-0.9716 Z0.4249
N1380 X-2.4044 Y-0.9699 Z0.429
N1385 X-2.4052 Y-0.9694 Z0.4338
N1390 G0 Z1.0906

(Trace1)
N1395 G1 X-0.482 Y-1.7192 F196.85
N1400 G0 Z1.0906
N1405 Z0.6969
N1410 G1 Z0.4213 F13.123
N1415 X-1.4925 Y-1.7252 Z0.4803 F15.4
N1420 Z0.6969
N1425 X-0.482 Y-1.7192 F196.85
N1430 Z0.4213 F13.123
N1435 X-0.4836 Y-1.6562 F15.4
N1440 X-0.4877 Y-1.4922 Z0.374
N1445 X-0.4959 Y-1.1641
N1450 X-0.5 Y-1. Z0.4213
N1455 Z0.6969
N1460 X-0.482 Y-1.7192 F196.85
N1465 Z0.4213 F13.123
N1470 X-1.4925 Y-1.7252 Z0.4803 F15.4
N1475 Z0.6969
N1480 X-0.482 Y-1.7192 F196.85
N1485 Z0.4213 F13.123
N1490 X-0.4836 Y-1.6562 F15.4
N1495 X-0.4877 Y-1.4922 Z0.374
N1500 X-0.4959 Y-1.1641
N1505 X-0.5 Y-1. Z0.4213
N1510 Z0.6969
N1515 G0 Z1.0906
N1520 M9
N1525 M5
N1530 G53 G0 Z0.

(2D Contour1)
N1535 T5 M6
N1540 S4500 M3
N1545 G17 G90
N1550 G54
N1555 M8
N1560 G1 X-2.4234 Y-1.1116 F196.85
N1565 G0 G43 Z1.0906 H5
N1570 T10
N1575 G0 Z0.6969
N1580 G1 Z0.5394 F13.123
N1585 Z0.4541
N1590 G18 G2 X-2.3984 Z0.4291 I0.025 K0. F25.
N1595 G1 X-2.3734
N1600 G17 G3 X-2.3484 Y-1.0866 I0. J0.025
N1605 G1 Y-0.8272 F0.984
N1610 G3 X-2.4195 Y-0.7847 I-0.1516 J-0.1728
N1615 G2 X-2.4272 Y-0.7737 I0.0041 J0.0111
N1620 G1 Y-0.571
N1625 X-2.4411 Y-0.5571
N1630 X-2.5589
N1635 X-2.5728 Y-0.571
N1640 Y-0.7737
N1645 G2 X-2.5805 Y-0.7847 I-0.0118 J0.
N1650 G3 X-2.6516 Y-0.8272 I0.0805 J-0.2153
N1655 G1 Y-1.1728
N1660 G3 X-2.5805 Y-1.2153 I0.1516 J0.1728
N1665 G2 X-2.5728 Y-1.2263 I-0.0041 J-0.0111
N1670 G1 Y-1.429
N1675 X-2.5589 Y-1.4429
N1680 X-2.4411
N1685 X-2.4272 Y-1.429
N1690 Y-1.2263
N1695 G2 X-2.4195 Y-1.2153 I0.0118 J0.
N1700 G3 X-2.3484 Y-1.1728 I-0.0805 J0.2153
N1705 G1 Y-0.8272
N1710 G3 X-2.4195 Y-0.7847 I-0.1516 J-0.1728
N1715 G2 X-2.4272 Y-0.7737 I0.0041 J0.0111
N1720 G1 Y-0.571
N1725 X-2.4411 Y-0.5571
N1730 X-2.5589
N1735 X-2.5728 Y-0.571
N1740 Y-0.7737
N1745 G2 X-2.5805 Y-0.7847 I-0.0118 J0.
N1750 G3 X-2.6516 Y-0.8272 I0.0805 J-0.2153
N1755 G1 Y-1.1728
N1760 G3 X-2.5805 Y-1.2153 I0.1516 J0.1728
N1765 G2 X-2.5728 Y-1.2263 I-0.0041 J-0.0111
N1770 G1 Y-1.429
N1775 X-2.5589 Y-1.4429
N1780 X-2.4411
N1785 X-2.4272 Y-1.429
N1790 Y-1.2263
N1795 G2 X-2.4195 Y-1.2153 I0.0118 J0.
N1800 G3 X-2.3484 Y-1.1728 I-0.0805 J0.2153
N1805 G1 Y-1.0866
N1810 G3 X-2.3734 Y-1.0616 I-0.025 J0. F25.
N1815 G1 X-2.3984
N1820 G18 G3 X-2.4234 Z0.4541 I0. K0.025
N1825 G0 Z1.0906

(2D Contour2)
N1830 G17
N1835 G1 X-1.389 Y-0.275 F196.85
N1840 G0 Z1.0906
N1845 Z0.6969
N1850 G1 Z0.5394 F13.123
N1855 Z0.4856
N1860 G18 G2 X-1.364 Z0.4606 I0.025 K0. F25.
N1865 G1 X-1.339
N1870 G17 G3 X-1.314 Y-0.25 I0. J0.025
N1875 G1 Y-0.2175 F0.984
N1880 G3 X-1.3553 Y-0.1762 I-0.0413 J0.
N1885 G1 X-1.6447
N1890 G3 X-1.686 Y-0.2175 I0. J-0.0413
N1895 G1 Y-0.2825
N1900 G3 X-1.6447 Y-0.3238 I0.0413 J0.
N1905 G1 X-1.3553
N1910 G3 X-1.314 Y-0.2825 I0. J0.0413
N1915 G1 Y-0.2175
N1920 G3 X-1.3553 Y-0.1762 I-0.0413 J0.
N1925 G1 X-1.6447
N1930 G3 X-1.686 Y-0.2175 I0. J-0.0413
N1935 G1 Y-0.2825
N1940 G3 X-1.6447 Y-0.3238 I0.0413 J0.
N1945 G1 X-1.3553
N1950 G3 X-1.314 Y-0.2825 I0. J0.0413
N1955 G1 Y-0.25
N1960 G3 X-1.339 Y-0.225 I-0.025 J0. F25.
N1965 G1 X-1.364
N1970 G18 G3 X-1.389 Z0.4856 I0. K0.025
N1975 G0 Z1.0906
N1980 M9
N1985 M5
N1990 G53 G0 Z0.

(2D Pocket2)
N1995 T10 M6
N2000 S6000 M3
N2005 G17 G90
N2010 G54
N2015 M8
N2020 G1 X-1.3839 Y-0.2553 F196.85
N2025 G0 G43 Z1.0906 H10
N2030 T1
N2035 G0 Z0.6969
N2040 G1 Z0.5984 F13.123
N2045 Z0.4669
N2050 X-1.3832 Y-0.2548 Z0.4638
N2055 X-1.3824 Y-0.2539 Z0.4626
N2060 X-1.3818 Y-0.253 Z0.4615
N2065 X-1.3812 Y-0.2515 Z0.461
N2070 X-1.381 Y-0.25 Z0.4606
N2075 G3 X-1.3898 Y-0.2412 I-0.0088 J0. F13.2
N2080 G1 X-1.6141
N2085 X-1.6159 Y-0.2414
N2090 X-1.6176 Y-0.2421
N2095 X-1.619 Y-0.2432
N2100 X-1.6201 Y-0.2446
N2105 X-1.6208 Y-0.2463
N2110 X-1.621 Y-0.2481
N2115 Y-0.2519
N2120 X-1.6208 Y-0.2537
N2125 X-1.6201 Y-0.2554
N2130 X-1.619 Y-0.2568
N2135 X-1.6176 Y-0.2579
N2140 X-1.6159 Y-0.2586
N2145 X-1.6141 Y-0.2588
N2150 X-1.3898
N2155 G3 X-1.381 Y-0.25 I0. J0.0088
N2160 G2 X-1.371 Y-0.2292 I0.0265 J0.
N2165 G3 X-1.3786 Y-0.2074 I-0.0076 J0.0096
N2170 G1 X-1.6447
N2175 G3 X-1.6548 Y-0.2175 I0. J-0.0101
N2180 G1 Y-0.2825
N2185 G3 X-1.6447 Y-0.2926 I0.0101 J0.
N2190 G1 X-1.3553
N2195 G3 X-1.3452 Y-0.2825 I0. J0.0101
N2200 G1 Y-0.2175
N2205 G3 X-1.3553 Y-0.2074 I-0.0101 J0.
N2210 G1 X-1.3786
N2215 X-1.3801 Y-0.2077 Z0.461
N2220 X-1.3816 Y-0.2083 Z0.4615
N2225 X-1.3825 Y-0.209 Z0.4626
N2230 X-1.3833 Y-0.2098 Z0.4638
N2235 X-1.3837 Y-0.2105 Z0.4669
N2240 G0 Z1.0906
N2245 G1 X-2.4927 Y-0.9187 F196.85
N2250 G0 Z0.6969
N2255 G1 Z0.5984 F13.123
N2260 Z0.4275
N2265 X-2.492 Y-0.9182 Z0.4244
N2270 X-2.4912 Y-0.9174 Z0.4232
N2275 X-2.4906 Y-0.9164 Z0.4221
N2280 X-2.49 Y-0.915 Z0.4217
N2285 X-2.4898 Y-0.9134 Z0.4213
N2290 Y-0.9129 F13.2
N2295 X-2.4901 Y-0.9106
N2300 X-2.491 Y-0.9083
N2305 X-2.4925 Y-0.9064
N2310 X-2.4943 Y-0.905
N2315 X-2.4952 Y-0.9045
N2320 X-2.497 Y-0.9036
N2325 X-2.499 Y-0.9032
N2330 X-2.501
N2335 X-2.503 Y-0.9036
N2340 X-2.5048 Y-0.9045
N2345 X-2.5057 Y-0.905
N2350 X-2.5075 Y-0.9064
N2355 X-2.509 Y-0.9083
N2360 X-2.5099 Y-0.9106
N2365 X-2.5102 Y-0.9129
N2370 Y-1.0871
N2375 X-2.5099 Y-1.0894
N2380 X-2.509 Y-1.0917
N2385 X-2.5075 Y-1.0936
N2390 X-2.5057 Y-1.095
N2395 X-2.5048 Y-1.0955
N2400 X-2.503 Y-1.0964
N2405 X-2.501 Y-1.0968
N2410 X-2.499
N2415 X-2.497 Y-1.0964
N2420 X-2.4952 Y-1.0955
N2425 X-2.4943 Y-1.095
N2430 X-2.4925 Y-1.0936
N2435 X-2.491 Y-1.0917
N2440 X-2.4901 Y-1.0894
N2445 X-2.4898 Y-1.0871
N2450 Y-0.9134
N2455 G2 X-2.4829 Y-0.9013 I0.0142 J0.
N2460 G3 Y-0.8873 I-0.0042 J0.007
N2465 G1 X-2.4893 Y-0.8832
N2470 G3 X-2.5107 I-0.0107 J-0.0159
N2475 G1 X-2.5184 Y-0.8881
N2480 G3 X-2.5312 Y-0.9102 I0.0128 J-0.0222
N2485 G1 Y-1.0898
N2490 G3 X-2.5184 Y-1.1119 I0.0256 J0.
N2495 G1 X-2.5107 Y-1.1168
N2500 G3 X-2.4893 I0.0107 J0.0159
N2505 G1 X-2.4816 Y-1.1119
N2510 G3 X-2.4688 Y-1.0898 I-0.0128 J0.0222
N2515 G1 Y-0.9102
N2520 G3 X-2.4816 Y-0.8881 I-0.0256 J0.
N2525 G1 X-2.4829 Y-0.8873
N2530 G2 X-2.4929 Y-0.8606 I0.0116 J0.0195
N2535 G3 X-2.5168 Y-0.8452 I-0.0139 J0.0047
N2540 G2 X-2.5266 Y-0.8533 I-0.0663 J0.0704
N2545 X-2.5507 Y-0.8663 I-0.0613 J0.0851
N2550 G3 X-2.5648 Y-0.8866 I0.0077 J-0.0204
N2555 G1 Y-1.1134
N2560 G3 X-2.5507 Y-1.1337 I0.0218 J0.
N2565 G2 X-2.5266 Y-1.1467 I-0.0372 J-0.098
N2570 X-2.5069 Y-1.1657 I-0.0565 J-0.0784
N2575 G3 X-2.4931 I0.0069 J0.0053
N2580 G2 X-2.4734 Y-1.1467 I0.0763 J-0.0594
N2585 X-2.4493 Y-1.1337 I0.0613 J-0.0851
N2590 G3 X-2.4352 Y-1.1134 I-0.0077 J0.0204
N2595 G1 Y-0.8866
N2600 G3 X-2.4493 Y-0.8663 I-0.0218 J0.
N2605 G2 X-2.4734 Y-0.8533 I0.0372 J0.098
N2610 X-2.4931 Y-0.8343 I0.0565 J0.0784
N2615 G3 X-2.5069 I-0.0069 J-0.0053
N2620 G2 X-2.5168 Y-0.8452 I-0.0763 J0.0594
N2625 X-2.5497 Y-0.8467 I-0.0173 J0.0184
N2630 G3 X-2.5824 Y-0.8438 I-0.0186 J-0.0238
N2635 G1 X-2.5826 Y-0.8439
N2640 G3 X-2.5984 Y-0.8701 I0.0139 J-0.0263
N2645 G1 Y-1.1299
N2650 G3 X-2.5826 Y-1.1561 I0.0297 J0.
N2655 X-2.5719 Y-1.1609 I0.0423 J0.0801
N2660 G1 X-2.5616 Y-1.1648
N2665 G2 X-2.5301 Y-1.1887 I-0.0241 J-0.0644
N2670 X-2.5179 Y-1.2263 I-0.0516 J-0.0376
N2675 G1 X-2.5196 Y-1.3771
N2680 G3 X-2.5071 Y-1.3897 I0.0126 J0.
N2685 G1 X-2.4929
N2690 G3 X-2.4804 Y-1.3771 I0. J0.0126
N2695 G1 X-2.4821 Y-1.2263
N2700 G2 X-2.4699 Y-1.1887 I0.0639 J0.
N2705 X-2.4384 Y-1.1648 I0.0556 J-0.0405
N2710 G1 X-2.4281 Y-1.1609
N2715 G3 X-2.4174 Y-1.1561 I-0.0317 J0.0849
N2720 X-2.4016 Y-1.1299 I-0.0139 J0.0263
N2725 G1 Y-0.8701
N2730 G3 X-2.4174 Y-0.8439 I-0.0297 J0.
N2735 X-2.4281 Y-0.8391 I-0.0423 J-0.0801
N2740 G1 X-2.4384 Y-0.8352
N2745 G2 X-2.4699 Y-0.8113 I0.0241 J0.0644
N2750 X-2.4821 Y-0.7737 I0.0516 J0.0376
N2755 G1 X-2.4804 Y-0.6229
N2760 G3 X-2.4929 Y-0.6103 I-0.0126 J0.
N2765 G1 X-2.5071
N2770 G3 X-2.5196 Y-0.6229 I0. J-0.0126
N2775 G1 X-2.5179 Y-0.7737
N2780 G2 X-2.5301 Y-0.8113 I-0.0639 J0.
N2785 X-2.5616 Y-0.8352 I-0.0556 J0.0405
N2790 G1 X-2.5719 Y-0.8391
N2795 G3 X-2.5824 Y-0.8438 I0.0317 J-0.0849
N2800 G2 X-2.6076 Y-0.838 I-0.0092 J0.0176
N2805 G3 X-2.6321 Y-0.8461 I-0.0109 J-0.0081
N2810 G1 Y-1.1637
N2815 G3 X-2.5737 Y-1.1971 I0.1321 J0.1637
N2820 G2 X-2.5534 Y-1.2263 I-0.0109 J-0.0293
N2825 G1 Y-1.4209
N2830 X-2.5509 Y-1.4235
N2835 X-2.4491
N2840 X-2.4466 Y-1.4209
N2845 Y-1.2263
N2850 G2 X-2.4263 Y-1.1971 I0.0313 J0.
N2855 G3 X-2.3679 Y-1.1637 I-0.0737 J0.1971
N2860 G1 Y-0.8363
N2865 G3 X-2.4263 Y-0.8029 I-0.1321 J-0.1637
N2870 G2 X-2.4466 Y-0.7737 I0.0109 J0.0293
N2875 G1 Y-0.5791
N2880 X-2.4491 Y-0.5765
N2885 X-2.5509
N2890 X-2.5534 Y-0.5791
N2895 Y-0.7737
N2900 G2 X-2.5737 Y-0.8029 I-0.0313 J0.
N2905 G3 X-2.6321 Y-0.8363 I0.0737 J-0.1971
N2910 G1 Y-0.8461
N2915 X-2.6319 Y-0.8477 Z0.4217
N2920 X-2.6313 Y-0.8491 Z0.4221
N2925 X-2.6306 Y-0.85 Z0.4232
N2930 X-2.6298 Y-0.8508 Z0.4244
N2935 X-2.6291 Y-0.8513 Z0.4275
N2940 G0 Z1.0906

N2945 M5
N2950 M9
N2955 G53 G0 Z0.
N2960 X-1.5
N2965 G53 G0 Y0.
M98 P9004
N2970 M30

%
