%
O10022 (Automatic CAM Program)
(Using high feed G1 F196.85 instead of G0.)
(T1 D=0.125 CR=0. - ZMIN=0.374 - flat end mill)
(T5 D=0.25 CR=0. TAPER=90deg - ZMIN=0.4291 - spot drill)
(T10 D=0.0625 CR=0. - ZMIN=0.4213 - flat end mill)
N10 G90 G17
N15 G20
N20 G53 G0 Z0.

(2D Pocket1)
N25 T1 M6
N30 S6000 M3
N35 G17 G90
N40 G54
N45 M8
N50 G1 X-2.4994 Y-0.663 F196.85
N55 G0 G43 Z1.0906 H1
N60 T5
N65 G0 Z0.6969
N70 G1 Z0.5984 F13.123
N75 Z0.4803
N80 X-2.4997 Y-0.6097 F26.4
N85 X-2.5012 Y-0.3237
N90 G2 X-2.4393 Y-0.2608 I0.0625 J0.0003
N95 G1 X-0.5701 Y-0.241
N100 G2 X-0.5069 Y-0.3022 I0.0007 J-0.0625
N105 G1 X-0.5032 Y-0.4866
N110 X-0.502 Y-0.546
N115 Z0.4928
N120 G0 Z0.6969
N125 G1 X-0.501 Y-0.5461 F196.85
N130 Z0.5984 F13.123
N135 Z0.4803
N140 X-0.5022 Y-0.4892 F26.4
N145 X-0.5072 Y-0.2398
N150 X-0.5074 Y-0.2394
N155 X-0.5077 Y-0.2393
N160 X-2.502 Y-0.2605
N165 X-2.5024 Y-0.2607
N170 X-2.5025 Y-0.261
N175 X-2.5007 Y-0.6091
N180 X-2.5004 Y-0.663
N185 Z0.4928
N190 G0 Z1.0906
N195 G1 X-0.503 Y-1.4541 F196.85
N200 G0 Z0.6969
N205 G1 Z0.5984 F13.123
N210 Z0.4803
N215 X-0.505 Y-1.5142 F26.4
N220 X-0.5067 Y-1.5646
N225 G2 X-0.5678 Y-1.625 I-0.0625 J0.0021
N230 G1 X-1.5007 Y-1.6448
N235 Z0.4928
N240 G0 Z0.6969
N245 G1 X-1.5002 Y-1.6458 F196.85
N250 Z0.5984 F13.123
N255 Z0.4803
N260 X-0.5082 Y-1.6247 F26.4
N265 X-0.5077 Y-1.6242
N270 X-0.5039 Y-1.51
N275 X-0.502 Y-1.4541
N280 Z0.4928
N285 G0 Z1.0906
N290 G1 X-2.5003 Y-1.1188 F196.85
N295 G0 Z0.6969
N300 G1 Z0.525 F13.123
N305 Z0.4534 F26.4
N310 X-2.5 Z0.4507
N315 X-2.499 Y-1.1187 Z0.448
N320 X-2.4976 Y-1.1185 Z0.4457
N325 X-2.4956 Y-1.1183 Z0.4437
N330 X-2.4932 Y-1.118 Z0.4422
N335 X-2.4906 Y-1.1177 Z0.4413
N340 X-2.4878 Y-1.1174 Z0.4409
N345 X-2.4866 Y-1.1172
N350 G3 X-2.5098 Y-1.1176 I-0.0134 J0.1172
N355 G2 X-2.4636 Y-1.1499 I-0.0046 J-0.0557
N360 G3 X-2.4102 Y-1.1678 I0.0351 J0.0162
N365 X-2.5029 Y-0.8109 I-0.0897 J0.1672
N370 X-2.5274 Y-1.1884 I0.0029 J-0.1897
N375 G1 X-2.5197 Y-1.1897
N380 X-2.5121 Y-1.1911
N385 G3 X-2.482 Y-1.1906 I0.0136 J0.0933
N390 G1 X-2.4744 Y-1.189
N395 X-2.4668 Y-1.1874
N400 G3 X-2.4102 Y-1.1678 I-0.0331 J0.1868
N405 G2 X-2.3528 Y-1.171 I0.0261 J-0.0486
N410 G3 X-2.2959 Y-1.1626 I0.0239 J0.0346
N415 X-2.504 Y-0.7399 I-0.204 J0.1621
N420 X-2.5376 Y-1.2583 I0.004 J-0.2606
N425 G2 X-2.5243 Y-1.2607 I-0.0312 J-0.2143
N430 G3 X-2.5109 Y-1.2631 I0.0445 J0.2119
N435 X-2.4809 Y-1.2626 I0.0136 J0.0933
N440 X-2.4677 Y-1.2598 I-0.0378 J0.2132
N445 G2 X-2.4545 Y-1.2571 I0.051 J-0.2106
N450 G3 X-2.2959 Y-1.1626 I-0.0455 J0.2566
N455 X-2.3073 Y-1.1518 I-0.0062 J0.0049
N460 G1 X-2.4967 Y-1.323
N465 G3 X-2.4901 Y-1.3366 I0.0053 J-0.0058
N470 G1 X-2.4419 Y-1.3281
N475 G3 X-2.548 Y-1.3297 I-0.0581 J0.3281
N480 G1 X-2.4998 Y-1.3367
N485 X-2.4974 Y-1.3368 Z0.4414
N490 X-2.495 Y-1.3363 Z0.4419
N495 X-2.4931 Y-1.3356 Z0.4433
N500 X-2.4914 Y-1.3346 Z0.4446
N505 X-2.4893 Y-1.3328 Z0.4487
N510 X-2.4887 Y-1.3321 Z0.4534
N515 G0 Z1.0906
N520 G1 X-2.4838 Y-1.0105 F196.85
N525 G0 Z0.6969
N530 G1 Z0.5984 F13.123
N535 Z0.4771
N540 X-2.483 Y-1.01 Z0.4723
N545 X-2.481 Y-1.0081 Z0.4682
N550 X-2.4799 Y-1.0065 Z0.4669
N555 X-2.479 Y-1.0047 Z0.4655
N560 X-2.4783 Y-1.0024 Z0.465
N565 X-2.4781 Y-1. Z0.4646
N570 G3 X-2.522 I-0.0219 J0. F26.4
N575 X-2.4781 I0.0219 J0.
N580 X-2.4937 Y-0.9991 I-0.0079 J0.
N585 G1 X-2.5048 Y-1.0934
N590 G3 X-2.4937 Y-1.1015 I0.0078 J-0.0009
N595 G1 X-2.4607 Y-1.0865
N600 G3 X-2.5366 Y-1.0876 I-0.0393 J0.0865
N605 G1 X-2.5032 Y-1.1016
N610 X-2.502 Y-1.1019
N615 X-2.5009 Y-1.1016
N620 X-2.4999 Y-1.101
N625 X-2.4993 Y-1.1
N630 X-2.4991 Y-1.0988
N635 X-2.4994 Y-1.0845
N640 X-2.4969 Y-1.0141
N645 G3 X-2.5002 Y-1.0194 I-0.0062 J0.0002
N650 G1 X-2.4838 Y-1.0105
N655 Z0.4416 F13.123
N660 X-2.483 Y-1.01 Z0.4369
N665 X-2.481 Y-1.0081 Z0.4328
N670 X-2.4799 Y-1.0065 Z0.4314
N675 X-2.479 Y-1.0047 Z0.4301
N680 X-2.4783 Y-1.0024 Z0.4296
N685 X-2.4781 Y-1. Z0.4291
N690 G3 X-2.522 I-0.0219 J0. F26.4
N695 X-2.4781 I0.0219 J0.
N700 X-2.4937 Y-0.9991 I-0.0079 J0.
N705 G1 X-2.5048 Y-1.0934
N710 G3 X-2.4937 Y-1.1015 I0.0078 J-0.0009
N715 G1 X-2.4607 Y-1.0865
N720 G3 X-2.5366 Y-1.0876 I-0.0393 J0.0865
N725 G1 X-2.5032 Y-1.1016
N730 X-2.5013 Y-1.1022 Z0.4295
N735 X-2.4993 Y-1.1024 Z0.4299
N740 X-2.4976 Y-1.1023 Z0.431
N745 X-2.496 Y-1.1019 Z0.4322
N750 X-2.494 Y-1.101 Z0.4355
N755 X-2.4933 Y-1.1006 Z0.4395
N760 G0 Z1.0906
N765 G1 X-0.4582 Y-1.0995 F196.85
N770 G0 Z0.6969
N775 G1 Z0.5984 F13.123
N780 Z0.4731
N785 X-0.4574 Y-1.0989 Z0.4683
N790 X-0.4554 Y-1.0971 Z0.4643
N795 X-0.4542 Y-1.0954 Z0.4629
N800 X-0.4533 Y-1.0936 Z0.4616
N805 X-0.4526 Y-1.0913 Z0.4611
N810 X-0.4524 Y-1.0889 Z0.4606
N815 Y-0.8989 F26.4
N820 G3 X-0.465 Y-0.877 I-0.0254 J0.
N825 G2 X-0.4919 Y-0.8562 I0.0676 J0.1155
N830 G3 X-0.5081 I-0.0081 J-0.0081
N835 G2 X-0.535 Y-0.877 I-0.0945 J0.0947
N840 G3 X-0.5476 Y-0.8989 I0.0128 J-0.0219
N845 G1 Y-1.1011
N850 G3 X-0.535 Y-1.123 I0.0254 J0.
N855 G2 X-0.5081 Y-1.1438 I-0.0676 J-0.1155
N860 G3 X-0.4919 I0.0081 J0.0081
N865 G2 X-0.465 Y-1.123 I0.0945 J-0.0947
N870 G3 X-0.4524 Y-1.1011 I-0.0128 J0.0219
N875 G1 Y-1.0889
N880 G2 X-0.4168 Y-1.0355 I0.0579 J0.
N885 G3 X-0.3811 Y-0.982 I-0.0223 J0.0535
N890 G1 Y-0.8427
N895 G3 X-0.4221 Y-0.8189 I-0.1189 J-0.1573
N900 G2 X-0.4599 Y-0.7615 I0.0247 J0.0574
N905 G1 Y-0.5898
N910 X-0.5401
N915 Y-0.7615
N920 G2 X-0.5779 Y-0.8189 I-0.0625 J0.
N925 G3 X-0.6189 Y-0.8427 I0.0779 J-0.1811
N930 G1 Y-1.1573
N935 G3 X-0.5779 Y-1.1811 I0.1189 J0.1573
N940 G2 X-0.5401 Y-1.2385 I-0.0247 J-0.0574
N945 G1 Y-1.4102
N950 X-0.4599
N955 Y-1.2385
N960 G2 X-0.4221 Y-1.1811 I0.0625 J0.
N965 G3 X-0.3811 Y-1.1573 I-0.0779 J0.1811
N970 G1 Y-0.982
N975 G3 X-0.3904 Y-0.9785 I-0.0053 J0.
N980 G1 X-0.4053 Y-0.9955
N985 X-0.4583 Y-1.0819
N990 X-0.4633 Y-1.0954
N995 X-0.4635 Y-1.0968
N1000 X-0.4631 Y-1.0982
N1005 X-0.4622 Y-1.0993
N1010 X-0.4609 Y-1.0999
N1015 X-0.4595 Y-1.1
N1020 X-0.4582 Y-1.0995
N1025 Z0.4338 F13.123
N1030 X-0.4574 Y-1.0989 Z0.429
N1035 X-0.4554 Y-1.0971 Z0.4249
N1040 X-0.4542 Y-1.0954 Z0.4236
N1045 X-0.4533 Y-1.0936 Z0.4222
N1050 X-0.4526 Y-1.0913 Z0.4217
N1055 X-0.4524 Y-1.0889 Z0.4213
N1060 Y-0.8989 F26.4
N1065 G3 X-0.465 Y-0.877 I-0.0254 J0.
N1070 G2 X-0.4919 Y-0.8562 I0.0676 J0.1155
N1075 G3 X-0.5081 I-0.0081 J-0.0081
N1080 G2 X-0.535 Y-0.877 I-0.0945 J0.0947
N1085 G3 X-0.5476 Y-0.8989 I0.0128 J-0.0219
N1090 G1 Y-1.1011
N1095 G3 X-0.535 Y-1.123 I0.0254 J0.
N1100 G2 X-0.5081 Y-1.1438 I-0.0676 J-0.1155
N1105 G3 X-0.4919 I0.0081 J0.0081
N1110 G2 X-0.465 Y-1.123 I0.0945 J-0.0947
N1115 G3 X-0.4524 Y-1.1011 I-0.0128 J0.0219
N1120 G1 Y-1.0889
N1125 G2 X-0.4168 Y-1.0355 I0.0579 J0.
N1130 G3 X-0.3811 Y-0.982 I-0.0223 J0.0535
N1135 G1 Y-0.8427
N1140 G3 X-0.4221 Y-0.8189 I-0.1189 J-0.1573
N1145 G2 X-0.4599 Y-0.7615 I0.0247 J0.0574
N1150 G1 Y-0.5898
N1155 X-0.5401
N1160 Y-0.7615
N1165 G2 X-0.5779 Y-0.8189 I-0.0625 J0.
N1170 G3 X-0.6189 Y-0.8427 I0.0779 J-0.1811
N1175 G1 Y-1.1573
N1180 G3 X-0.5779 Y-1.1811 I0.1189 J0.1573
N1185 G2 X-0.5401 Y-1.2385 I-0.0247 J-0.0574
N1190 G1 Y-1.4102
N1195 X-0.4599
N1200 Y-1.2385
N1205 G2 X-0.4221 Y-1.1811 I0.0625 J0.
N1210 G3 X-0.3811 Y-1.1573 I-0.0779 J0.1811
N1215 G1 Y-0.982
N1220 X-0.3814 Y-0.9796 Z0.4217
N1225 X-0.3822 Y-0.9774 Z0.4222
N1230 X-0.3831 Y-0.9756 Z0.4236
N1235 X-0.3844 Y-0.974 Z0.4249
N1240 X-0.3864 Y-0.9722 Z0.429
N1245 X-0.3872 Y-0.9717 Z0.4338
N1250 G0 Z1.0906

(Trace1)
N1255 G1 X-2.4897 Y-1.6663 F196.85
N1260 G0 Z1.0906
N1265 Z0.6969
N1270 G1 Z0.4213 F13.123
N1275 X-1.4989 Y-1.6453 Z0.4803 F15.4
N1280 Z0.6969
N1285 X-2.4897 Y-1.6663 F196.85
N1290 Z0.4213 F13.123
N1295 X-2.4907 Y-1.6033 F15.4
N1300 X-2.493 Y-1.4525 Z0.374
N1305 X-2.4977 Y-1.1508
N1310 X-2.5 Y-1. Z0.4213
N1315 Z0.6969
N1320 X-2.4897 Y-1.6663 F196.85
N1325 Z0.4213 F13.123
N1330 X-1.4989 Y-1.6453 Z0.4803 F15.4
N1335 Z0.6969
N1340 X-2.4897 Y-1.6663 F196.85
N1345 Z0.4213 F13.123
N1350 X-2.4907 Y-1.6033 F15.4
N1355 X-2.493 Y-1.4525 Z0.374
N1360 X-2.4977 Y-1.1508
N1365 X-2.5 Y-1. Z0.4213
N1370 Z0.6969
N1375 G0 Z1.0906
N1380 M9
N1385 M5
N1390 G53 G0 Z0.

(2D Contour1)
N1395 T5 M6
N1400 S4500 M3
N1405 G17 G90
N1410 G54
N1415 M8
N1420 G1 X-0.4054 Y-1.1139 F196.85
N1425 G0 G43 Z1.0906 H5
N1430 T10
N1435 G0 Z0.6969
N1440 G1 Z0.5394 F13.123
N1445 Z0.4541
N1450 G18 G2 X-0.3804 Z0.4291 I0.025 K0. F25.
N1455 G1 X-0.3554
N1460 G17 G3 X-0.3304 Y-1.0889 I0. J0.025
N1465 G1 Y-0.8193
N1470 G3 X-0.402 Y-0.7724 I-0.1696 J-0.1807
N1475 G2 X-0.4092 Y-0.7615 I0.0047 J0.0108
N1480 G1 Y-0.5635
N1485 X-0.4336 Y-0.5391
N1490 X-0.5664
N1495 X-0.5908 Y-0.5635
N1500 Y-0.7615
N1505 G2 X-0.598 Y-0.7724 I-0.0118 J0.
N1510 G3 X-0.6696 Y-0.8193 I0.098 J-0.2276
N1515 G1 Y-1.1807
N1520 G3 X-0.598 Y-1.2276 I0.1696 J0.1807
N1525 G2 X-0.5908 Y-1.2385 I-0.0047 J-0.0108
N1530 G1 Y-1.4365
N1535 X-0.5664 Y-1.4609
N1540 X-0.4336
N1545 X-0.4092 Y-1.4365
N1550 Y-1.2385
N1555 G2 X-0.402 Y-1.2276 I0.0118 J0.
N1560 G3 X-0.3304 Y-1.1807 I-0.098 J0.2276
N1565 G1 Y-0.8193
N1570 G3 X-0.402 Y-0.7724 I-0.1696 J-0.1807
N1575 G2 X-0.4092 Y-0.7615 I0.0047 J0.0108
N1580 G1 Y-0.5635
N1585 X-0.4336 Y-0.5391
N1590 X-0.5664
N1595 X-0.5908 Y-0.5635
N1600 Y-0.7615
N1605 G2 X-0.598 Y-0.7724 I-0.0118 J0.
N1610 G3 X-0.6696 Y-0.8193 I0.098 J-0.2276
N1615 G1 Y-1.1807
N1620 G3 X-0.598 Y-1.2276 I0.1696 J0.1807
N1625 G2 X-0.5908 Y-1.2385 I-0.0047 J-0.0108
N1630 G1 Y-1.4365
N1635 X-0.5664 Y-1.4609
N1640 X-0.4336
N1645 X-0.4092 Y-1.4365
N1650 Y-1.2385
N1655 G2 X-0.402 Y-1.2276 I0.0118 J0.
N1660 G3 X-0.3304 Y-1.1807 I-0.098 J0.2276
N1665 G1 Y-1.0889
N1670 G3 X-0.3554 Y-1.0639 I-0.025 J0.
N1675 G1 X-0.3804
N1680 G18 G3 X-0.4054 Z0.4541 I0. K0.025
N1685 G0 Z1.0906
N1690 M9
N1695 M5
N1700 G53 G0 Z0.

(2D Pocket2)
N1705 T10 M6
N1710 S6000 M3
N1715 G17 G90
N1720 G54
N1725 M8
N1730 G1 X-0.4868 Y-1.0942 F196.85
N1735 G0 G43 Z1.0906 H10
N1740 T1
N1745 G0 Z0.6969
N1750 G1 Z0.5984 F13.123
N1755 Z0.4275
N1760 X-0.4861 Y-1.0937 Z0.4244
N1765 X-0.4853 Y-1.0929 Z0.4232
N1770 X-0.4847 Y-1.0919 Z0.4221
N1775 X-0.4841 Y-1.0905 Z0.4217
N1780 X-0.4839 Y-1.0889 Z0.4213
N1785 Y-0.9091 F13.2
N1790 G3 X-0.4894 Y-0.8988 I-0.0124 J0.
N1795 G1 X-0.4928 Y-0.8964
N1800 G3 X-0.5072 I-0.0072 J-0.0101
N1805 G1 X-0.5106 Y-0.8988
N1810 G3 X-0.5161 Y-0.9091 I0.0069 J-0.0103
N1815 G1 Y-1.0909
N1820 G3 X-0.5106 Y-1.1012 I0.0124 J0.
N1825 G1 X-0.5072 Y-1.1036
N1830 G3 X-0.4928 I0.0072 J0.0101
N1835 G1 X-0.4894 Y-1.1012
N1840 G3 X-0.4839 Y-1.0909 I-0.0069 J0.0103
N1845 G1 Y-1.0889
N1850 G2 X-0.4671 Y-1.0638 I0.0273 J0.
N1855 G3 X-0.4503 Y-1.0386 I-0.0105 J0.0252
N1860 G1 Y-0.8978
N1865 G3 X-0.4631 Y-0.8756 I-0.0255 J0.
N1870 G2 X-0.4919 Y-0.8532 I0.0658 J0.1141
N1875 G3 X-0.5081 I-0.0081 J-0.0079
N1880 G2 X-0.5369 Y-0.8756 I-0.0945 J0.0917
N1885 G3 X-0.5497 Y-0.8978 I0.0127 J-0.0221
N1890 G1 Y-1.1022
N1895 G3 X-0.5369 Y-1.1244 I0.0255 J0.
N1900 G2 X-0.5081 Y-1.1468 I-0.0658 J-0.1141
N1905 G3 X-0.4919 I0.0081 J0.0079
N1910 G2 X-0.4631 Y-1.1244 I0.0945 J-0.0917
N1915 G3 X-0.4503 Y-1.1022 I-0.0127 J0.0221
N1920 G1 Y-1.0386
N1925 G2 X-0.4336 Y-1.0134 I0.0273 J0.
N1930 G3 X-0.4168 Y-0.9883 I-0.0105 J0.0252
N1935 G1 Y-0.8748
N1940 G3 X-0.4293 Y-0.8548 I-0.0222 J0.
N1945 G1 X-0.4327 Y-0.8533
N1950 X-0.4363 Y-0.8519
N1955 G2 X-0.4803 Y-0.8159 I0.0408 J0.0948
N1960 X-0.4973 Y-0.7615 I0.0785 J0.0543
N1965 G1 X-0.4955 Y-0.6292
N1970 X-0.4958 Y-0.6278
N1975 X-0.4966 Y-0.6266
N1980 X-0.4979 Y-0.6257
N1985 X-0.4993 Y-0.6254
N1990 X-0.5007
N1995 X-0.5021 Y-0.6257
N2000 X-0.5034 Y-0.6266
N2005 X-0.5042 Y-0.6278
N2010 X-0.5045 Y-0.6292
N2015 G3 X-0.5036 Y-0.6954 I2.4694 J0.
N2020 G2 X-0.5027 Y-0.7615 I-2.4685 J-0.0661
N2025 X-0.5197 Y-0.8159 I-0.0954 J0.
N2030 X-0.5637 Y-0.8519 I-0.0849 J0.0588
N2035 G1 X-0.5673 Y-0.8533
N2040 X-0.5707 Y-0.8548
N2045 G3 X-0.5832 Y-0.8748 I0.0097 J-0.02
N2050 G1 Y-1.1252
N2055 G3 X-0.5707 Y-1.1452 I0.0222 J0.
N2060 G1 X-0.5673 Y-1.1467
N2065 X-0.5637 Y-1.1481
N2070 G2 X-0.5197 Y-1.1841 I-0.0408 J-0.0948
N2075 X-0.5027 Y-1.2385 I-0.0785 J-0.0543
N2080 G1 X-0.5045 Y-1.3708
N2085 X-0.5042 Y-1.3722
N2090 X-0.5034 Y-1.3734
N2095 X-0.5021 Y-1.3743
N2100 X-0.5007 Y-1.3746
N2105 X-0.4993
N2110 X-0.4979 Y-1.3743
N2115 X-0.4966 Y-1.3734
N2120 X-0.4958 Y-1.3722
N2125 X-0.4955 Y-1.3708
N2130 X-0.4973 Y-1.2385
N2135 G2 X-0.4803 Y-1.1841 I0.0954 J0.
N2140 X-0.4363 Y-1.1481 I0.0849 J-0.0588
N2145 G1 X-0.4327 Y-1.1467
N2150 X-0.4293 Y-1.1452
N2155 G3 X-0.4168 Y-1.1252 I-0.0097 J0.02
N2160 G1 Y-0.9883
N2165 G2 X-0.4002 Y-0.9634 I0.0269 J0.
N2170 G3 X-0.3836 Y-0.9385 I-0.0104 J0.0249
N2175 G1 Y-0.8597
N2180 G3 X-0.3977 Y-0.8344 I-0.0297 J0.
N2185 X-0.4103 Y-0.8278 I-0.0552 J-0.0894
N2190 X-0.4234 Y-0.822 I-0.5277 J-1.1899
N2195 G2 X-0.4528 Y-0.7979 I0.0271 J0.0631
N2200 X-0.4641 Y-0.7615 I0.0529 J0.0364
N2205 G1 X-0.4624 Y-0.6049
N2210 G3 X-0.4749 Y-0.5923 I-0.0126 J0.
N2215 G1 X-0.5251
N2220 G3 X-0.5376 Y-0.6049 I0. J-0.0126
N2225 G1 X-0.5359 Y-0.7615
N2230 G2 X-0.5472 Y-0.7979 I-0.0642 J0.
N2235 X-0.5766 Y-0.822 I-0.0566 J0.0389
N2240 G3 X-0.5897 Y-0.8278 I0.5146 J-1.1956
N2245 X-0.6023 Y-0.8344 I0.0426 J-0.096
N2250 X-0.6164 Y-0.8597 I0.0156 J-0.0253
N2255 G1 Y-1.1403
N2260 G3 X-0.6023 Y-1.1656 I0.0297 J0.
N2265 X-0.5897 Y-1.1722 I0.0552 J0.0894
N2270 X-0.5766 Y-1.178 I0.5281 J1.1909
N2275 G2 X-0.5472 Y-1.2021 I-0.0271 J-0.0631
N2280 X-0.5359 Y-1.2385 I-0.0529 J-0.0364
N2285 G1 X-0.5376 Y-1.3951
N2290 G3 X-0.5251 Y-1.4077 I0.0126 J0.
N2295 G1 X-0.4749
N2300 G3 X-0.4624 Y-1.3951 I0. J0.0126
N2305 G1 X-0.4641 Y-1.2385
N2310 G2 X-0.4528 Y-1.2021 I0.0642 J0.
N2315 X-0.4234 Y-1.178 I0.0566 J-0.0389
N2320 G3 X-0.4103 Y-1.1722 I-0.5146 J1.1956
N2325 X-0.3977 Y-1.1656 I-0.0426 J0.096
N2330 X-0.3836 Y-1.1403 I-0.0156 J0.0253
N2335 G1 Y-0.9385
N2340 G2 X-0.3667 Y-0.9132 I0.0274 J0.
N2345 G3 X-0.3499 Y-0.8879 I-0.0105 J0.0253
N2350 G1 Y-0.8279
N2355 G3 X-0.4097 Y-0.7902 I-0.1501 J-0.1721
N2360 G2 X-0.4286 Y-0.7615 I0.0124 J0.0287
N2365 G1 Y-0.5716
N2370 X-0.4417 Y-0.5585
N2375 X-0.5583
N2380 X-0.5714 Y-0.5716
N2385 Y-0.7615
N2390 G2 X-0.5903 Y-0.7902 I-0.0313 J0.
N2395 G3 X-0.6501 Y-0.8279 I0.0903 J-0.2098
N2400 G1 Y-1.1721
N2405 G3 X-0.5903 Y-1.2098 I0.1501 J0.1721
N2410 G2 X-0.5714 Y-1.2385 I-0.0124 J-0.0287
N2415 G1 Y-1.4284
N2420 X-0.5583 Y-1.4415
N2425 X-0.4417
N2430 X-0.4286 Y-1.4284
N2435 Y-1.2385
N2440 G2 X-0.4097 Y-1.2098 I0.0312 J0.
N2445 G3 X-0.3499 Y-1.1721 I-0.0903 J0.2098
N2450 G1 Y-0.8879
N2455 X-0.3501 Y-0.8863 Z0.4217
N2460 X-0.3507 Y-0.8849 Z0.4221
N2465 X-0.3514 Y-0.884 Z0.4232
N2470 X-0.3522 Y-0.8832 Z0.4244
N2475 X-0.3529 Y-0.8827 Z0.4275
N2480 G0 Z1.0906

N2485 M5
N2490 M9
N2495 G53 G0 Z0.
N2500 X-1.5
N2505 G53 G0 Y0.
M98 P9004
N2510 M30

%
