%
O10008 (Automatic CAM Program)
(Using high feed G1 F196.85 instead of G0.)
(T1 D=0.125 CR=0. - ZMIN=0.374 - flat end mill)
(T5 D=0.25 CR=0. TAPER=90deg - ZMIN=0.4291 - spot drill)
(T10 D=0.0625 CR=0. - ZMIN=0.4213 - flat end mill)
N10 G90 G17
N15 G20
N20 G53 G0 Z0.

(2D Pocket2)
N25 T1 M6
N30 S6000 M3
N35 G17 G90
N40 G54
N45 M8
N50 G1 X-2.4994 Y-0.6626 F196.85
N55 G0 G43 Z1.0906 H1
N60 T5
N65 G0 Z0.6969
N70 G1 Z0.5984 F13.123
N75 Z0.4803
N80 X-2.4997 Y-0.6097 F26.4
N85 X-2.5012 Y-0.3237
N90 G2 X-2.4393 Y-0.2608 I0.0625 J0.0003
N95 G1 X-0.5701 Y-0.241
N100 G2 X-0.5069 Y-0.3022 I0.0007 J-0.0625
N105 G1 X-0.5029 Y-0.5046
N110 X-0.5017 Y-0.564
N115 Z0.4928
N120 G0 Z0.6969
N125 G1 X-0.5007 Y-0.5642 F196.85
N130 Z0.5984 F13.123
N135 Z0.4803
N140 X-0.5018 Y-0.5072 F26.4
N145 X-0.5072 Y-0.2398
N150 X-0.5074 Y-0.2394
N155 X-0.5077 Y-0.2393
N160 X-2.502 Y-0.2605
N165 X-2.5024 Y-0.2607
N170 X-2.5025 Y-0.261
N175 X-2.5007 Y-0.6091
N180 X-2.5004 Y-0.663
N185 Z0.4928
N190 G0 Z1.0906
N195 G1 X-0.5024 Y-1.436 F196.85
N200 G0 Z0.6969
N205 G1 Z0.5984 F13.123
N210 Z0.4803
N215 X-0.5044 Y-1.4962 F26.4
N220 X-0.5067 Y-1.5646
N225 G2 X-0.5678 Y-1.625 I-0.0625 J0.0021
N230 G1 X-1.5007 Y-1.6448
N235 Z0.4928
N240 G0 Z0.6969
N245 G1 X-1.5002 Y-1.6458 F196.85
N250 Z0.5984 F13.123
N255 Z0.4803
N260 X-0.5082 Y-1.6247 F26.4
N265 X-0.5077 Y-1.6242
N270 X-0.5033 Y-1.492
N275 X-0.5014 Y-1.4361
N280 Z0.4928
N285 G0 Z1.0906
N290 G1 X-2.5003 Y-1.1188 F196.85
N295 G0 Z0.6969
N300 G1 Z0.525 F13.123
N305 Z0.4534 F26.4
N310 X-2.5 Z0.4507
N315 X-2.499 Y-1.1187 Z0.448
N320 X-2.4976 Y-1.1185 Z0.4457
N325 X-2.4956 Y-1.1183 Z0.4437
N330 X-2.4932 Y-1.118 Z0.4422
N335 X-2.4906 Y-1.1177 Z0.4413
N340 X-2.4878 Y-1.1174 Z0.4409
N345 X-2.4866 Y-1.1172
N350 G3 X-2.5098 Y-1.1176 I-0.0134 J0.1172
N355 G2 X-2.4636 Y-1.1499 I-0.0046 J-0.0557
N360 G3 X-2.4102 Y-1.1678 I0.0351 J0.0162
N365 X-2.5029 Y-0.8109 I-0.0897 J0.1672
N370 X-2.5274 Y-1.1884 I0.0029 J-0.1897
N375 G1 X-2.5197 Y-1.1897
N380 X-2.5121 Y-1.1911
N385 G3 X-2.482 Y-1.1906 I0.0136 J0.0933
N390 G1 X-2.4744 Y-1.189
N395 X-2.4668 Y-1.1874
N400 G3 X-2.4102 Y-1.1678 I-0.0331 J0.1868
N405 G2 X-2.3528 Y-1.171 I0.0261 J-0.0486
N410 G3 X-2.2959 Y-1.1626 I0.0239 J0.0346
N415 X-2.504 Y-0.7399 I-0.204 J0.1621
N420 X-2.5376 Y-1.2583 I0.004 J-0.2606
N425 G2 X-2.5243 Y-1.2607 I-0.0312 J-0.2143
N430 G3 X-2.5109 Y-1.2631 I0.0445 J0.2119
N435 X-2.4809 Y-1.2626 I0.0136 J0.0933
N440 X-2.4677 Y-1.2598 I-0.0378 J0.2132
N445 G2 X-2.4545 Y-1.2571 I0.051 J-0.2106
N450 G3 X-2.2959 Y-1.1626 I-0.0455 J0.2566
N455 X-2.3073 Y-1.1518 I-0.0062 J0.0049
N460 G1 X-2.4967 Y-1.323
N465 G3 X-2.4901 Y-1.3366 I0.0053 J-0.0058
N470 G1 X-2.4419 Y-1.3281
N475 G3 X-2.548 Y-1.3297 I-0.0581 J0.3281
N480 G1 X-2.4998 Y-1.3367
N485 X-2.4974 Y-1.3368 Z0.4414
N490 X-2.495 Y-1.3363 Z0.4419
N495 X-2.4931 Y-1.3356 Z0.4433
N500 X-2.4914 Y-1.3346 Z0.4446
N505 X-2.4893 Y-1.3328 Z0.4487
N510 X-2.4887 Y-1.3321 Z0.4534
N515 G0 Z1.0906
N520 G1 X-2.4838 Y-1.0105 F196.85
N525 G0 Z0.6969
N530 G1 Z0.5984 F13.123
N535 Z0.4771
N540 X-2.483 Y-1.01 Z0.4723
N545 X-2.481 Y-1.0081 Z0.4682
N550 X-2.4799 Y-1.0065 Z0.4669
N555 X-2.479 Y-1.0047 Z0.4655
N560 X-2.4783 Y-1.0024 Z0.465
N565 X-2.4781 Y-1. Z0.4646
N570 G3 X-2.522 I-0.0219 J0. F26.4
N575 X-2.4781 I0.0219 J0.
N580 X-2.4937 Y-0.9991 I-0.0079 J0.
N585 G1 X-2.5048 Y-1.0934
N590 G3 X-2.4937 Y-1.1015 I0.0078 J-0.0009
N595 G1 X-2.4607 Y-1.0865
N600 G3 X-2.5366 Y-1.0876 I-0.0393 J0.0865
N605 G1 X-2.5032 Y-1.1016
N610 X-2.502 Y-1.1019
N615 X-2.5009 Y-1.1016
N620 X-2.4999 Y-1.101
N625 X-2.4993 Y-1.1
N630 X-2.4991 Y-1.0988
N635 X-2.4994 Y-1.0845
N640 X-2.4969 Y-1.0141
N645 G3 X-2.5002 Y-1.0194 I-0.0062 J0.0002
N650 G1 X-2.4838 Y-1.0105
N655 Z0.4416 F13.123
N660 X-2.483 Y-1.01 Z0.4369
N665 X-2.481 Y-1.0081 Z0.4328
N670 X-2.4799 Y-1.0065 Z0.4314
N675 X-2.479 Y-1.0047 Z0.4301
N680 X-2.4783 Y-1.0024 Z0.4296
N685 X-2.4781 Y-1. Z0.4291
N690 G3 X-2.522 I-0.0219 J0. F26.4
N695 X-2.4781 I0.0219 J0.
N700 X-2.4937 Y-0.9991 I-0.0079 J0.
N705 G1 X-2.5048 Y-1.0934
N710 G3 X-2.4937 Y-1.1015 I0.0078 J-0.0009
N715 G1 X-2.4607 Y-1.0865
N720 G3 X-2.5366 Y-1.0876 I-0.0393 J0.0865
N725 G1 X-2.5032 Y-1.1016
N730 X-2.5013 Y-1.1022 Z0.4295
N735 X-2.4993 Y-1.1024 Z0.4299
N740 X-2.4976 Y-1.1023 Z0.431
N745 X-2.496 Y-1.1019 Z0.4322
N750 X-2.494 Y-1.101 Z0.4355
N755 X-2.4933 Y-1.1006 Z0.4395
N760 G0 Z1.0906
N765 G1 X-0.4787 Y-0.8985 F196.85
N770 G0 Z0.6969
N775 G1 Z0.5984 F13.123
N780 Z0.4731
N785 Y-0.8975 Z0.4683
N790 X-0.4793 Y-0.8949 Z0.4643
N795 X-0.4801 Y-0.893 Z0.4629
N800 X-0.4811 Y-0.8913 Z0.4616
N805 X-0.4828 Y-0.8895 Z0.4611
N810 X-0.4847 Y-0.8881 Z0.4606
N815 X-0.4894 Y-0.8851 F26.4
N820 G3 X-0.5106 I-0.0106 J-0.016
N825 G1 X-0.517 Y-0.8891
N830 G3 X-0.5296 Y-0.911 I0.0128 J-0.0219
N835 G1 Y-1.089
N840 G3 X-0.517 Y-1.1109 I0.0254 J0.
N845 G1 X-0.5106 Y-1.1149
N850 G3 X-0.4894 I0.0106 J0.016
N855 G1 X-0.483 Y-1.1109
N860 G3 X-0.4704 Y-1.089 I-0.0128 J0.0219
N865 G1 Y-0.911
N870 G3 X-0.483 Y-0.8891 I-0.0254 J0.
N875 G1 X-0.4847 Y-0.8881
N880 G2 X-0.5019 Y-0.8086 I0.029 J0.0479
N885 G3 X-0.4779 Y-0.7309 I-0.1137 J0.0777
N890 G1 Y-0.6078
N895 X-0.5221
N900 Y-0.7737
N905 G2 X-0.5628 Y-0.8322 I-0.0625 J0.
N910 G3 X-0.6009 Y-0.852 I0.0628 J-0.1678
N915 G1 Y-1.148
N920 G3 X-0.5628 Y-1.1678 I0.1009 J0.148
N925 G2 X-0.5221 Y-1.2263 I-0.0219 J-0.0585
N930 G1 Y-1.3922
N935 X-0.4779
N940 Y-1.2263
N945 G2 X-0.4372 Y-1.1678 I0.0625 J0.
N950 G3 X-0.3991 Y-1.148 I-0.0628 J0.1678
N955 G1 Y-0.852
N960 G3 X-0.4372 Y-0.8322 I-0.1009 J-0.148
N965 G2 X-0.4779 Y-0.7737 I0.0219 J0.0585
N970 G1 Y-0.7309
N975 X-0.4781 Y-0.7296
N980 X-0.4788 Y-0.7286
N985 X-0.4799 Y-0.728
N990 X-0.4811 Y-0.7278
N995 X-0.4823 Y-0.728
N1000 X-0.4833 Y-0.7288
N1005 X-0.4839 Y-0.7299
N1010 X-0.4872 Y-0.7402
N1015 X-0.4876 Y-0.8897
N1020 X-0.4845 Y-0.8995
N1025 X-0.4839 Y-0.9006
N1030 X-0.4829 Y-0.9013
N1035 X-0.4817 Y-0.9016
N1040 X-0.4805 Y-0.9013
N1045 X-0.4795 Y-0.9007
N1050 X-0.4789 Y-0.8997
N1055 X-0.4787 Y-0.8985
N1060 Z0.4338 F13.123
N1065 Y-0.8975 Z0.429
N1070 X-0.4793 Y-0.8949 Z0.4249
N1075 X-0.4801 Y-0.893 Z0.4236
N1080 X-0.4811 Y-0.8913 Z0.4222
N1085 X-0.4828 Y-0.8895 Z0.4217
N1090 X-0.4847 Y-0.8881 Z0.4213
N1095 X-0.4894 Y-0.8851 F26.4
N1100 G3 X-0.5106 I-0.0106 J-0.016
N1105 G1 X-0.517 Y-0.8891
N1110 G3 X-0.5296 Y-0.911 I0.0128 J-0.0219
N1115 G1 Y-1.089
N1120 G3 X-0.517 Y-1.1109 I0.0254 J0.
N1125 G1 X-0.5106 Y-1.1149
N1130 G3 X-0.4894 I0.0106 J0.016
N1135 G1 X-0.483 Y-1.1109
N1140 G3 X-0.4704 Y-1.089 I-0.0128 J0.0219
N1145 G1 Y-0.911
N1150 G3 X-0.483 Y-0.8891 I-0.0254 J0.
N1155 G1 X-0.4847 Y-0.8881
N1160 G2 X-0.5019 Y-0.8086 I0.029 J0.0479
N1165 G3 X-0.4779 Y-0.7309 I-0.1137 J0.0777
N1170 G1 Y-0.6078
N1175 X-0.5221
N1180 Y-0.7737
N1185 G2 X-0.5628 Y-0.8322 I-0.0625 J0.
N1190 G3 X-0.6009 Y-0.852 I0.0628 J-0.1678
N1195 G1 Y-1.148
N1200 G3 X-0.5628 Y-1.1678 I0.1009 J0.148
N1205 G2 X-0.5221 Y-1.2263 I-0.0219 J-0.0585
N1210 G1 Y-1.3922
N1215 X-0.4779
N1220 Y-1.2263
N1225 G2 X-0.4372 Y-1.1678 I0.0625 J0.
N1230 G3 X-0.3991 Y-1.148 I-0.0628 J0.1678
N1235 G1 Y-0.852
N1240 G3 X-0.4372 Y-0.8322 I-0.1009 J-0.148
N1245 G2 X-0.4779 Y-0.7737 I0.0219 J0.0585
N1250 G1 Y-0.7309
N1255 X-0.4781 Y-0.7285 Z0.4217
N1260 X-0.4789 Y-0.7262 Z0.4222
N1265 X-0.4799 Y-0.7245 Z0.4236
N1270 X-0.4811 Y-0.7229 Z0.4249
N1275 X-0.4832 Y-0.7211 Z0.429
N1280 X-0.484 Y-0.7206 Z0.4338
N1285 G0 Z1.0906

(Trace1)
N1290 G1 X-2.4897 Y-1.6663 F196.85
N1295 G0 Z1.0906
N1300 Z0.6969
N1305 G1 Z0.4213 F13.123
N1310 X-1.4989 Y-1.6453 Z0.4803 F15.4
N1315 Z0.6969
N1320 X-2.4897 Y-1.6663 F196.85
N1325 Z0.4213 F13.123
N1330 X-2.4907 Y-1.6033 F15.4
N1335 X-2.493 Y-1.4525 Z0.374
N1340 X-2.4977 Y-1.1508
N1345 X-2.5 Y-1. Z0.4213
N1350 Z0.6969
N1355 X-2.4897 Y-1.6663 F196.85
N1360 Z0.4213 F13.123
N1365 X-1.4989 Y-1.6453 Z0.4803 F15.4
N1370 Z0.6969
N1375 X-2.4897 Y-1.6663 F196.85
N1380 Z0.4213 F13.123
N1385 X-2.4907 Y-1.6033 F15.4
N1390 X-2.493 Y-1.4525 Z0.374
N1395 X-2.4977 Y-1.1508
N1400 X-2.5 Y-1. Z0.4213
N1405 Z0.6969
N1410 G0 Z1.0906
N1415 M9
N1420 M5
N1425 G53 G0 Z0.

(2D Contour1)
N1430 T5 M6
N1435 S4500 M3
N1440 G17 G90
N1445 G54
N1450 M8
N1455 G1 X-0.4234 Y-0.9384 F196.85
N1460 G0 G43 Z1.0906 H5
N1465 T10
N1470 G0 Z0.6969
N1475 G1 Z0.5394 F13.123
N1480 Z0.4541
N1485 G18 G2 X-0.3984 Z0.4291 I0.025 K0. F25.
N1490 G1 X-0.3734
N1495 G17 G3 X-0.3484 Y-0.9134 I0. J0.025
N1500 G1 Y-0.8272 F0.984
N1505 G3 X-0.4195 Y-0.7847 I-0.1516 J-0.1728
N1510 G2 X-0.4272 Y-0.7737 I0.0041 J0.0111
N1515 G1 Y-0.571
N1520 X-0.4411 Y-0.5571
N1525 X-0.5589
N1530 X-0.5728 Y-0.571
N1535 Y-0.7737
N1540 G2 X-0.5805 Y-0.7847 I-0.0118 J0.
N1545 G3 X-0.6516 Y-0.8272 I0.0805 J-0.2153
N1550 G1 Y-1.1728
N1555 G3 X-0.5805 Y-1.2153 I0.1516 J0.1728
N1560 G2 X-0.5728 Y-1.2263 I-0.0041 J-0.0111
N1565 G1 Y-1.429
N1570 X-0.5589 Y-1.4429
N1575 X-0.4411
N1580 X-0.4272 Y-1.429
N1585 Y-1.2263
N1590 G2 X-0.4195 Y-1.2153 I0.0118 J0.
N1595 G3 X-0.3484 Y-1.1728 I-0.0805 J0.2153
N1600 G1 Y-0.9134
N1605 Y-0.8272
N1610 G3 X-0.4195 Y-0.7847 I-0.1516 J-0.1728
N1615 G2 X-0.4272 Y-0.7737 I0.0041 J0.0111
N1620 G1 Y-0.571
N1625 X-0.4411 Y-0.5571
N1630 X-0.5589
N1635 X-0.5728 Y-0.571
N1640 Y-0.7737
N1645 G2 X-0.5805 Y-0.7847 I-0.0118 J0.
N1650 G3 X-0.6516 Y-0.8272 I0.0805 J-0.2153
N1655 G1 Y-1.1728
N1660 G3 X-0.5805 Y-1.2153 I0.1516 J0.1728
N1665 G2 X-0.5728 Y-1.2263 I-0.0041 J-0.0111
N1670 G1 Y-1.429
N1675 X-0.5589 Y-1.4429
N1680 X-0.4411
N1685 X-0.4272 Y-1.429
N1690 Y-1.2263
N1695 G2 X-0.4195 Y-1.2153 I0.0118 J0.
N1700 G3 X-0.3484 Y-1.1728 I-0.0805 J0.2153
N1705 G1 Y-0.9134
N1710 G3 X-0.3734 Y-0.8884 I-0.025 J0. F25.
N1715 G1 X-0.3984
N1720 G18 G3 X-0.4234 Z0.4541 I0. K0.025
N1725 G0 Z1.0906
N1730 M9
N1735 M5
N1740 G53 G0 Z0.

(2D Pocket3)
N1745 T10 M6
N1750 S6000 M3
N1755 G17 G90
N1760 G54
N1765 M8
N1770 G1 X-0.4927 Y-0.9187 F196.85
N1775 G0 G43 Z1.0906 H10
N1780 T1
N1785 G0 Z0.6969
N1790 G1 Z0.5984 F13.123
N1795 Z0.4275
N1800 X-0.492 Y-0.9182 Z0.4244
N1805 X-0.4912 Y-0.9174 Z0.4232
N1810 X-0.4906 Y-0.9164 Z0.4221
N1815 X-0.49 Y-0.915 Z0.4217
N1820 X-0.4898 Y-0.9134 Z0.4213
N1825 Y-0.9129 F13.2
N1830 X-0.4901 Y-0.9106
N1835 X-0.491 Y-0.9083
N1840 X-0.4925 Y-0.9064
N1845 X-0.4943 Y-0.905
N1850 X-0.4952 Y-0.9045
N1855 X-0.497 Y-0.9036
N1860 X-0.499 Y-0.9032
N1865 X-0.501
N1870 X-0.503 Y-0.9036
N1875 X-0.5048 Y-0.9045
N1880 X-0.5057 Y-0.905
N1885 X-0.5075 Y-0.9064
N1890 X-0.509 Y-0.9083
N1895 X-0.5099 Y-0.9106
N1900 X-0.5102 Y-0.9129
N1905 Y-1.0871
N1910 X-0.5099 Y-1.0894
N1915 X-0.509 Y-1.0917
N1920 X-0.5075 Y-1.0936
N1925 X-0.5057 Y-1.095
N1930 X-0.5048 Y-1.0955
N1935 X-0.503 Y-1.0964
N1940 X-0.501 Y-1.0968
N1945 X-0.499
N1950 X-0.497 Y-1.0964
N1955 X-0.4952 Y-1.0955
N1960 X-0.4943 Y-1.095
N1965 X-0.4925 Y-1.0936
N1970 X-0.491 Y-1.0917
N1975 X-0.4901 Y-1.0894
N1980 X-0.4898 Y-1.0871
N1985 Y-0.9134
N1990 G2 X-0.4829 Y-0.9013 I0.0142 J0.
N1995 G3 Y-0.8873 I-0.0042 J0.007
N2000 G1 X-0.4893 Y-0.8832
N2005 G3 X-0.5107 I-0.0107 J-0.0159
N2010 G1 X-0.5184 Y-0.8881
N2015 G3 X-0.5312 Y-0.9102 I0.0128 J-0.0222
N2020 G1 Y-1.0898
N2025 G3 X-0.5184 Y-1.1119 I0.0256 J0.
N2030 G1 X-0.5107 Y-1.1168
N2035 G3 X-0.4893 I0.0107 J0.0159
N2040 G1 X-0.4816 Y-1.1119
N2045 G3 X-0.4688 Y-1.0898 I-0.0128 J0.0222
N2050 G1 Y-0.9102
N2055 G3 X-0.4816 Y-0.8881 I-0.0256 J0.
N2060 G1 X-0.4829 Y-0.8873
N2065 G2 X-0.4929 Y-0.8606 I0.0116 J0.0195
N2070 G3 X-0.5168 Y-0.8452 I-0.0139 J0.0047
N2075 G2 X-0.5266 Y-0.8533 I-0.0663 J0.0704
N2080 X-0.5507 Y-0.8663 I-0.0613 J0.0851
N2085 G3 X-0.5648 Y-0.8866 I0.0077 J-0.0204
N2090 G1 Y-1.1134
N2095 G3 X-0.5507 Y-1.1337 I0.0218 J0.
N2100 G2 X-0.5266 Y-1.1467 I-0.0372 J-0.098
N2105 X-0.5069 Y-1.1657 I-0.0565 J-0.0784
N2110 G3 X-0.4931 I0.0069 J0.0053
N2115 G2 X-0.4734 Y-1.1467 I0.0763 J-0.0594
N2120 X-0.4493 Y-1.1337 I0.0613 J-0.0851
N2125 G3 X-0.4352 Y-1.1134 I-0.0077 J0.0204
N2130 G1 Y-0.8866
N2135 G3 X-0.4493 Y-0.8663 I-0.0218 J0.
N2140 G2 X-0.4734 Y-0.8533 I0.0372 J0.098
N2145 X-0.4931 Y-0.8343 I0.0565 J0.0784
N2150 G3 X-0.5069 I-0.0069 J-0.0053
N2155 G2 X-0.5168 Y-0.8452 I-0.0763 J0.0594
N2160 X-0.5497 Y-0.8467 I-0.0173 J0.0184
N2165 G3 X-0.5824 Y-0.8438 I-0.0187 J-0.0238
N2170 G1 X-0.5826 Y-0.8439
N2175 G3 X-0.5984 Y-0.8701 I0.0139 J-0.0263
N2180 G1 Y-1.1299
N2185 G3 X-0.5826 Y-1.1561 I0.0297 J0.
N2190 X-0.5719 Y-1.1609 I0.0423 J0.0801
N2195 G1 X-0.5616 Y-1.1648
N2200 G2 X-0.5301 Y-1.1887 I-0.0241 J-0.0644
N2205 X-0.5179 Y-1.2263 I-0.0516 J-0.0376
N2210 G1 X-0.5196 Y-1.3771
N2215 G3 X-0.5071 Y-1.3897 I0.0126 J0.
N2220 G1 X-0.4929
N2225 G3 X-0.4804 Y-1.3771 I0. J0.0126
N2230 G1 X-0.4821 Y-1.2263
N2235 G2 X-0.4699 Y-1.1887 I0.0639 J0.
N2240 X-0.4384 Y-1.1648 I0.0556 J-0.0405
N2245 G1 X-0.4281 Y-1.1609
N2250 G3 X-0.4174 Y-1.1561 I-0.0317 J0.0849
N2255 X-0.4016 Y-1.1299 I-0.0139 J0.0263
N2260 G1 Y-0.8701
N2265 G3 X-0.4174 Y-0.8439 I-0.0297 J0.
N2270 X-0.4281 Y-0.8391 I-0.0423 J-0.0801
N2275 G1 X-0.4384 Y-0.8352
N2280 G2 X-0.4699 Y-0.8113 I0.0241 J0.0644
N2285 X-0.4821 Y-0.7737 I0.0516 J0.0376
N2290 G1 X-0.4804 Y-0.6229
N2295 G3 X-0.4929 Y-0.6103 I-0.0126 J0.
N2300 G1 X-0.5071
N2305 G3 X-0.5196 Y-0.6229 I0. J-0.0126
N2310 G1 X-0.5179 Y-0.7737
N2315 G2 X-0.5301 Y-0.8113 I-0.0639 J0.
N2320 X-0.5616 Y-0.8352 I-0.0556 J0.0405
N2325 G1 X-0.5719 Y-0.8391
N2330 G3 X-0.5824 Y-0.8438 I0.0317 J-0.0849
N2335 G2 X-0.6076 Y-0.838 I-0.0092 J0.0176
N2340 G3 X-0.6321 Y-0.8461 I-0.0109 J-0.0081
N2345 G1 Y-1.1637
N2350 G3 X-0.5737 Y-1.1971 I0.1321 J0.1637
N2355 G2 X-0.5534 Y-1.2263 I-0.0109 J-0.0293
N2360 G1 Y-1.4209
N2365 X-0.5509 Y-1.4235
N2370 X-0.4491
N2375 X-0.4466 Y-1.4209
N2380 Y-1.2263
N2385 G2 X-0.4263 Y-1.1971 I0.0312 J0.
N2390 G3 X-0.3679 Y-1.1637 I-0.0737 J0.1971
N2395 G1 Y-0.8363
N2400 G3 X-0.4263 Y-0.8029 I-0.1321 J-0.1637
N2405 G2 X-0.4466 Y-0.7737 I0.0109 J0.0293
N2410 G1 Y-0.5791
N2415 X-0.4491 Y-0.5765
N2420 X-0.5509
N2425 X-0.5534 Y-0.5791
N2430 Y-0.7737
N2435 G2 X-0.5737 Y-0.8029 I-0.0313 J0.
N2440 G3 X-0.6321 Y-0.8363 I0.0737 J-0.1971
N2445 G1 Y-0.8461
N2450 X-0.6319 Y-0.8477 Z0.4217
N2455 X-0.6313 Y-0.8491 Z0.4221
N2460 X-0.6306 Y-0.85 Z0.4232
N2465 X-0.6298 Y-0.8508 Z0.4244
N2470 X-0.6291 Y-0.8513 Z0.4275
N2475 G0 Z1.0906

N2480 M5
N2485 M9
N2490 G53 G0 Z0.
N2495 X-1.5
N2500 G53 G0 Y0.
M98 P9004
N2505 M30

%
