%
O10024 (Automatic CAM Program)
(Using high feed G1 F196.85 instead of G0.)
(T1 D=0.125 CR=0. - ZMIN=0.374 - flat end mill)
(T5 D=0.25 CR=0. TAPER=90deg - ZMIN=0.4291 - spot drill)
(T10 D=0.0625 CR=0. - ZMIN=0.4213 - flat end mill)
N10 G90 G17
N15 G20
N20 G53 G0 Z0.

(2D Pocket1)
N25 T1 M6
N30 S6000 M3
N35 G17 G90
N40 G54
N45 M8
N50 G1 X-2.4995 Y-0.6626 F196.85
N55 G0 G43 Z1.0906 H1
N60 T5
N65 G0 Z0.6969
N70 G1 Z0.5984 F13.123
N75 Z0.4803
N80 Y-0.435 F26.4
N85 G2 X-2.437 Y-0.3725 I0.0625 J0.
N90 G1 X-1.124
N95 X-1.066
N100 Z0.4928
N105 G0 Z0.6969
N110 G1 X-1.0661 Y-0.3715 F196.85
N115 Z0.5984 F13.123
N120 Z0.4803
N125 X-2.5 F26.4
N130 X-2.5003 Y-0.3717
N135 X-2.5005 Y-0.372
N140 Y-0.6094
N145 Y-0.6626
N150 Z0.4928
N155 G0 Z1.0906
N160 G1 X-1.0005 Y-1.1858 F196.85
N165 G0 Z0.6969
N170 G1 Z0.5984 F13.123
N175 Z0.4803
N180 Y-1.5495 F26.4
N185 G2 X-1.0631 Y-1.612 I-0.0625 J0.
N190 G1 X-1.7532 Y-1.6106
N195 Z0.4928
N200 G0 Z0.6969
N205 G1 X-1.7528 Y-1.6116 F196.85
N210 Z0.5984 F13.123
N215 Z0.4803
N220 X-1. Y-1.6131 F26.4
N225 X-0.9997 Y-1.6129
N230 X-0.9995 Y-1.6126
N235 Y-1.2441
N240 Y-1.1861
N245 Z0.4928
N250 G0 Z1.0906
N255 G1 X-2.5043 Y-1.1058 F196.85
N260 G0 Z0.6969
N265 G1 Z0.525 F13.123
N270 Z0.4534 F26.4
N275 X-2.5042 Y-1.1061 Z0.4507
N280 X-2.5039 Y-1.107 Z0.448
N285 X-2.5034 Y-1.1084 Z0.4457
N290 X-2.5028 Y-1.1103 Z0.4437
N295 X-2.5021 Y-1.1126 Z0.4422
N300 X-2.5013 Y-1.1151 Z0.4413
N305 X-2.5004 Y-1.1177 Z0.4409
N310 X-2.5 Y-1.118
N315 G3 Y-0.882 I0. J0.118
N320 Y-1.118 I0. J-0.118
N325 G2 X-2.4923 Y-1.1274 I0. J-0.0079
N330 G1 X-2.5031 Y-1.1814
N335 G3 X-2.4952 Y-1.1908 I0.0077 J-0.0016
N340 X-2.3653 Y-0.8648 I-0.0048 J0.1908
N345 X-2.4273 Y-0.8245 I-0.1268 J-0.1274
N350 X-2.5727 I-0.0727 J-0.1879
N355 X-2.6347 Y-0.8648 I0.0648 J-0.1676
N360 X-2.5046 Y-1.1908 I0.1347 J-0.1352
N365 G2 X-2.497 Y-1.1996 I-0.0002 J-0.0079
N370 G1 X-2.5032 Y-1.2531
N375 G3 X-2.4952 Y-1.2619 I0.0078 J-0.0009
N380 X-2.3152 Y-0.8144 I-0.0048 J0.2619
N385 X-2.4002 Y-0.7588 I-0.1769 J-0.1776
N390 X-2.5998 I-0.0998 J-0.2534
N395 X-2.6848 Y-0.8144 I0.0919 J-0.2332
N400 X-2.5048 Y-1.2619 I0.1848 J-0.1856
N405 G2 X-2.4971 Y-1.2707 I-0.0001 J-0.0079
N410 G1 X-2.5044 Y-1.328
N415 G3 X-2.4953 Y-1.3367 I0.0078 J-0.001
N420 G1 X-2.447 Y-1.3289
N425 G3 X-2.553 I-0.053 J0.3289
N430 G1 X-2.505 Y-1.3367
N435 X-2.5026 Y-1.3368 Z0.4414
N440 X-2.5002 Y-1.3364 Z0.4419
N445 X-2.4983 Y-1.3357 Z0.4433
N450 X-2.4965 Y-1.3347 Z0.4446
N455 X-2.4945 Y-1.333 Z0.4487
N460 X-2.4939 Y-1.3323 Z0.4534
N465 G0 Z1.0906
N470 G1 X-2.4838 Y-1.0105 F196.85
N475 G0 Z0.6969
N480 G1 Z0.5984 F13.123
N485 Z0.4771
N490 X-2.483 Y-1.01 Z0.4723
N495 X-2.481 Y-1.0081 Z0.4682
N500 X-2.4799 Y-1.0065 Z0.4669
N505 X-2.479 Y-1.0047 Z0.4655
N510 X-2.4783 Y-1.0024 Z0.465
N515 X-2.478 Y-1. Z0.4646
N520 G3 X-2.522 I-0.022 J0. F26.4
N525 X-2.478 I0.022 J0.
N530 X-2.4937 Y-0.999 I-0.0079 J0.
N535 G1 X-2.5062 Y-1.0933
N540 G3 X-2.4953 Y-1.1016 I0.0078 J-0.001
N545 G1 X-2.462 Y-1.0871
N550 G3 X-2.538 I-0.038 J0.0871
N555 G1 X-2.5047 Y-1.1016
N560 X-2.5036 Y-1.1018
N565 X-2.5024 Y-1.1016
N570 X-2.5015 Y-1.1009
N575 X-2.5008 Y-1.1
N580 X-2.5006 Y-1.0988
N585 X-2.5007 Y-1.0845
N590 X-2.4971 Y-1.0141
N595 G3 X-2.5004 Y-1.0193 I-0.0062 J0.0003
N600 G1 X-2.4838 Y-1.0105
N605 Z0.4416 F13.123
N610 X-2.483 Y-1.01 Z0.4369
N615 X-2.481 Y-1.0081 Z0.4328
N620 X-2.4799 Y-1.0065 Z0.4314
N625 X-2.479 Y-1.0047 Z0.4301
N630 X-2.4783 Y-1.0024 Z0.4296
N635 X-2.478 Y-1. Z0.4291
N640 G3 X-2.522 I-0.022 J0. F26.4
N645 X-2.478 I0.022 J0.
N650 X-2.4937 Y-0.999 I-0.0079 J0.
N655 G1 X-2.5062 Y-1.0933
N660 G3 X-2.4953 Y-1.1016 I0.0078 J-0.001
N665 G1 X-2.462 Y-1.0871
N670 G3 X-2.538 I-0.038 J0.0871
N675 G1 X-2.5047 Y-1.1016
N680 X-2.5029 Y-1.1022 Z0.4295
N685 X-2.5009 Y-1.1024 Z0.4299
N690 X-2.4992 Y-1.1023 Z0.431
N695 X-2.4976 Y-1.102 Z0.4322
N700 X-2.4955 Y-1.1011 Z0.4355
N705 X-2.4949 Y-1.1007 Z0.4395
N710 G0 Z1.0906
N715 G1 X-0.9762 Y-0.8471 F196.85
N720 G0 Z0.6969
N725 G1 Z0.5984 F13.123
N730 Z0.4731
N735 X-0.9754 Y-0.8466 Z0.4683
N740 X-0.9734 Y-0.8447 Z0.4643
N745 X-0.9722 Y-0.8431 Z0.4629
N750 X-0.9713 Y-0.8412 Z0.4616
N755 X-0.9706 Y-0.839 Z0.4611
N760 X-0.9704 Y-0.8366 Z0.4606
N765 Y-0.661 F26.4
N770 G3 X-0.983 Y-0.6391 I-0.0254 J0.
N775 G1 X-0.9894 Y-0.6351
N780 G3 X-1.0106 I-0.0106 J-0.016
N785 G1 X-1.017 Y-0.6391
N790 G3 X-1.0296 Y-0.661 I0.0128 J-0.0219
N795 G1 Y-0.839
N800 G3 X-1.017 Y-0.8609 I0.0254 J0.
N805 G1 X-1.0106 Y-0.8649
N810 G3 X-0.9894 I0.0106 J0.016
N815 G1 X-0.983 Y-0.8609
N820 G3 X-0.9704 Y-0.839 I-0.0128 J0.0219
N825 G1 Y-0.8366
N830 G2 X-0.9348 Y-0.7831 I0.0579 J0.
N835 G3 X-0.8991 Y-0.7296 I-0.0223 J0.0535
N840 G1 Y-0.602
N845 G3 X-0.9372 Y-0.5822 I-0.1009 J-0.148
N850 G2 X-0.9779 Y-0.5237 I0.0219 J0.0585
N855 G1 Y-0.3578
N860 X-1.0221
N865 Y-0.5237
N870 G2 X-1.0628 Y-0.5822 I-0.0625 J0.
N875 G3 X-1.1009 Y-0.602 I0.0628 J-0.1678
N880 G1 Y-0.898
N885 G3 X-1.0628 Y-0.9178 I0.1009 J0.148
N890 G2 X-1.0221 Y-0.9763 I-0.0219 J-0.0585
N895 G1 Y-1.1422
N900 X-0.9779
N905 Y-0.9763
N910 G2 X-0.9372 Y-0.9178 I0.0625 J0.
N915 G3 X-0.8991 Y-0.898 I-0.0628 J0.1678
N920 G1 Y-0.7296
N925 G3 X-0.9098 Y-0.7253 I-0.0063 J0.
N930 G1 X-0.9344 Y-0.7507
N935 X-0.9768 Y-0.8291
N940 X-0.9814 Y-0.8431
N945 X-0.9815 Y-0.8445
N950 X-0.9811 Y-0.8459
N955 X-0.9802 Y-0.8469
N960 X-0.9789 Y-0.8475
N965 X-0.9775 Y-0.8476
N970 X-0.9762 Y-0.8471
N975 Z0.4338 F13.123
N980 X-0.9754 Y-0.8466 Z0.429
N985 X-0.9734 Y-0.8447 Z0.4249
N990 X-0.9722 Y-0.8431 Z0.4236
N995 X-0.9713 Y-0.8412 Z0.4222
N1000 X-0.9706 Y-0.839 Z0.4217
N1005 X-0.9704 Y-0.8366 Z0.4213
N1010 Y-0.661 F26.4
N1015 G3 X-0.983 Y-0.6391 I-0.0254 J0.
N1020 G1 X-0.9894 Y-0.6351
N1025 G3 X-1.0106 I-0.0106 J-0.016
N1030 G1 X-1.017 Y-0.6391
N1035 G3 X-1.0296 Y-0.661 I0.0128 J-0.0219
N1040 G1 Y-0.839
N1045 G3 X-1.017 Y-0.8609 I0.0254 J0.
N1050 G1 X-1.0106 Y-0.8649
N1055 G3 X-0.9894 I0.0106 J0.016
N1060 G1 X-0.983 Y-0.8609
N1065 G3 X-0.9704 Y-0.839 I-0.0128 J0.0219
N1070 G1 Y-0.8366
N1075 G2 X-0.9348 Y-0.7831 I0.0579 J0.
N1080 G3 X-0.8991 Y-0.7296 I-0.0223 J0.0535
N1085 G1 Y-0.602
N1090 G3 X-0.9372 Y-0.5822 I-0.1009 J-0.148
N1095 G2 X-0.9779 Y-0.5237 I0.0219 J0.0585
N1100 G1 Y-0.3578
N1105 X-1.0221
N1110 Y-0.5237
N1115 G2 X-1.0628 Y-0.5822 I-0.0625 J0.
N1120 G3 X-1.1009 Y-0.602 I0.0628 J-0.1678
N1125 G1 Y-0.898
N1130 G3 X-1.0628 Y-0.9178 I0.1009 J0.148
N1135 G2 X-1.0221 Y-0.9763 I-0.0219 J-0.0585
N1140 G1 Y-1.1422
N1145 X-0.9779
N1150 Y-0.9763
N1155 G2 X-0.9372 Y-0.9178 I0.0625 J0.
N1160 G3 X-0.8991 Y-0.898 I-0.0628 J0.1678
N1165 G1 Y-0.7296
N1170 X-0.8994 Y-0.7273 Z0.4217
N1175 X-0.9002 Y-0.725 Z0.4222
N1180 X-0.9011 Y-0.7232 Z0.4236
N1185 X-0.9024 Y-0.7216 Z0.4249
N1190 X-0.9044 Y-0.7199 Z0.429
N1195 X-0.9052 Y-0.7194 Z0.4338
N1200 G0 Z1.0906

(Trace1)
N1205 G1 X-2.5 Y-1.6096 F196.85
N1210 G0 Z1.0906
N1215 Z0.6969
N1220 G1 Z0.4213 F13.123
N1225 X-1.75 Y-1.6111 Z0.4803 F15.4
N1230 Z0.6969
N1235 X-2.5 Y-1.6096 F196.85
N1240 Z0.4213 F13.123
N1245 Y-1.5466 F15.4
N1250 Y-1.41 Z0.374
N1255 Y-1.1367
N1260 Y-1. Z0.4213
N1265 Z0.6969
N1270 G0 Y-1.6096
N1275 G1 Z0.4213 F13.123
N1280 X-1.75 Y-1.6111 Z0.4803 F15.4
N1285 Z0.6969
N1290 X-2.5 Y-1.6096 F196.85
N1295 Z0.4213 F13.123
N1300 Y-1.5466 F15.4
N1305 Y-1.41 Z0.374
N1310 Y-1.1367
N1315 Y-1. Z0.4213
N1320 Z0.6969
N1325 G0 Z1.0906
N1330 M9
N1335 M5
N1340 G53 G0 Z0.

(2D Contour1)
N1345 T5 M6
N1350 S4500 M3
N1355 G17 G90
N1360 G54
N1365 M8
N1370 G1 X-0.9234 Y-0.6884 F196.85
N1375 G0 G43 Z1.0906 H5
N1380 T10
N1385 G0 Z0.6969
N1390 G1 Z0.5394 F13.123
N1395 Z0.4541
N1400 G18 G2 X-0.8984 Z0.4291 I0.025 K0. F25.
N1405 G1 X-0.8734
N1410 G17 G3 X-0.8484 Y-0.6634 I0. J0.025
N1415 G1 Y-0.5772 F0.984
N1420 G3 X-0.9195 Y-0.5347 I-0.1516 J-0.1728
N1425 G2 X-0.9272 Y-0.5237 I0.0041 J0.0111
N1430 G1 Y-0.321
N1435 X-0.9411 Y-0.3071
N1440 X-1.0589
N1445 X-1.0728 Y-0.321
N1450 Y-0.5237
N1455 G2 X-1.0805 Y-0.5347 I-0.0118 J0.
N1460 G3 X-1.1516 Y-0.5772 I0.0805 J-0.2153
N1465 G1 Y-0.9228
N1470 G3 X-1.0805 Y-0.9653 I0.1516 J0.1728
N1475 G2 X-1.0728 Y-0.9763 I-0.0041 J-0.0111
N1480 G1 Y-1.179
N1485 X-1.0589 Y-1.1929
N1490 X-0.9411
N1495 X-0.9272 Y-1.179
N1500 Y-0.9763
N1505 G2 X-0.9195 Y-0.9653 I0.0118 J0.
N1510 G3 X-0.8484 Y-0.9228 I-0.0805 J0.2153
N1515 G1 Y-0.6634
N1520 Y-0.5772
N1525 G3 X-0.9195 Y-0.5347 I-0.1516 J-0.1728
N1530 G2 X-0.9272 Y-0.5237 I0.0041 J0.0111
N1535 G1 Y-0.321
N1540 X-0.9411 Y-0.3071
N1545 X-1.0589
N1550 X-1.0728 Y-0.321
N1555 Y-0.5237
N1560 G2 X-1.0805 Y-0.5347 I-0.0118 J0.
N1565 G3 X-1.1516 Y-0.5772 I0.0805 J-0.2153
N1570 G1 Y-0.9228
N1575 G3 X-1.0805 Y-0.9653 I0.1516 J0.1728
N1580 G2 X-1.0728 Y-0.9763 I-0.0041 J-0.0111
N1585 G1 Y-1.179
N1590 X-1.0589 Y-1.1929
N1595 X-0.9411
N1600 X-0.9272 Y-1.179
N1605 Y-0.9763
N1610 G2 X-0.9195 Y-0.9653 I0.0118 J0.
N1615 G3 X-0.8484 Y-0.9228 I-0.0805 J0.2153
N1620 G1 Y-0.6634
N1625 G3 X-0.8734 Y-0.6384 I-0.025 J0. F25.
N1630 G1 X-0.8984
N1635 G18 G3 X-0.9234 Z0.4541 I0. K0.025
N1640 G0 Z1.0906
N1645 M9
N1650 M5
N1655 G53 G0 Z0.

(2D Pocket2)
N1660 T10 M6
N1665 S6000 M3
N1670 G17 G90
N1675 G54
N1680 M8
N1685 G1 X-0.9927 Y-0.6687 F196.85
N1690 G0 G43 Z1.0906 H10
N1695 T1
N1700 G0 Z0.6969
N1705 G1 Z0.5984 F13.123
N1710 Z0.4275
N1715 X-0.992 Y-0.6682 Z0.4244
N1720 X-0.9912 Y-0.6674 Z0.4232
N1725 X-0.9906 Y-0.6664 Z0.4221
N1730 X-0.99 Y-0.665 Z0.4217
N1735 X-0.9898 Y-0.6634 Z0.4213
N1740 Y-0.6629 F13.2
N1745 X-0.9901 Y-0.6606
N1750 X-0.991 Y-0.6583
N1755 X-0.9925 Y-0.6564
N1760 X-0.9943 Y-0.655
N1765 X-0.9952 Y-0.6545
N1770 X-0.997 Y-0.6536
N1775 X-0.999 Y-0.6532
N1780 X-1.001
N1785 X-1.003 Y-0.6536
N1790 X-1.0048 Y-0.6545
N1795 X-1.0057 Y-0.655
N1800 X-1.0075 Y-0.6564
N1805 X-1.009 Y-0.6583
N1810 X-1.0099 Y-0.6606
N1815 X-1.0102 Y-0.6629
N1820 Y-0.8371
N1825 X-1.0099 Y-0.8394
N1830 X-1.009 Y-0.8417
N1835 X-1.0075 Y-0.8436
N1840 X-1.0057 Y-0.845
N1845 X-1.0048 Y-0.8455
N1850 X-1.003 Y-0.8464
N1855 X-1.001 Y-0.8468
N1860 X-0.999
N1865 X-0.997 Y-0.8464
N1870 X-0.9952 Y-0.8455
N1875 X-0.9943 Y-0.845
N1880 X-0.9925 Y-0.8436
N1885 X-0.991 Y-0.8417
N1890 X-0.9901 Y-0.8394
N1895 X-0.9898 Y-0.8371
N1900 Y-0.6634
N1905 G2 X-0.9829 Y-0.6513 I0.0142 J0.
N1910 G3 Y-0.6373 I-0.0042 J0.007
N1915 G1 X-0.9893 Y-0.6332
N1920 G3 X-1.0107 I-0.0107 J-0.0159
N1925 G1 X-1.0184 Y-0.6381
N1930 G3 X-1.0312 Y-0.6602 I0.0128 J-0.0222
N1935 G1 Y-0.8398
N1940 G3 X-1.0184 Y-0.8619 I0.0256 J0.
N1945 G1 X-1.0107 Y-0.8668
N1950 G3 X-0.9893 I0.0107 J0.0159
N1955 G1 X-0.9816 Y-0.8619
N1960 G3 X-0.9688 Y-0.8398 I-0.0128 J0.0222
N1965 G1 Y-0.6602
N1970 G3 X-0.9816 Y-0.6381 I-0.0256 J0.
N1975 G1 X-0.9829 Y-0.6373
N1980 G2 X-0.9929 Y-0.6106 I0.0116 J0.0195
N1985 G3 X-1.0168 Y-0.5952 I-0.0139 J0.0047
N1990 G2 X-1.0266 Y-0.6033 I-0.0663 J0.0704
N1995 X-1.0507 Y-0.6163 I-0.0613 J0.0851
N2000 G3 X-1.0648 Y-0.6366 I0.0077 J-0.0204
N2005 G1 Y-0.8634
N2010 G3 X-1.0507 Y-0.8837 I0.0218 J0.
N2015 G2 X-1.0266 Y-0.8967 I-0.0372 J-0.098
N2020 X-1.0069 Y-0.9157 I-0.0565 J-0.0784
N2025 G3 X-0.9931 I0.0069 J0.0053
N2030 G2 X-0.9734 Y-0.8967 I0.0763 J-0.0594
N2035 X-0.9493 Y-0.8837 I0.0613 J-0.0851
N2040 G3 X-0.9352 Y-0.8634 I-0.0077 J0.0204
N2045 G1 Y-0.6366
N2050 G3 X-0.9493 Y-0.6163 I-0.0218 J0.
N2055 G2 X-0.9734 Y-0.6033 I0.0372 J0.098
N2060 X-0.9931 Y-0.5843 I0.0565 J0.0784
N2065 G3 X-1.0069 I-0.0069 J-0.0053
N2070 G2 X-1.0168 Y-0.5952 I-0.0763 J0.0594
N2075 X-1.0497 Y-0.5967 I-0.0173 J0.0184
N2080 G3 X-1.0824 Y-0.5938 I-0.0187 J-0.0238
N2085 G1 X-1.0826 Y-0.5939
N2090 G3 X-1.0984 Y-0.6201 I0.0139 J-0.0263
N2095 G1 Y-0.8799
N2100 G3 X-1.0826 Y-0.9061 I0.0297 J0.
N2105 X-1.0719 Y-0.9109 I0.0423 J0.0801
N2110 G1 X-1.0616 Y-0.9148
N2115 G2 X-1.0301 Y-0.9387 I-0.0241 J-0.0644
N2120 X-1.0179 Y-0.9763 I-0.0516 J-0.0376
N2125 G1 X-1.0196 Y-1.1271
N2130 G3 X-1.0071 Y-1.1397 I0.0126 J0.
N2135 G1 X-0.9929
N2140 G3 X-0.9804 Y-1.1271 I0. J0.0126
N2145 G1 X-0.9821 Y-0.9763
N2150 G2 X-0.9699 Y-0.9387 I0.0639 J0.
N2155 X-0.9384 Y-0.9148 I0.0556 J-0.0405
N2160 G1 X-0.9281 Y-0.9109
N2165 G3 X-0.9174 Y-0.9061 I-0.0317 J0.0849
N2170 X-0.9016 Y-0.8799 I-0.0139 J0.0263
N2175 G1 Y-0.6201
N2180 G3 X-0.9174 Y-0.5939 I-0.0297 J0.
N2185 X-0.9281 Y-0.5891 I-0.0423 J-0.0801
N2190 G1 X-0.9384 Y-0.5852
N2195 G2 X-0.9699 Y-0.5613 I0.0241 J0.0644
N2200 X-0.9821 Y-0.5237 I0.0516 J0.0376
N2205 G1 X-0.9804 Y-0.3729
N2210 G3 X-0.9929 Y-0.3603 I-0.0126 J0.
N2215 G1 X-1.0071
N2220 G3 X-1.0196 Y-0.3729 I0. J-0.0126
N2225 G1 X-1.0179 Y-0.5237
N2230 G2 X-1.0301 Y-0.5613 I-0.0639 J0.
N2235 X-1.0616 Y-0.5852 I-0.0556 J0.0405
N2240 G1 X-1.0719 Y-0.5891
N2245 G3 X-1.0824 Y-0.5938 I0.0317 J-0.0849
N2250 G2 X-1.1076 Y-0.588 I-0.0092 J0.0176
N2255 G3 X-1.1321 Y-0.5961 I-0.0109 J-0.0081
N2260 G1 Y-0.9137
N2265 G3 X-1.0737 Y-0.9471 I0.1321 J0.1637
N2270 G2 X-1.0534 Y-0.9763 I-0.0109 J-0.0293
N2275 G1 Y-1.1709
N2280 X-1.0509 Y-1.1735
N2285 X-0.9491
N2290 X-0.9466 Y-1.1709
N2295 Y-0.9763
N2300 G2 X-0.9263 Y-0.9471 I0.0313 J0.
N2305 G3 X-0.8679 Y-0.9137 I-0.0737 J0.1971
N2310 G1 Y-0.5863
N2315 G3 X-0.9263 Y-0.5529 I-0.1321 J-0.1637
N2320 G2 X-0.9466 Y-0.5237 I0.0109 J0.0293
N2325 G1 Y-0.3291
N2330 X-0.9491 Y-0.3265
N2335 X-1.0509
N2340 X-1.0534 Y-0.3291
N2345 Y-0.5237
N2350 G2 X-1.0737 Y-0.5529 I-0.0312 J0.
N2355 G3 X-1.1321 Y-0.5863 I0.0737 J-0.1971
N2360 G1 Y-0.5961
N2365 X-1.1319 Y-0.5977 Z0.4217
N2370 X-1.1313 Y-0.5991 Z0.4221
N2375 X-1.1306 Y-0.6 Z0.4232
N2380 X-1.1298 Y-0.6008 Z0.4244
N2385 X-1.1291 Y-0.6013 Z0.4275
N2390 G0 Z1.0906

N2395 M5
N2400 M9
N2405 G53 G0 Z0.
N2410 X-1.5
N2415 G53 G0 Y0.
M98 P9004
N2420 M30

%
