%
O10021 (Automatic CAM Program)
(Using high feed G1 F196.85 instead of G0.)
(T1 D=0.125 CR=0. - ZMIN=0.374 - flat end mill)
(T5 D=0.25 CR=0. TAPER=90deg - ZMIN=0.4291 - spot drill)
(T10 D=0.0625 CR=0. - ZMIN=0.4213 - flat end mill)
N10 G90 G17
N15 G20
N20 G53 G0 Z0.

(2D Pocket1)
N25 T1 M6
N30 S6000 M3
N35 G17 G90
N40 G54
N45 M8
N50 G1 X-1.9995 Y-0.6628 F196.85
N55 G0 G43 Z1.0906 H1
N60 T5
N65 G0 Z0.6969
N70 G1 Z0.5984 F13.123
N75 Z0.4803
N80 Y-0.6094 F26.4
N85 Y-0.585
N90 G2 X-1.937 Y-0.5225 I0.0625 J0.
N95 G1 X-1.124
N100 X-0.9994
N105 X-0.9995 Y-0.5219
N110 X-0.9997 Y-0.5216
N115 X-1. Y-0.5215
N120 X-2.
N125 X-2.0003 Y-0.5217
N130 X-2.0005 Y-0.522
N135 Y-0.6094
N140 Y-0.6626
N145 Z0.4928
N150 G0 Z1.0906
N155 G1 X-1.0032 Y-1.4356 F196.85
N160 G0 Z0.6969
N165 G1 Z0.5984 F13.123
N170 Z0.4803
N175 X-1.0061 Y-1.497 F26.4
N180 X-1.0127 Y-1.6364
N185 G2 X-1.0751 Y-1.6959 I-0.0624 J0.0029
N190 G1 X-1.5226
N195 Z0.4928
N200 G0 Z0.6969
N205 G1 X-1.5222 Y-1.6969 F196.85
N210 Z0.5984 F13.123
N215 Z0.4803
N220 X-1.015 F26.4
N225 X-1.0145 Y-1.6964
N230 X-1.0048 Y-1.4912
N235 X-1.0022 Y-1.436
N240 Z0.4928
N245 G0 Z1.0906
N250 G1 X-2.0043 Y-1.1058 F196.85
N255 G0 Z0.6969
N260 G1 Z0.525 F13.123
N265 Z0.4534 F26.4
N270 X-2.0042 Y-1.1061 Z0.4507
N275 X-2.0039 Y-1.107 Z0.448
N280 X-2.0034 Y-1.1084 Z0.4457
N285 X-2.0028 Y-1.1103 Z0.4437
N290 X-2.0021 Y-1.1126 Z0.4422
N295 X-2.0013 Y-1.1151 Z0.4413
N300 X-2.0004 Y-1.1177 Z0.4409
N305 X-2. Y-1.118
N310 G3 Y-0.882 I0. J0.118
N315 Y-1.118 I0. J-0.118
N320 G2 X-1.9514 Y-1.1467 I0. J-0.0556
N325 G3 X-1.8966 Y-1.1604 I0.0338 J0.0187
N330 X-1.8653 Y-0.8648 I-0.1034 J0.1604
N335 X-1.9251 Y-0.8254 I-0.1263 J-0.1269
N340 X-1.9951 Y-0.811 I-0.0753 J-0.1878
N345 X-2.0704 Y-0.8236 I-0.0052 J-0.2006
N350 X-2.1347 Y-0.8648 I0.063 J-0.169
N355 X-1.8966 Y-1.1604 I0.1347 J-0.1352
N360 G2 X-1.8882 Y-1.1737 I0.0043 J-0.0066
N365 G1 X-2.0061 Y-1.2473
N370 G3 X-2.002 Y-1.2619 I0.0042 J-0.0067
N375 X-1.8152 Y-0.8144 I0.002 J0.2619
N380 X-1.8971 Y-0.7601 I-0.1764 J-0.1771
N385 X-1.9933 Y-0.7399 I-0.1032 J-0.2529
N390 X-2.0967 Y-0.7575 I-0.007 J-0.2714
N395 X-2.1848 Y-0.8144 I0.0892 J-0.235
N400 X-2.0118 Y-1.2616 I0.1848 J-0.1856
N405 G2 X-2.0044 Y-1.2707 I-0.0004 J-0.0079
N410 G1 X-2.0128 Y-1.3278
N415 G3 X-2.004 Y-1.3367 I0.0078 J-0.0011
N420 G1 X-1.9555 Y-1.3302
N425 G3 X-2.0615 Y-1.3274 I-0.0445 J0.3302
N430 G1 X-2.0137 Y-1.3364
N435 X-2.0113 Y-1.3366 Z0.4414
N440 X-2.0089 Y-1.3363 Z0.4419
N445 X-2.007 Y-1.3356 Z0.4433
N450 X-2.0052 Y-1.3347 Z0.4446
N455 X-2.0031 Y-1.333 Z0.4487
N460 X-2.0024 Y-1.3323 Z0.4534
N465 G0 Z1.0906
N470 G1 X-1.9838 Y-1.0105 F196.85
N475 G0 Z0.6969
N480 G1 Z0.5984 F13.123
N485 Z0.4771
N490 X-1.983 Y-1.01 Z0.4723
N495 X-1.981 Y-1.0081 Z0.4682
N500 X-1.9799 Y-1.0065 Z0.4669
N505 X-1.979 Y-1.0047 Z0.4655
N510 X-1.9783 Y-1.0024 Z0.465
N515 X-1.9781 Y-1. Z0.4646
N520 G3 X-2.0219 I-0.0219 J0. F26.4
N525 X-1.9781 I0.0219 J0.
N530 X-1.9937 Y-0.9988 I-0.0079 J0.
N535 G1 X-2.0086 Y-1.0931
N540 G3 X-1.9979 Y-1.1016 I0.0078 J-0.0012
N545 G1 X-1.9643 Y-1.088
N550 G3 X-2.0402 Y-1.086 I-0.0357 J0.088
N555 G1 X-2.0074 Y-1.1014
N560 X-2.0062 Y-1.1017
N565 X-2.0051 Y-1.1015
N570 X-2.0041 Y-1.1009
N575 X-2.0034 Y-1.0999
N580 X-2.0031 Y-1.0988
N585 X-2.0029 Y-1.0845
N590 X-1.9974 Y-1.0139
N595 G3 X-2.0008 Y-1.019 I-0.0062 J0.0005
N600 G1 X-1.9838 Y-1.0105
N605 Z0.4416 F13.123
N610 X-1.983 Y-1.01 Z0.4369
N615 X-1.981 Y-1.0081 Z0.4328
N620 X-1.9799 Y-1.0065 Z0.4314
N625 X-1.979 Y-1.0047 Z0.4301
N630 X-1.9783 Y-1.0024 Z0.4296
N635 X-1.9781 Y-1. Z0.4291
N640 G3 X-2.0219 I-0.0219 J0. F26.4
N645 X-1.9781 I0.0219 J0.
N650 X-1.9937 Y-0.9988 I-0.0079 J0.
N655 G1 X-2.0086 Y-1.0931
N660 G3 X-1.9979 Y-1.1016 I0.0078 J-0.0012
N665 G1 X-1.9643 Y-1.088
N670 G3 X-2.0402 Y-1.086 I-0.0357 J0.088
N675 G1 X-2.0074 Y-1.1014
N680 X-2.0055 Y-1.1021 Z0.4295
N685 X-2.0036 Y-1.1024 Z0.4299
N690 X-2.0019 Y-1.1023 Z0.431
N695 X-2.0002 Y-1.102 Z0.4322
N700 X-1.9981 Y-1.1012 Z0.4355
N705 X-1.9975 Y-1.1008 Z0.4395
N710 G0 Z1.0906
N715 G1 X-0.9787 Y-0.8985 F196.85
N720 G0 Z0.6969
N725 G1 Z0.5984 F13.123
N730 Z0.4731
N735 Y-0.8975 Z0.4683
N740 X-0.9793 Y-0.8949 Z0.4643
N745 X-0.9801 Y-0.893 Z0.4629
N750 X-0.9811 Y-0.8913 Z0.4616
N755 X-0.9828 Y-0.8895 Z0.4611
N760 X-0.9847 Y-0.8881 Z0.4606
N765 X-0.9894 Y-0.8851 F26.4
N770 G3 X-1.0106 I-0.0106 J-0.016
N775 G1 X-1.017 Y-0.8891
N780 G3 X-1.0296 Y-0.911 I0.0128 J-0.0219
N785 G1 Y-1.089
N790 G3 X-1.017 Y-1.1109 I0.0254 J0.
N795 G1 X-1.0106 Y-1.1149
N800 G3 X-0.9894 I0.0106 J0.016
N805 G1 X-0.983 Y-1.1109
N810 G3 X-0.9704 Y-1.089 I-0.0128 J0.0219
N815 G1 Y-0.911
N820 G3 X-0.983 Y-0.8891 I-0.0254 J0.
N825 G1 X-0.9847 Y-0.8881
N830 G2 X-1.0019 Y-0.8086 I0.029 J0.0479
N835 G3 X-0.9779 Y-0.7309 I-0.1137 J0.0777
N840 G1 Y-0.6078
N845 X-1.0221
N850 Y-0.7737
N855 G2 X-1.0628 Y-0.8322 I-0.0625 J0.
N860 G3 X-1.1009 Y-0.852 I0.0628 J-0.1678
N865 G1 Y-1.148
N870 G3 X-1.0628 Y-1.1678 I0.1009 J0.148
N875 G2 X-1.0221 Y-1.2263 I-0.0219 J-0.0585
N880 G1 Y-1.3922
N885 X-0.9779
N890 Y-1.2263
N895 G2 X-0.9372 Y-1.1678 I0.0625 J0.
N900 G3 X-0.8991 Y-1.148 I-0.0628 J0.1678
N905 G1 Y-0.852
N910 G3 X-0.9372 Y-0.8322 I-0.1009 J-0.148
N915 G2 X-0.9779 Y-0.7737 I0.0219 J0.0585
N920 G1 Y-0.7309
N925 X-0.9781 Y-0.7296
N930 X-0.9788 Y-0.7286
N935 X-0.9799 Y-0.728
N940 X-0.9811 Y-0.7278
N945 X-0.9823 Y-0.728
N950 X-0.9833 Y-0.7288
N955 X-0.9839 Y-0.7299
N960 X-0.9872 Y-0.7402
N965 X-0.9876 Y-0.8897
N970 X-0.9845 Y-0.8995
N975 X-0.9839 Y-0.9006
N980 X-0.9829 Y-0.9013
N985 X-0.9817 Y-0.9016
N990 X-0.9805 Y-0.9013
N995 X-0.9795 Y-0.9007
N1000 X-0.9789 Y-0.8997
N1005 X-0.9787 Y-0.8985
N1010 Z0.4338 F13.123
N1015 Y-0.8975 Z0.429
N1020 X-0.9793 Y-0.8949 Z0.4249
N1025 X-0.9801 Y-0.893 Z0.4236
N1030 X-0.9811 Y-0.8913 Z0.4222
N1035 X-0.9828 Y-0.8895 Z0.4217
N1040 X-0.9847 Y-0.8881 Z0.4213
N1045 X-0.9894 Y-0.8851 F26.4
N1050 G3 X-1.0106 I-0.0106 J-0.016
N1055 G1 X-1.017 Y-0.8891
N1060 G3 X-1.0296 Y-0.911 I0.0128 J-0.0219
N1065 G1 Y-1.089
N1070 G3 X-1.017 Y-1.1109 I0.0254 J0.
N1075 G1 X-1.0106 Y-1.1149
N1080 G3 X-0.9894 I0.0106 J0.016
N1085 G1 X-0.983 Y-1.1109
N1090 G3 X-0.9704 Y-1.089 I-0.0128 J0.0219
N1095 G1 Y-0.911
N1100 G3 X-0.983 Y-0.8891 I-0.0254 J0.
N1105 G1 X-0.9847 Y-0.8881
N1110 G2 X-1.0019 Y-0.8086 I0.029 J0.0479
N1115 G3 X-0.9779 Y-0.7309 I-0.1137 J0.0777
N1120 G1 Y-0.6078
N1125 X-1.0221
N1130 Y-0.7737
N1135 G2 X-1.0628 Y-0.8322 I-0.0625 J0.
N1140 G3 X-1.1009 Y-0.852 I0.0628 J-0.1678
N1145 G1 Y-1.148
N1150 G3 X-1.0628 Y-1.1678 I0.1009 J0.148
N1155 G2 X-1.0221 Y-1.2263 I-0.0219 J-0.0585
N1160 G1 Y-1.3922
N1165 X-0.9779
N1170 Y-1.2263
N1175 G2 X-0.9372 Y-1.1678 I0.0625 J0.
N1180 G3 X-0.8991 Y-1.148 I-0.0628 J0.1678
N1185 G1 Y-0.852
N1190 G3 X-0.9372 Y-0.8322 I-0.1009 J-0.148
N1195 G2 X-0.9779 Y-0.7737 I0.0219 J0.0585
N1200 G1 Y-0.7309
N1205 X-0.9781 Y-0.7285 Z0.4217
N1210 X-0.9789 Y-0.7262 Z0.4222
N1215 X-0.9799 Y-0.7245 Z0.4236
N1220 X-0.9811 Y-0.7229 Z0.4249
N1225 X-0.9832 Y-0.7211 Z0.429
N1230 X-0.984 Y-0.7206 Z0.4338
N1235 G0 Z1.0906

(Trace1)
N1240 G1 X-2.018 Y-1.6964 F196.85
N1245 G0 Z1.0906
N1250 Z0.6969
N1255 G1 Z0.4213 F13.123
N1260 X-1.5165 Z0.4803 F15.4
N1265 Z0.6969
N1270 G0 X-2.018
N1275 G1 Z0.4213 F13.123
N1280 X-2.0164 Y-1.6334 F15.4
N1285 X-2.0123 Y-1.4751 Z0.374
N1290 X-2.0041 Y-1.1584
N1295 X-2. Y-1. Z0.4213
N1300 Z0.6969
N1305 X-2.018 Y-1.6964 F196.85
N1310 Z0.4213 F13.123
N1315 X-1.5165 Z0.4803 F15.4
N1320 Z0.6969
N1325 G0 X-2.018
N1330 G1 Z0.4213 F13.123
N1335 X-2.0164 Y-1.6334 F15.4
N1340 X-2.0123 Y-1.4751 Z0.374
N1345 X-2.0041 Y-1.1584
N1350 X-2. Y-1. Z0.4213
N1355 Z0.6969
N1360 G0 Z1.0906
N1365 M9
N1370 M5
N1375 G53 G0 Z0.

(2D Contour1)
N1380 T5 M6
N1385 S4500 M3
N1390 G17 G90
N1395 G54
N1400 M8
N1405 G1 X-0.9234 Y-0.9384 F196.85
N1410 G0 G43 Z1.0906 H5
N1415 T10
N1420 G0 Z0.6969
N1425 G1 Z0.5394 F13.123
N1430 Z0.4541
N1435 G18 G2 X-0.8984 Z0.4291 I0.025 K0. F25.
N1440 G1 X-0.8734
N1445 G17 G3 X-0.8484 Y-0.9134 I0. J0.025
N1450 G1 Y-0.8272 F0.984
N1455 G3 X-0.9195 Y-0.7847 I-0.1516 J-0.1728
N1460 G2 X-0.9272 Y-0.7737 I0.0041 J0.0111
N1465 G1 Y-0.571
N1470 X-0.9411 Y-0.5571
N1475 X-1.0589
N1480 X-1.0728 Y-0.571
N1485 Y-0.7737
N1490 G2 X-1.0805 Y-0.7847 I-0.0118 J0.
N1495 G3 X-1.1516 Y-0.8272 I0.0805 J-0.2153
N1500 G1 Y-1.1728
N1505 G3 X-1.0805 Y-1.2153 I0.1516 J0.1728
N1510 G2 X-1.0728 Y-1.2263 I-0.0041 J-0.0111
N1515 G1 Y-1.429
N1520 X-1.0589 Y-1.4429
N1525 X-0.9411
N1530 X-0.9272 Y-1.429
N1535 Y-1.2263
N1540 G2 X-0.9195 Y-1.2153 I0.0118 J0.
N1545 G3 X-0.8484 Y-1.1728 I-0.0805 J0.2153
N1550 G1 Y-0.9134
N1555 Y-0.8272
N1560 G3 X-0.9195 Y-0.7847 I-0.1516 J-0.1728
N1565 G2 X-0.9272 Y-0.7737 I0.0041 J0.0111
N1570 G1 Y-0.571
N1575 X-0.9411 Y-0.5571
N1580 X-1.0589
N1585 X-1.0728 Y-0.571
N1590 Y-0.7737
N1595 G2 X-1.0805 Y-0.7847 I-0.0118 J0.
N1600 G3 X-1.1516 Y-0.8272 I0.0805 J-0.2153
N1605 G1 Y-1.1728
N1610 G3 X-1.0805 Y-1.2153 I0.1516 J0.1728
N1615 G2 X-1.0728 Y-1.2263 I-0.0041 J-0.0111
N1620 G1 Y-1.429
N1625 X-1.0589 Y-1.4429
N1630 X-0.9411
N1635 X-0.9272 Y-1.429
N1640 Y-1.2263
N1645 G2 X-0.9195 Y-1.2153 I0.0118 J0.
N1650 G3 X-0.8484 Y-1.1728 I-0.0805 J0.2153
N1655 G1 Y-0.9134
N1660 G3 X-0.8734 Y-0.8884 I-0.025 J0. F25.
N1665 G1 X-0.8984
N1670 G18 G3 X-0.9234 Z0.4541 I0. K0.025
N1675 G0 Z1.0906
N1680 M9
N1685 M5
N1690 G53 G0 Z0.

(2D Pocket2)
N1695 T10 M6
N1700 S6000 M3
N1705 G17 G90
N1710 G54
N1715 M8
N1720 G1 X-0.9927 Y-0.9187 F196.85
N1725 G0 G43 Z1.0906 H10
N1730 T1
N1735 G0 Z0.6969
N1740 G1 Z0.5984 F13.123
N1745 Z0.4275
N1750 X-0.992 Y-0.9182 Z0.4244
N1755 X-0.9912 Y-0.9174 Z0.4232
N1760 X-0.9906 Y-0.9164 Z0.4221
N1765 X-0.99 Y-0.915 Z0.4217
N1770 X-0.9898 Y-0.9134 Z0.4213
N1775 Y-0.9129 F13.2
N1780 X-0.9901 Y-0.9106
N1785 X-0.991 Y-0.9083
N1790 X-0.9925 Y-0.9064
N1795 X-0.9943 Y-0.905
N1800 X-0.9952 Y-0.9045
N1805 X-0.997 Y-0.9036
N1810 X-0.999 Y-0.9032
N1815 X-1.001
N1820 X-1.003 Y-0.9036
N1825 X-1.0048 Y-0.9045
N1830 X-1.0057 Y-0.905
N1835 X-1.0075 Y-0.9064
N1840 X-1.009 Y-0.9083
N1845 X-1.0099 Y-0.9106
N1850 X-1.0102 Y-0.9129
N1855 Y-1.0871
N1860 X-1.0099 Y-1.0894
N1865 X-1.009 Y-1.0917
N1870 X-1.0075 Y-1.0936
N1875 X-1.0057 Y-1.095
N1880 X-1.0048 Y-1.0955
N1885 X-1.003 Y-1.0964
N1890 X-1.001 Y-1.0968
N1895 X-0.999
N1900 X-0.997 Y-1.0964
N1905 X-0.9952 Y-1.0955
N1910 X-0.9943 Y-1.095
N1915 X-0.9925 Y-1.0936
N1920 X-0.991 Y-1.0917
N1925 X-0.9901 Y-1.0894
N1930 X-0.9898 Y-1.0871
N1935 Y-0.9134
N1940 G2 X-0.9829 Y-0.9013 I0.0142 J0.
N1945 G3 Y-0.8873 I-0.0042 J0.007
N1950 G1 X-0.9893 Y-0.8832
N1955 G3 X-1.0107 I-0.0107 J-0.0159
N1960 G1 X-1.0184 Y-0.8881
N1965 G3 X-1.0312 Y-0.9102 I0.0128 J-0.0222
N1970 G1 Y-1.0898
N1975 G3 X-1.0184 Y-1.1119 I0.0256 J0.
N1980 G1 X-1.0107 Y-1.1168
N1985 G3 X-0.9893 I0.0107 J0.0159
N1990 G1 X-0.9816 Y-1.1119
N1995 G3 X-0.9688 Y-1.0898 I-0.0128 J0.0222
N2000 G1 Y-0.9102
N2005 G3 X-0.9816 Y-0.8881 I-0.0256 J0.
N2010 G1 X-0.9829 Y-0.8873
N2015 G2 X-0.9929 Y-0.8606 I0.0116 J0.0195
N2020 G3 X-1.0168 Y-0.8452 I-0.0139 J0.0047
N2025 G2 X-1.0266 Y-0.8533 I-0.0663 J0.0704
N2030 X-1.0507 Y-0.8663 I-0.0613 J0.0851
N2035 G3 X-1.0648 Y-0.8866 I0.0077 J-0.0204
N2040 G1 Y-1.1134
N2045 G3 X-1.0507 Y-1.1337 I0.0218 J0.
N2050 G2 X-1.0266 Y-1.1467 I-0.0372 J-0.098
N2055 X-1.0069 Y-1.1657 I-0.0565 J-0.0784
N2060 G3 X-0.9931 I0.0069 J0.0053
N2065 G2 X-0.9734 Y-1.1467 I0.0763 J-0.0594
N2070 X-0.9493 Y-1.1337 I0.0613 J-0.0851
N2075 G3 X-0.9352 Y-1.1134 I-0.0077 J0.0204
N2080 G1 Y-0.8866
N2085 G3 X-0.9493 Y-0.8663 I-0.0218 J0.
N2090 G2 X-0.9734 Y-0.8533 I0.0372 J0.098
N2095 X-0.9931 Y-0.8343 I0.0565 J0.0784
N2100 G3 X-1.0069 I-0.0069 J-0.0053
N2105 G2 X-1.0168 Y-0.8452 I-0.0763 J0.0594
N2110 X-1.0497 Y-0.8467 I-0.0173 J0.0184
N2115 G3 X-1.0824 Y-0.8438 I-0.0187 J-0.0238
N2120 G1 X-1.0826 Y-0.8439
N2125 G3 X-1.0984 Y-0.8701 I0.0139 J-0.0263
N2130 G1 Y-1.1299
N2135 G3 X-1.0826 Y-1.1561 I0.0297 J0.
N2140 X-1.0719 Y-1.1609 I0.0423 J0.0801
N2145 G1 X-1.0616 Y-1.1648
N2150 G2 X-1.0301 Y-1.1887 I-0.0241 J-0.0644
N2155 X-1.0179 Y-1.2263 I-0.0516 J-0.0376
N2160 G1 X-1.0196 Y-1.3771
N2165 G3 X-1.0071 Y-1.3897 I0.0126 J0.
N2170 G1 X-0.9929
N2175 G3 X-0.9804 Y-1.3771 I0. J0.0126
N2180 G1 X-0.9821 Y-1.2263
N2185 G2 X-0.9699 Y-1.1887 I0.0639 J0.
N2190 X-0.9384 Y-1.1648 I0.0556 J-0.0405
N2195 G1 X-0.9281 Y-1.1609
N2200 G3 X-0.9174 Y-1.1561 I-0.0317 J0.0849
N2205 X-0.9016 Y-1.1299 I-0.0139 J0.0263
N2210 G1 Y-0.8701
N2215 G3 X-0.9174 Y-0.8439 I-0.0297 J0.
N2220 X-0.9281 Y-0.8391 I-0.0423 J-0.0801
N2225 G1 X-0.9384 Y-0.8352
N2230 G2 X-0.9699 Y-0.8113 I0.0241 J0.0644
N2235 X-0.9821 Y-0.7737 I0.0516 J0.0376
N2240 G1 X-0.9804 Y-0.6229
N2245 G3 X-0.9929 Y-0.6103 I-0.0126 J0.
N2250 G1 X-1.0071
N2255 G3 X-1.0196 Y-0.6229 I0. J-0.0126
N2260 G1 X-1.0179 Y-0.7737
N2265 G2 X-1.0301 Y-0.8113 I-0.0639 J0.
N2270 X-1.0616 Y-0.8352 I-0.0556 J0.0405
N2275 G1 X-1.0719 Y-0.8391
N2280 G3 X-1.0824 Y-0.8438 I0.0317 J-0.0849
N2285 G2 X-1.1076 Y-0.838 I-0.0092 J0.0176
N2290 G3 X-1.1321 Y-0.8461 I-0.0109 J-0.0081
N2295 G1 Y-1.1637
N2300 G3 X-1.0737 Y-1.1971 I0.1321 J0.1637
N2305 G2 X-1.0534 Y-1.2263 I-0.0109 J-0.0293
N2310 G1 Y-1.4209
N2315 X-1.0509 Y-1.4235
N2320 X-0.9491
N2325 X-0.9466 Y-1.4209
N2330 Y-1.2263
N2335 G2 X-0.9263 Y-1.1971 I0.0313 J0.
N2340 G3 X-0.8679 Y-1.1637 I-0.0737 J0.1971
N2345 G1 Y-0.8363
N2350 G3 X-0.9263 Y-0.8029 I-0.1321 J-0.1637
N2355 G2 X-0.9466 Y-0.7737 I0.0109 J0.0293
N2360 G1 Y-0.5791
N2365 X-0.9491 Y-0.5765
N2370 X-1.0509
N2375 X-1.0534 Y-0.5791
N2380 Y-0.7737
N2385 G2 X-1.0737 Y-0.8029 I-0.0312 J0.
N2390 G3 X-1.1321 Y-0.8363 I0.0737 J-0.1971
N2395 G1 Y-0.8461
N2400 X-1.1319 Y-0.8477 Z0.4217
N2405 X-1.1313 Y-0.8491 Z0.4221
N2410 X-1.1306 Y-0.85 Z0.4232
N2415 X-1.1298 Y-0.8508 Z0.4244
N2420 X-1.1291 Y-0.8513 Z0.4275
N2425 G0 Z1.0906

N2430 M5
N2435 M9
N2440 G53 G0 Z0.
N2445 X-1.5
N2450 G53 G0 Y0.
M98 P9004
N2455 M30

%
