%
O10007 (Automatic CAM Program)
(Using high feed G1 F196.85 instead of G0.)
(T1 D=0.125 CR=0. - ZMIN=0.374 - flat end mill)
(T5 D=0.25 CR=0. TAPER=90deg - ZMIN=0.4291 - spot drill)
(T10 D=0.0625 CR=0. - ZMIN=0.4213 - flat end mill)
N10 G90 G17
N15 G20
N20 G53 G0 Z0.

(2D Pocket4)
N25 T1 M6
N30 S6000 M3
N35 G17 G90
N40 G54
N45 M8
N50 G1 X-1.5015 Y-1.4361 F196.85
N55 G0 G43 Z1.0906 H1
N60 T5
N65 G0 Z0.6969
N70 G1 Z0.5984 F13.123
N75 Z0.4803
N80 X-1.5025 Y-1.4952 F26.4
N85 X-1.5053 Y-1.6553
N90 G2 X-1.5678 Y-1.7167 I-0.0625 J0.0011
N95 G1 X-2.0117
N100 Z0.4928
N105 G0 Z0.6969
N110 Y-1.7177
N115 G1 Z0.5984 F13.123
N120 Z0.4803
N125 X-1.5059 F26.4
N130 X-1.5056 Y-1.7176
N135 X-1.5054 Y-1.7172
N140 X-1.5015 Y-1.493
N145 X-1.5005 Y-1.4357
N150 Z0.4928
N155 G0 Z1.0906
N160 G1 X-2.4995 Y-0.6629 F196.85
N165 G0 Z0.6969
N170 G1 Z0.5984 F13.123
N175 Z0.4803
N180 Y-0.6094 F26.4
N185 Y-0.573
N190 G2 X-2.437 Y-0.5105 I0.0625 J0.
N195 G1 X-1.624
N200 X-1.4995
N205 Y-0.51
N210 X-1.5 Y-0.5095
N215 X-2.5
N220 X-2.5003 Y-0.5097
N225 X-2.5005 Y-0.51
N230 Y-0.573
N235 Y-0.6626
N240 Z0.4928
N245 G0 Z1.0906
N250 G1 X-2.5043 Y-1.1058 F196.85
N255 G0 Z0.6969
N260 G1 Z0.525 F13.123
N265 Z0.4534 F26.4
N270 X-2.5042 Y-1.1061 Z0.4507
N275 X-2.5039 Y-1.107 Z0.448
N280 X-2.5034 Y-1.1084 Z0.4457
N285 X-2.5028 Y-1.1103 Z0.4437
N290 X-2.5021 Y-1.1126 Z0.4422
N295 X-2.5013 Y-1.1151 Z0.4413
N300 X-2.5004 Y-1.1177 Z0.4409
N305 X-2.5 Y-1.118
N310 G3 Y-0.882 I0. J0.118
N315 Y-1.118 I0. J-0.118
N320 G2 X-2.4923 Y-1.1276 I0. J-0.0079
N325 G1 X-2.5044 Y-1.1812
N330 G3 X-2.4966 Y-1.1908 I0.0077 J-0.0017
N335 X-2.3653 Y-0.8648 I-0.0034 J0.1908
N340 X-2.4266 Y-0.8248 I-0.1267 J-0.1272
N345 X-2.4985 Y-0.8109 I-0.0735 J-0.1879
N350 X-2.572 Y-0.8242 I-0.0017 J-0.2012
N355 X-2.6347 Y-0.8648 I0.0643 J-0.1681
N360 X-2.5063 Y-1.1907 I0.1347 J-0.1352
N365 G2 X-2.4987 Y-1.1995 I-0.0003 J-0.0079
N370 G1 X-2.5052 Y-1.2531
N375 G3 X-2.4973 Y-1.2619 I0.0078 J-0.0009
N380 X-2.3152 Y-0.8144 I-0.0027 J0.2619
N385 X-2.3992 Y-0.7592 I-0.1767 J-0.1775
N390 X-2.4979 Y-0.7399 I-0.1009 J-0.2532
N395 X-2.5988 Y-0.7584 I-0.0022 J-0.2721
N400 X-2.6848 Y-0.8144 I0.091 J-0.2338
N405 X-2.5071 Y-1.2618 I0.1848 J-0.1856
N410 G2 X-2.4995 Y-1.2707 I-0.0002 J-0.0079
N415 G1 X-2.5071 Y-1.3279
N420 G3 X-2.4981 Y-1.3367 I0.0078 J-0.001
N425 G1 X-2.4497 Y-1.3293
N430 G3 X-2.5557 Y-1.3285 I-0.0503 J0.3293
N435 G1 X-2.5077 Y-1.3366
N440 X-2.5054 Y-1.3367 Z0.4414
N445 X-2.503 Y-1.3364 Z0.4419
N450 X-2.5011 Y-1.3357 Z0.4433
N455 X-2.4993 Y-1.3347 Z0.4446
N460 X-2.4972 Y-1.333 Z0.4487
N465 X-2.4966 Y-1.3323 Z0.4534
N470 G0 Z1.0906
N475 G1 X-2.4838 Y-1.0105 F196.85
N480 G0 Z0.6969
N485 G1 Z0.5984 F13.123
N490 Z0.4771
N495 X-2.483 Y-1.01 Z0.4723
N500 X-2.481 Y-1.0081 Z0.4682
N505 X-2.4799 Y-1.0065 Z0.4669
N510 X-2.479 Y-1.0047 Z0.4655
N515 X-2.4783 Y-1.0024 Z0.465
N520 X-2.4781 Y-1. Z0.4646
N525 G3 X-2.522 I-0.0219 J0. F26.4
N530 X-2.4781 I0.0219 J0.
N535 X-2.4937 Y-0.9989 I-0.0079 J0.
N540 G1 X-2.507 Y-1.0933
N545 G3 X-2.4961 Y-1.1016 I0.0078 J-0.0011
N550 G1 X-2.4627 Y-1.0874
N555 G3 X-2.5387 Y-1.0867 I-0.0373 J0.0874
N560 G1 X-2.5056 Y-1.1015
N565 X-2.5044 Y-1.1018
N570 X-2.5033 Y-1.1016
N575 X-2.5023 Y-1.1009
N580 X-2.5016 Y-1.1
N585 X-2.5014 Y-1.0988
N590 Y-1.0845
N595 X-2.4972 Y-1.014
N600 G3 X-2.5006 Y-1.0192 I-0.0062 J0.0004
N605 G1 X-2.4838 Y-1.0105
N610 Z0.4416 F13.123
N615 X-2.483 Y-1.01 Z0.4369
N620 X-2.481 Y-1.0081 Z0.4328
N625 X-2.4799 Y-1.0065 Z0.4314
N630 X-2.479 Y-1.0047 Z0.4301
N635 X-2.4783 Y-1.0024 Z0.4296
N640 X-2.4781 Y-1. Z0.4291
N645 G3 X-2.522 I-0.0219 J0. F26.4
N650 X-2.4781 I0.0219 J0.
N655 X-2.4937 Y-0.9989 I-0.0079 J0.
N660 G1 X-2.507 Y-1.0933
N665 G3 X-2.4961 Y-1.1016 I0.0078 J-0.0011
N670 G1 X-2.4627 Y-1.0874
N675 G3 X-2.5387 Y-1.0867 I-0.0373 J0.0874
N680 G1 X-2.5056 Y-1.1015
N685 X-2.5037 Y-1.1021 Z0.4295
N690 X-2.5017 Y-1.1024 Z0.4299
N695 X-2.5001 Y-1.1023 Z0.431
N700 X-2.4984 Y-1.102 Z0.4322
N705 X-2.4964 Y-1.1011 Z0.4355
N710 X-2.4957 Y-1.1007 Z0.4395
N715 G0 Z1.0906
N720 G1 X-1.4762 Y-1.0971 F196.85
N725 G0 Z0.6969
N730 G1 Z0.5984 F13.123
N735 Z0.4731
N740 X-1.4754 Y-1.0966 Z0.4683
N745 X-1.4734 Y-1.0947 Z0.4643
N750 X-1.4722 Y-1.0931 Z0.4629
N755 X-1.4713 Y-1.0912 Z0.4616
N760 X-1.4706 Y-1.089 Z0.4611
N765 X-1.4704 Y-1.0866 Z0.4606
N770 Y-0.911 F26.4
N775 G3 X-1.483 Y-0.8891 I-0.0254 J0.
N780 G1 X-1.4894 Y-0.8851
N785 G3 X-1.5106 I-0.0106 J-0.016
N790 G1 X-1.517 Y-0.8891
N795 G3 X-1.5296 Y-0.911 I0.0128 J-0.0219
N800 G1 Y-1.089
N805 G3 X-1.517 Y-1.1109 I0.0254 J0.
N810 G1 X-1.5106 Y-1.1149
N815 G3 X-1.4894 I0.0106 J0.016
N820 G1 X-1.483 Y-1.1109
N825 G3 X-1.4704 Y-1.089 I-0.0128 J0.0219
N830 G1 Y-1.0866
N835 G2 X-1.4348 Y-1.0331 I0.0579 J0.
N840 G3 X-1.3991 Y-0.9796 I-0.0223 J0.0535
N845 G1 Y-0.852
N850 G3 X-1.4372 Y-0.8322 I-0.1009 J-0.148
N855 G2 X-1.4779 Y-0.7737 I0.0219 J0.0585
N860 G1 Y-0.6078
N865 X-1.5221
N870 Y-0.7737
N875 G2 X-1.5628 Y-0.8322 I-0.0625 J0.
N880 G3 X-1.6009 Y-0.852 I0.0628 J-0.1678
N885 G1 Y-1.148
N890 G3 X-1.5628 Y-1.1678 I0.1009 J0.148
N895 G2 X-1.5221 Y-1.2263 I-0.0219 J-0.0585
N900 G1 Y-1.3922
N905 X-1.4779
N910 Y-1.2263
N915 G2 X-1.4372 Y-1.1678 I0.0625 J0.
N920 G3 X-1.3991 Y-1.148 I-0.0628 J0.1678
N925 G1 Y-0.9796
N930 G3 X-1.4098 Y-0.9753 I-0.0063 J0.
N935 G1 X-1.4344 Y-1.0007
N940 X-1.4768 Y-1.0791
N945 X-1.4814 Y-1.0931
N950 X-1.4815 Y-1.0945
N955 X-1.4811 Y-1.0959
N960 X-1.4802 Y-1.0969
N965 X-1.4789 Y-1.0975
N970 X-1.4775 Y-1.0976
N975 X-1.4762 Y-1.0971
N980 Z0.4338 F13.123
N985 X-1.4754 Y-1.0966 Z0.429
N990 X-1.4734 Y-1.0947 Z0.4249
N995 X-1.4722 Y-1.0931 Z0.4236
N1000 X-1.4713 Y-1.0912 Z0.4222
N1005 X-1.4706 Y-1.089 Z0.4217
N1010 X-1.4704 Y-1.0866 Z0.4213
N1015 Y-0.911 F26.4
N1020 G3 X-1.483 Y-0.8891 I-0.0254 J0.
N1025 G1 X-1.4894 Y-0.8851
N1030 G3 X-1.5106 I-0.0106 J-0.016
N1035 G1 X-1.517 Y-0.8891
N1040 G3 X-1.5296 Y-0.911 I0.0128 J-0.0219
N1045 G1 Y-1.089
N1050 G3 X-1.517 Y-1.1109 I0.0254 J0.
N1055 G1 X-1.5106 Y-1.1149
N1060 G3 X-1.4894 I0.0106 J0.016
N1065 G1 X-1.483 Y-1.1109
N1070 G3 X-1.4704 Y-1.089 I-0.0128 J0.0219
N1075 G1 Y-1.0866
N1080 G2 X-1.4348 Y-1.0331 I0.0579 J0.
N1085 G3 X-1.3991 Y-0.9796 I-0.0223 J0.0535
N1090 G1 Y-0.852
N1095 G3 X-1.4372 Y-0.8322 I-0.1009 J-0.148
N1100 G2 X-1.4779 Y-0.7737 I0.0219 J0.0585
N1105 G1 Y-0.6078
N1110 X-1.5221
N1115 Y-0.7737
N1120 G2 X-1.5628 Y-0.8322 I-0.0625 J0.
N1125 G3 X-1.6009 Y-0.852 I0.0628 J-0.1678
N1130 G1 Y-1.148
N1135 G3 X-1.5628 Y-1.1678 I0.1009 J0.148
N1140 G2 X-1.5221 Y-1.2263 I-0.0219 J-0.0585
N1145 G1 Y-1.3922
N1150 X-1.4779
N1155 Y-1.2263
N1160 G2 X-1.4372 Y-1.1678 I0.0625 J0.
N1165 G3 X-1.3991 Y-1.148 I-0.0628 J0.1678
N1170 G1 Y-0.9796
N1175 X-1.3994 Y-0.9773 Z0.4217
N1180 X-1.4002 Y-0.975 Z0.4222
N1185 X-1.4011 Y-0.9732 Z0.4236
N1190 X-1.4024 Y-0.9716 Z0.4249
N1195 X-1.4044 Y-0.9699 Z0.429
N1200 X-1.4052 Y-0.9694 Z0.4338
N1205 G0 Z1.0906

(Trace2)
N1210 G1 X-2.5059 Y-1.7172 F196.85
N1215 G0 Z1.0906
N1220 Z0.6969
N1225 G1 Z0.4213 F13.123
N1230 X-2.0059 Z0.4803 F15.4
N1235 Z0.6969
N1240 G0 X-2.5059
N1245 G1 Z0.4213 F13.123
N1250 X-2.5054 Y-1.6542 F15.4
N1255 X-2.504 Y-1.4907 Z0.374
N1260 X-2.5013 Y-1.1636
N1265 X-2.5 Y-1. Z0.4213
N1270 Z0.6969
N1275 X-2.5059 Y-1.7172 F196.85
N1280 Z0.4213 F13.123
N1285 X-2.0059 Z0.4803 F15.4
N1290 Z0.6969
N1295 G0 X-2.5059
N1300 G1 Z0.4213 F13.123
N1305 X-2.5054 Y-1.6542 F15.4
N1310 X-2.504 Y-1.4907 Z0.374
N1315 X-2.5013 Y-1.1636
N1320 X-2.5 Y-1. Z0.4213
N1325 Z0.6969
N1330 G0 Z1.0906
N1335 M9
N1340 M5
N1345 G53 G0 Z0.

(2D Contour2)
N1350 T5 M6
N1355 S4500 M3
N1360 G17 G90
N1365 G54
N1370 M8
N1375 G1 X-1.4234 Y-1.1116 F196.85
N1380 G0 G43 Z1.0906 H5
N1385 T10
N1390 G0 Z0.6969
N1395 G1 Z0.5394 F13.123
N1400 Z0.4541
N1405 G18 G2 X-1.3984 Z0.4291 I0.025 K0. F25.
N1410 G1 X-1.3734
N1415 G17 G3 X-1.3484 Y-1.0866 I0. J0.025
N1420 G1 Y-0.8272 F0.984
N1425 G3 X-1.4195 Y-0.7847 I-0.1516 J-0.1728
N1430 G2 X-1.4272 Y-0.7737 I0.0041 J0.0111
N1435 G1 Y-0.571
N1440 X-1.4411 Y-0.5571
N1445 X-1.5589
N1450 X-1.5728 Y-0.571
N1455 Y-0.7737
N1460 G2 X-1.5805 Y-0.7847 I-0.0118 J0.
N1465 G3 X-1.6516 Y-0.8272 I0.0805 J-0.2153
N1470 G1 Y-1.1728
N1475 G3 X-1.5805 Y-1.2153 I0.1516 J0.1728
N1480 G2 X-1.5728 Y-1.2263 I-0.0041 J-0.0111
N1485 G1 Y-1.429
N1490 X-1.5589 Y-1.4429
N1495 X-1.4411
N1500 X-1.4272 Y-1.429
N1505 Y-1.2263
N1510 G2 X-1.4195 Y-1.2153 I0.0118 J0.
N1515 G3 X-1.3484 Y-1.1728 I-0.0805 J0.2153
N1520 G1 Y-0.8272
N1525 G3 X-1.4195 Y-0.7847 I-0.1516 J-0.1728
N1530 G2 X-1.4272 Y-0.7737 I0.0041 J0.0111
N1535 G1 Y-0.571
N1540 X-1.4411 Y-0.5571
N1545 X-1.5589
N1550 X-1.5728 Y-0.571
N1555 Y-0.7737
N1560 G2 X-1.5805 Y-0.7847 I-0.0118 J0.
N1565 G3 X-1.6516 Y-0.8272 I0.0805 J-0.2153
N1570 G1 Y-1.1728
N1575 G3 X-1.5805 Y-1.2153 I0.1516 J0.1728
N1580 G2 X-1.5728 Y-1.2263 I-0.0041 J-0.0111
N1585 G1 Y-1.429
N1590 X-1.5589 Y-1.4429
N1595 X-1.4411
N1600 X-1.4272 Y-1.429
N1605 Y-1.2263
N1610 G2 X-1.4195 Y-1.2153 I0.0118 J0.
N1615 G3 X-1.3484 Y-1.1728 I-0.0805 J0.2153
N1620 G1 Y-1.0866
N1625 G3 X-1.3734 Y-1.0616 I-0.025 J0. F25.
N1630 G1 X-1.3984
N1635 G18 G3 X-1.4234 Z0.4541 I0. K0.025
N1640 G0 Z1.0906
N1645 M9
N1650 M5
N1655 G53 G0 Z0.

(2D Pocket5)
N1660 T10 M6
N1665 S6000 M3
N1670 G17 G90
N1675 G54
N1680 M8
N1685 G1 X-1.4927 Y-0.9187 F196.85
N1690 G0 G43 Z1.0906 H10
N1695 T1
N1700 G0 Z0.6969
N1705 G1 Z0.5984 F13.123
N1710 Z0.4275
N1715 X-1.492 Y-0.9182 Z0.4244
N1720 X-1.4912 Y-0.9174 Z0.4232
N1725 X-1.4906 Y-0.9164 Z0.4221
N1730 X-1.49 Y-0.915 Z0.4217
N1735 X-1.4898 Y-0.9134 Z0.4213
N1740 Y-0.9129 F13.2
N1745 X-1.4901 Y-0.9106
N1750 X-1.491 Y-0.9083
N1755 X-1.4925 Y-0.9064
N1760 X-1.4943 Y-0.905
N1765 X-1.4952 Y-0.9045
N1770 X-1.497 Y-0.9036
N1775 X-1.499 Y-0.9032
N1780 X-1.501
N1785 X-1.503 Y-0.9036
N1790 X-1.5048 Y-0.9045
N1795 X-1.5057 Y-0.905
N1800 X-1.5075 Y-0.9064
N1805 X-1.509 Y-0.9083
N1810 X-1.5099 Y-0.9106
N1815 X-1.5102 Y-0.9129
N1820 Y-1.0871
N1825 X-1.5099 Y-1.0894
N1830 X-1.509 Y-1.0917
N1835 X-1.5075 Y-1.0936
N1840 X-1.5057 Y-1.095
N1845 X-1.5048 Y-1.0955
N1850 X-1.503 Y-1.0964
N1855 X-1.501 Y-1.0968
N1860 X-1.499
N1865 X-1.497 Y-1.0964
N1870 X-1.4952 Y-1.0955
N1875 X-1.4943 Y-1.095
N1880 X-1.4925 Y-1.0936
N1885 X-1.491 Y-1.0917
N1890 X-1.4901 Y-1.0894
N1895 X-1.4898 Y-1.0871
N1900 Y-0.9134
N1905 G2 X-1.4829 Y-0.9013 I0.0142 J0.
N1910 G3 Y-0.8873 I-0.0042 J0.007
N1915 G1 X-1.4893 Y-0.8832
N1920 G3 X-1.5107 I-0.0107 J-0.0159
N1925 G1 X-1.5184 Y-0.8881
N1930 G3 X-1.5312 Y-0.9102 I0.0128 J-0.0222
N1935 G1 Y-1.0898
N1940 G3 X-1.5184 Y-1.1119 I0.0256 J0.
N1945 G1 X-1.5107 Y-1.1168
N1950 G3 X-1.4893 I0.0107 J0.0159
N1955 G1 X-1.4816 Y-1.1119
N1960 G3 X-1.4688 Y-1.0898 I-0.0128 J0.0222
N1965 G1 Y-0.9102
N1970 G3 X-1.4816 Y-0.8881 I-0.0256 J0.
N1975 G1 X-1.4829 Y-0.8873
N1980 G2 X-1.4929 Y-0.8606 I0.0116 J0.0195
N1985 G3 X-1.5168 Y-0.8452 I-0.0139 J0.0047
N1990 G2 X-1.5266 Y-0.8533 I-0.0663 J0.0704
N1995 X-1.5507 Y-0.8663 I-0.0613 J0.0851
N2000 G3 X-1.5648 Y-0.8866 I0.0077 J-0.0204
N2005 G1 Y-1.1134
N2010 G3 X-1.5507 Y-1.1337 I0.0218 J0.
N2015 G2 X-1.5266 Y-1.1467 I-0.0372 J-0.098
N2020 X-1.5069 Y-1.1657 I-0.0565 J-0.0784
N2025 G3 X-1.4931 I0.0069 J0.0053
N2030 G2 X-1.4734 Y-1.1467 I0.0763 J-0.0594
N2035 X-1.4493 Y-1.1337 I0.0613 J-0.0851
N2040 G3 X-1.4352 Y-1.1134 I-0.0077 J0.0204
N2045 G1 Y-0.8866
N2050 G3 X-1.4493 Y-0.8663 I-0.0218 J0.
N2055 G2 X-1.4734 Y-0.8533 I0.0372 J0.098
N2060 X-1.4931 Y-0.8343 I0.0565 J0.0784
N2065 G3 X-1.5069 I-0.0069 J-0.0053
N2070 G2 X-1.5168 Y-0.8452 I-0.0763 J0.0594
N2075 X-1.5497 Y-0.8467 I-0.0173 J0.0184
N2080 G3 X-1.5824 Y-0.8438 I-0.0187 J-0.0238
N2085 G1 X-1.5826 Y-0.8439
N2090 G3 X-1.5984 Y-0.8701 I0.0139 J-0.0263
N2095 G1 Y-1.1299
N2100 G3 X-1.5826 Y-1.1561 I0.0297 J0.
N2105 X-1.5719 Y-1.1609 I0.0423 J0.0801
N2110 G1 X-1.5616 Y-1.1648
N2115 G2 X-1.5301 Y-1.1887 I-0.0241 J-0.0644
N2120 X-1.5179 Y-1.2263 I-0.0516 J-0.0376
N2125 G1 X-1.5196 Y-1.3771
N2130 G3 X-1.5071 Y-1.3897 I0.0126 J0.
N2135 G1 X-1.4929
N2140 G3 X-1.4804 Y-1.3771 I0. J0.0126
N2145 G1 X-1.4821 Y-1.2263
N2150 G2 X-1.4699 Y-1.1887 I0.0639 J0.
N2155 X-1.4384 Y-1.1648 I0.0556 J-0.0405
N2160 G1 X-1.4281 Y-1.1609
N2165 G3 X-1.4174 Y-1.1561 I-0.0317 J0.0849
N2170 X-1.4016 Y-1.1299 I-0.0139 J0.0263
N2175 G1 Y-0.8701
N2180 G3 X-1.4174 Y-0.8439 I-0.0297 J0.
N2185 X-1.4281 Y-0.8391 I-0.0423 J-0.0801
N2190 G1 X-1.4384 Y-0.8352
N2195 G2 X-1.4699 Y-0.8113 I0.0241 J0.0644
N2200 X-1.4821 Y-0.7737 I0.0516 J0.0376
N2205 G1 X-1.4804 Y-0.6229
N2210 G3 X-1.4929 Y-0.6103 I-0.0126 J0.
N2215 G1 X-1.5071
N2220 G3 X-1.5196 Y-0.6229 I0. J-0.0126
N2225 G1 X-1.5179 Y-0.7737
N2230 G2 X-1.5301 Y-0.8113 I-0.0639 J0.
N2235 X-1.5616 Y-0.8352 I-0.0556 J0.0405
N2240 G1 X-1.5719 Y-0.8391
N2245 G3 X-1.5824 Y-0.8438 I0.0317 J-0.0849
N2250 G2 X-1.6076 Y-0.838 I-0.0092 J0.0176
N2255 G3 X-1.6321 Y-0.8461 I-0.0109 J-0.0081
N2260 G1 Y-1.1637
N2265 G3 X-1.5737 Y-1.1971 I0.1321 J0.1637
N2270 G2 X-1.5534 Y-1.2263 I-0.0109 J-0.0293
N2275 G1 Y-1.4209
N2280 X-1.5509 Y-1.4235
N2285 X-1.4491
N2290 X-1.4466 Y-1.4209
N2295 Y-1.2263
N2300 G2 X-1.4263 Y-1.1971 I0.0313 J0.
N2305 G3 X-1.3679 Y-1.1637 I-0.0737 J0.1971
N2310 G1 Y-0.8363
N2315 G3 X-1.4263 Y-0.8029 I-0.1321 J-0.1637
N2320 G2 X-1.4466 Y-0.7737 I0.0109 J0.0293
N2325 G1 Y-0.5791
N2330 X-1.4491 Y-0.5765
N2335 X-1.5509
N2340 X-1.5534 Y-0.5791
N2345 Y-0.7737
N2350 G2 X-1.5737 Y-0.8029 I-0.0313 J0.
N2355 G3 X-1.6321 Y-0.8363 I0.0737 J-0.1971
N2360 G1 Y-0.8461
N2365 X-1.6319 Y-0.8477 Z0.4217
N2370 X-1.6313 Y-0.8491 Z0.4221
N2375 X-1.6306 Y-0.85 Z0.4232
N2380 X-1.6298 Y-0.8508 Z0.4244
N2385 X-1.6291 Y-0.8513 Z0.4275
N2390 G0 Z1.0906

N2395 M5
N2400 M9
N2405 G53 G0 Z0.
N2410 X-1.5
N2415 G53 G0 Y0.
M98 P9004
N2420 M30

%
