%
O10007 (Automatic CAM Program)
#801 = 2
(Using high feed G1 F196.85 instead of G0.)
(T1 D=0.125 CR=0. - ZMIN=0.374 - flat end mill)
(T5 D=0.25 CR=0. TAPER=90deg - ZMIN=0.4291 - spot drill)
(T10 D=0.0625 CR=0. - ZMIN=0.4213 - flat end mill)
N10 G90 G17
N15 G20
N20 G53 G0 Z0.

(2D Pocket1)
N25 T1 M6
N30 S6000 M3
N35 G17 G90
N40 G54
N45 M8
N50 G1 X-1.5655 Y-0.5841 F196.85
N55 G0 G43 Z1.0906 H1
N60 T5
N65 G0 Z0.6969
N70 G1 Z0.5984 F13.123
N75 Z0.4803
N80 X-1.6075 Y-0.5602 F26.4
N85 X-2.0111 Y-0.3304
N90 X-2.0116
N95 X-2.5003 Y-0.6396
N100 X-2.5015 Y-0.6415
N105 X-2.3974 Y-0.5756
N110 X-2.043 Y-0.3514
N115 G2 X-1.9787 Y-0.35 I0.0334 J-0.0528
N120 G1 X-1.5931 Y-0.5696
N125 X-1.5658 Y-0.5851
N130 Z0.4928
N135 G0 Z1.0906
N140 G1 X-1.5015 Y-1.4361 F196.85
N145 G0 Z0.6969
N150 G1 Z0.5984 F13.123
N155 Z0.4803
N160 X-1.5025 Y-1.4952 F26.4
N165 X-1.5053 Y-1.6553
N170 G2 X-1.5678 Y-1.7167 I-0.0625 J0.0011
N175 G1 X-2.0117
N180 Z0.4928
N185 G0 Z0.6969
N190 Y-1.7177
N195 G1 Z0.5984 F13.123
N200 Z0.4803
N205 X-1.5059 F26.4
N210 X-1.5056 Y-1.7176
N215 X-1.5054 Y-1.7172
N220 X-1.5015 Y-1.493
N225 X-1.5005 Y-1.4357
N230 Z0.4928
N235 G0 Z1.0906
N240 G1 X-2.5043 Y-1.1058 F196.85
N245 G0 Z0.6969
N250 G1 Z0.525 F13.123
N255 Z0.4534 F26.4
N260 X-2.5042 Y-1.1061 Z0.4507
N265 X-2.5039 Y-1.107 Z0.448
N270 X-2.5034 Y-1.1084 Z0.4457
N275 X-2.5028 Y-1.1103 Z0.4437
N280 X-2.5021 Y-1.1126 Z0.4422
N285 X-2.5013 Y-1.1151 Z0.4413
N290 X-2.5004 Y-1.1177 Z0.4409
N295 X-2.5 Y-1.118
N300 G3 Y-0.882 I0. J0.118
N305 Y-1.118 I0. J-0.118
N310 G2 X-2.4923 Y-1.1276 I0. J-0.0079
N315 G1 X-2.5044 Y-1.1812
N320 G3 X-2.4966 Y-1.1908 I0.0077 J-0.0017
N325 X-2.3653 Y-0.8648 I-0.0034 J0.1908
N330 X-2.4266 Y-0.8248 I-0.1267 J-0.1272
N335 X-2.4985 Y-0.8109 I-0.0735 J-0.1879
N340 X-2.572 Y-0.8242 I-0.0017 J-0.2012
N345 X-2.6347 Y-0.8648 I0.0643 J-0.1681
N350 X-2.5063 Y-1.1907 I0.1347 J-0.1352
N355 G2 X-2.4987 Y-1.1995 I-0.0003 J-0.0079
N360 G1 X-2.5052 Y-1.2531
N365 G3 X-2.4973 Y-1.2619 I0.0078 J-0.0009
N370 X-2.3152 Y-0.8144 I-0.0027 J0.2619
N375 X-2.3992 Y-0.7592 I-0.1767 J-0.1775
N380 X-2.4979 Y-0.7399 I-0.1009 J-0.2532
N385 X-2.5988 Y-0.7584 I-0.0022 J-0.2721
N390 X-2.6848 Y-0.8144 I0.091 J-0.2338
N395 X-2.5071 Y-1.2618 I0.1848 J-0.1856
N400 G2 X-2.4995 Y-1.2707 I-0.0002 J-0.0079
N405 G1 X-2.5071 Y-1.3279
N410 G3 X-2.4981 Y-1.3367 I0.0078 J-0.001
N415 G1 X-2.4497 Y-1.3293
N420 G3 X-2.5557 Y-1.3285 I-0.0503 J0.3293
N425 G1 X-2.5077 Y-1.3366
N430 X-2.5054 Y-1.3367 Z0.4414
N435 X-2.503 Y-1.3364 Z0.4419
N440 X-2.5011 Y-1.3357 Z0.4433
N445 X-2.4993 Y-1.3347 Z0.4446
N450 X-2.4972 Y-1.333 Z0.4487
N455 X-2.4966 Y-1.3323 Z0.4534
N460 G0 Z1.0906
N465 G1 X-2.4838 Y-1.0105 F196.85
N470 G0 Z0.6969
N475 G1 Z0.5984 F13.123
N480 Z0.4771
N485 X-2.483 Y-1.01 Z0.4723
N490 X-2.481 Y-1.0081 Z0.4682
N495 X-2.4799 Y-1.0065 Z0.4669
N500 X-2.479 Y-1.0047 Z0.4655
N505 X-2.4783 Y-1.0024 Z0.465
N510 X-2.4781 Y-1. Z0.4646
N515 G3 X-2.522 I-0.0219 J0. F26.4
N520 X-2.4781 I0.0219 J0.
N525 X-2.4937 Y-0.9989 I-0.0079 J0.
N530 G1 X-2.507 Y-1.0933
N535 G3 X-2.4961 Y-1.1016 I0.0078 J-0.0011
N540 G1 X-2.4627 Y-1.0874
N545 G3 X-2.5387 Y-1.0867 I-0.0373 J0.0874
N550 G1 X-2.5056 Y-1.1015
N555 X-2.5044 Y-1.1018
N560 X-2.5033 Y-1.1016
N565 X-2.5023 Y-1.1009
N570 X-2.5016 Y-1.1
N575 X-2.5014 Y-1.0988
N580 Y-1.0845
N585 X-2.4972 Y-1.014
N590 G3 X-2.5006 Y-1.0192 I-0.0062 J0.0004
N595 G1 X-2.4838 Y-1.0105
N600 Z0.4416 F13.123
N605 X-2.483 Y-1.01 Z0.4369
N610 X-2.481 Y-1.0081 Z0.4328
N615 X-2.4799 Y-1.0065 Z0.4314
N620 X-2.479 Y-1.0047 Z0.4301
N625 X-2.4783 Y-1.0024 Z0.4296
N630 X-2.4781 Y-1. Z0.4291
N635 G3 X-2.522 I-0.0219 J0. F26.4
N640 X-2.4781 I0.0219 J0.
N645 X-2.4937 Y-0.9989 I-0.0079 J0.
N650 G1 X-2.507 Y-1.0933
N655 G3 X-2.4961 Y-1.1016 I0.0078 J-0.0011
N660 G1 X-2.4627 Y-1.0874
N665 G3 X-2.5387 Y-1.0867 I-0.0373 J0.0874
N670 G1 X-2.5056 Y-1.1015
N675 X-2.5037 Y-1.1021 Z0.4295
N680 X-2.5017 Y-1.1024 Z0.4299
N685 X-2.5001 Y-1.1023 Z0.431
N690 X-2.4984 Y-1.102 Z0.4322
N695 X-2.4964 Y-1.1011 Z0.4355
N700 X-2.4957 Y-1.1007 Z0.4395
N705 G0 Z1.0906
N710 G1 X-1.4762 Y-1.0971 F196.85
N715 G0 Z0.6969
N720 G1 Z0.5984 F13.123
N725 Z0.4731
N730 X-1.4754 Y-1.0966 Z0.4683
N735 X-1.4734 Y-1.0947 Z0.4643
N740 X-1.4722 Y-1.0931 Z0.4629
N745 X-1.4713 Y-1.0912 Z0.4616
N750 X-1.4706 Y-1.089 Z0.4611
N755 X-1.4704 Y-1.0866 Z0.4606
N760 Y-0.911 F26.4
N765 G3 X-1.483 Y-0.8891 I-0.0254 J0.
N770 G1 X-1.4894 Y-0.8851
N775 G3 X-1.5106 I-0.0106 J-0.016
N780 G1 X-1.517 Y-0.8891
N785 G3 X-1.5296 Y-0.911 I0.0128 J-0.0219
N790 G1 Y-1.089
N795 G3 X-1.517 Y-1.1109 I0.0254 J0.
N800 G1 X-1.5106 Y-1.1149
N805 G3 X-1.4894 I0.0106 J0.016
N810 G1 X-1.483 Y-1.1109
N815 G3 X-1.4704 Y-1.089 I-0.0128 J0.0219
N820 G1 Y-1.0866
N825 G2 X-1.4348 Y-1.0331 I0.0579 J0.
N830 G3 X-1.3991 Y-0.9796 I-0.0223 J0.0535
N835 G1 Y-0.852
N840 G3 X-1.4372 Y-0.8322 I-0.1009 J-0.148
N845 G2 X-1.4779 Y-0.7737 I0.0219 J0.0585
N850 G1 Y-0.6078
N855 X-1.5221
N860 Y-0.7737
N865 G2 X-1.5628 Y-0.8322 I-0.0625 J0.
N870 G3 X-1.6009 Y-0.852 I0.0628 J-0.1678
N875 G1 Y-1.148
N880 G3 X-1.5628 Y-1.1678 I0.1009 J0.148
N885 G2 X-1.5221 Y-1.2263 I-0.0219 J-0.0585
N890 G1 Y-1.3922
N895 X-1.4779
N900 Y-1.2263
N905 G2 X-1.4372 Y-1.1678 I0.0625 J0.
N910 G3 X-1.3991 Y-1.148 I-0.0628 J0.1678
N915 G1 Y-0.9796
N920 G3 X-1.4098 Y-0.9753 I-0.0063 J0.
N925 G1 X-1.4344 Y-1.0007
N930 X-1.4768 Y-1.0791
N935 X-1.4814 Y-1.0931
N940 X-1.4815 Y-1.0945
N945 X-1.4811 Y-1.0959
N950 X-1.4802 Y-1.0969
N955 X-1.4789 Y-1.0975
N960 X-1.4775 Y-1.0976
N965 X-1.4762 Y-1.0971
N970 Z0.4338 F13.123
N975 X-1.4754 Y-1.0966 Z0.429
N980 X-1.4734 Y-1.0947 Z0.4249
N985 X-1.4722 Y-1.0931 Z0.4236
N990 X-1.4713 Y-1.0912 Z0.4222
N995 X-1.4706 Y-1.089 Z0.4217
N1000 X-1.4704 Y-1.0866 Z0.4213
N1005 Y-0.911 F26.4
N1010 G3 X-1.483 Y-0.8891 I-0.0254 J0.
N1015 G1 X-1.4894 Y-0.8851
N1020 G3 X-1.5106 I-0.0106 J-0.016
N1025 G1 X-1.517 Y-0.8891
N1030 G3 X-1.5296 Y-0.911 I0.0128 J-0.0219
N1035 G1 Y-1.089
N1040 G3 X-1.517 Y-1.1109 I0.0254 J0.
N1045 G1 X-1.5106 Y-1.1149
N1050 G3 X-1.4894 I0.0106 J0.016
N1055 G1 X-1.483 Y-1.1109
N1060 G3 X-1.4704 Y-1.089 I-0.0128 J0.0219
N1065 G1 Y-1.0866
N1070 G2 X-1.4348 Y-1.0331 I0.0579 J0.
N1075 G3 X-1.3991 Y-0.9796 I-0.0223 J0.0535
N1080 G1 Y-0.852
N1085 G3 X-1.4372 Y-0.8322 I-0.1009 J-0.148
N1090 G2 X-1.4779 Y-0.7737 I0.0219 J0.0585
N1095 G1 Y-0.6078
N1100 X-1.5221
N1105 Y-0.7737
N1110 G2 X-1.5628 Y-0.8322 I-0.0625 J0.
N1115 G3 X-1.6009 Y-0.852 I0.0628 J-0.1678
N1120 G1 Y-1.148
N1125 G3 X-1.5628 Y-1.1678 I0.1009 J0.148
N1130 G2 X-1.5221 Y-1.2263 I-0.0219 J-0.0585
N1135 G1 Y-1.3922
N1140 X-1.4779
N1145 Y-1.2263
N1150 G2 X-1.4372 Y-1.1678 I0.0625 J0.
N1155 G3 X-1.3991 Y-1.148 I-0.0628 J0.1678
N1160 G1 Y-0.9796
N1165 X-1.3994 Y-0.9773 Z0.4217
N1170 X-1.4002 Y-0.975 Z0.4222
N1175 X-1.4011 Y-0.9732 Z0.4236
N1180 X-1.4024 Y-0.9716 Z0.4249
N1185 X-1.4044 Y-0.9699 Z0.429
N1190 X-1.4052 Y-0.9694 Z0.4338
N1195 G0 Z1.0906

(Trace1)
N1200 G1 X-2.5059 Y-1.7172 F196.85
N1205 G0 Z1.0906
N1210 Z0.6969
N1215 G1 Z0.4213 F13.123
N1220 X-2.0059 Z0.4803 F15.4
N1225 Z0.6969
N1230 G0 X-2.5059
N1235 G1 Z0.4213 F13.123
N1240 X-2.5054 Y-1.6542 F15.4
N1245 X-2.504 Y-1.4907 Z0.374
N1250 X-2.5013 Y-1.1636
N1255 X-2.5 Y-1. Z0.4213
N1260 Z0.6969
N1265 X-2.5059 Y-1.7172 F196.85
N1270 Z0.4213 F13.123
N1275 X-2.0059 Z0.4803 F15.4
N1280 Z0.6969
N1285 G0 X-2.5059
N1290 G1 Z0.4213 F13.123
N1295 X-2.5054 Y-1.6542 F15.4
N1300 X-2.504 Y-1.4907 Z0.374
N1305 X-2.5013 Y-1.1636
N1310 X-2.5 Y-1. Z0.4213
N1315 Z0.6969
N1320 G0 Z1.0906
N1325 M9
N1330 M5
N1335 G53 G0 Z0.

(2D Contour1)
N1340 T5 M6
N1345 S4500 M3
N1350 G17 G90
N1355 G54
N1360 M8
N1365 G1 X-1.4465 Y-1.2592 F196.85
N1370 G0 G43 Z1.0906 H5
N1375 T10
N1380 G0 Z0.6969
N1385 G1 Z0.5394 F13.123
N1390 Z0.4962
N1395 X-1.4462 Y-1.2593 Z0.4922 F25.
N1400 X-1.4453 Y-1.2596 Z0.4884
N1405 X-1.4439 Y-1.2601 Z0.4848
N1410 X-1.442 Y-1.2608 Z0.4815
N1415 X-1.4396 Y-1.2616 Z0.4785
N1420 X-1.4368 Y-1.2626 Z0.4759
N1425 X-1.4336 Y-1.2637 Z0.4739
N1430 X-1.4302 Y-1.2649 Z0.4724
N1435 X-1.4266 Y-1.2661 Z0.4715
N1440 X-1.4229 Y-1.2674 Z0.4712
N1445 X-1.3993 Y-1.2756
N1450 G3 X-1.3675 Y-1.2603 I0.0082 J0.0236
N1455 G1 X-1.3666 Y-1.2583 F0.984
N1460 X-1.3653 Y-1.2565
N1465 X-1.3638 Y-1.255
N1470 X-1.3619 Y-1.2538
N1475 G3 X-1.2894 Y-1.1977 I-0.1381 J0.2538
N1480 G1 Y-0.8023
N1485 G3 X-1.3619 Y-0.7462 I-0.2106 J-0.1977
N1490 G2 X-1.3681 Y-0.7359 I0.0056 J0.0104
N1495 G1 Y-0.5465
N1500 X-1.4166 Y-0.498
N1505 X-1.5706
N1510 X-1.5703 Y-0.4987
N1515 G2 X-1.5871 Y-0.5135 I-0.0109 J-0.0045
N1520 G1 X-1.6024 Y-0.5048
N1525 X-1.986 Y-0.2863
N1530 G3 X-2.0387 Y-0.2875 I-0.0253 J-0.0445
N1535 G1 X-2.5274 Y-0.5967
N1540 G3 X-2.5441 Y-0.6141 I0.0274 J-0.0433
N1545 G2 X-2.5527 Y-0.6198 I-0.0102 J0.006
N1550 G3 X-2.5642 Y-1.3784 I0.0527 J-0.3802
N1555 G2 X-2.5544 Y-1.3902 I-0.002 J-0.0116
N1560 G1 X-2.5571 Y-1.7168
N1565 G3 X-2.5059 Y-1.7684 I0.0512 J-0.0004
N1570 G1 X-1.5059
N1575 G3 X-1.4547 Y-1.7181 I0. J0.0512
N1580 G1 X-1.4512 Y-1.5136
N1585 G2 X-1.4394 Y-1.502 I0.0118 J-0.0002
N1590 G1 X-1.4166
N1595 X-1.3681 Y-1.4535
N1600 Y-1.2641
N1605 G2 X-1.3619 Y-1.2538 I0.0118 J0.
N1610 G3 X-1.2894 Y-1.1977 I-0.1381 J0.2538
N1615 G1 Y-0.8023
N1620 G3 X-1.3619 Y-0.7462 I-0.2106 J-0.1977
N1625 G2 X-1.3681 Y-0.7359 I0.0056 J0.0104
N1630 G1 Y-0.5465
N1635 X-1.4166 Y-0.498
N1640 X-1.5706
N1645 X-1.5703 Y-0.4987
N1650 G2 X-1.5871 Y-0.5135 I-0.0109 J-0.0045
N1655 G1 X-1.6024 Y-0.5048
N1660 X-1.986 Y-0.2863
N1665 G3 X-2.0387 Y-0.2875 I-0.0253 J-0.0445
N1670 G1 X-2.5274 Y-0.5967
N1675 G3 X-2.5441 Y-0.6141 I0.0274 J-0.0433
N1680 G2 X-2.5527 Y-0.6198 I-0.0102 J0.006
N1685 G3 X-2.5642 Y-1.3784 I0.0527 J-0.3802
N1690 G2 X-2.5544 Y-1.3902 I-0.002 J-0.0116
N1695 G1 X-2.5571 Y-1.7168
N1700 G3 X-2.5059 Y-1.7684 I0.0512 J-0.0004
N1705 G1 X-1.5059
N1710 G3 X-1.4547 Y-1.7181 I0. J0.0512
N1715 G1 X-1.4512 Y-1.5136
N1720 G2 X-1.4394 Y-1.502 I0.0118 J-0.0002
N1725 G1 X-1.4166
N1730 X-1.3681 Y-1.4535
N1735 Y-1.2641
N1740 X-1.3679 Y-1.2622
N1745 X-1.3675 Y-1.2603
N1750 G3 X-1.3828 Y-1.2284 I-0.0236 J0.0082 F25.
N1755 G1 X-1.4065 Y-1.2202
N1760 X-1.4101 Y-1.2189 Z0.4715
N1765 X-1.4137 Y-1.2177 Z0.4724
N1770 X-1.4172 Y-1.2165 Z0.4739
N1775 X-1.4203 Y-1.2154 Z0.4759
N1780 X-1.4231 Y-1.2144 Z0.4785
N1785 X-1.4256 Y-1.2135 Z0.4815
N1790 X-1.4275 Y-1.2129 Z0.4848
N1795 X-1.4289 Y-1.2124 Z0.4884
N1800 X-1.4298 Y-1.2121 Z0.4922
N1805 X-1.4301 Y-1.212 Z0.4962
N1810 G0 Z1.0906
N1815 G1 X-1.4234 Y-1.1116 F196.85
N1820 G0 Z0.6969
N1825 G1 Z0.5394 F13.123
N1830 Z0.4541
N1835 G18 G2 X-1.3984 Z0.4291 I0.025 K0. F25.
N1840 G1 X-1.3734
N1845 G17 G3 X-1.3484 Y-1.0866 I0. J0.025
N1850 G1 Y-0.8272 F0.984
N1855 G3 X-1.4195 Y-0.7847 I-0.1516 J-0.1728
N1860 G2 X-1.4272 Y-0.7737 I0.0041 J0.0111
N1865 G1 Y-0.571
N1870 X-1.4411 Y-0.5571
N1875 X-1.5589
N1880 X-1.5728 Y-0.571
N1885 Y-0.7737
N1890 G2 X-1.5805 Y-0.7847 I-0.0118 J0.
N1895 G3 X-1.6516 Y-0.8272 I0.0805 J-0.2153
N1900 G1 Y-1.1728
N1905 G3 X-1.5805 Y-1.2153 I0.1516 J0.1728
N1910 G2 X-1.5728 Y-1.2263 I-0.0041 J-0.0111
N1915 G1 Y-1.429
N1920 X-1.5589 Y-1.4429
N1925 X-1.4411
N1930 X-1.4272 Y-1.429
N1935 Y-1.2263
N1940 G2 X-1.4195 Y-1.2153 I0.0118 J0.
N1945 G3 X-1.3484 Y-1.1728 I-0.0805 J0.2153
N1950 G1 Y-0.8272
N1955 G3 X-1.4195 Y-0.7847 I-0.1516 J-0.1728
N1960 G2 X-1.4272 Y-0.7737 I0.0041 J0.0111
N1965 G1 Y-0.571
N1970 X-1.4411 Y-0.5571
N1975 X-1.5589
N1980 X-1.5728 Y-0.571
N1985 Y-0.7737
N1990 G2 X-1.5805 Y-0.7847 I-0.0118 J0.
N1995 G3 X-1.6516 Y-0.8272 I0.0805 J-0.2153
N2000 G1 Y-1.1728
N2005 G3 X-1.5805 Y-1.2153 I0.1516 J0.1728
N2010 G2 X-1.5728 Y-1.2263 I-0.0041 J-0.0111
N2015 G1 Y-1.429
N2020 X-1.5589 Y-1.4429
N2025 X-1.4411
N2030 X-1.4272 Y-1.429
N2035 Y-1.2263
N2040 G2 X-1.4195 Y-1.2153 I0.0118 J0.
N2045 G3 X-1.3484 Y-1.1728 I-0.0805 J0.2153
N2050 G1 Y-1.0866
N2055 G3 X-1.3734 Y-1.0616 I-0.025 J0. F25.
N2060 G1 X-1.3984
N2065 G18 G3 X-1.4234 Z0.4541 I0. K0.025
N2070 G0 Z1.0906
N2075 M9
N2080 M5
N2085 G53 G0 Z0.

(2D Pocket2)
N2090 T10 M6
N2095 S6000 M3
N2100 G17 G90
N2105 G54
N2110 M8
N2115 G1 X-1.4927 Y-0.9187 F196.85
N2120 G0 G43 Z1.0906 H10
N2125 T1
N2130 G0 Z0.6969
N2135 G1 Z0.5984 F13.123
N2140 Z0.4275
N2145 X-1.492 Y-0.9182 Z0.4244
N2150 X-1.4912 Y-0.9174 Z0.4232
N2155 X-1.4906 Y-0.9164 Z0.4221
N2160 X-1.49 Y-0.915 Z0.4217
N2165 X-1.4898 Y-0.9134 Z0.4213
N2170 Y-0.9129 F13.2
N2175 X-1.4901 Y-0.9106
N2180 X-1.491 Y-0.9083
N2185 X-1.4925 Y-0.9064
N2190 X-1.4943 Y-0.905
N2195 X-1.4952 Y-0.9045
N2200 X-1.497 Y-0.9036
N2205 X-1.499 Y-0.9032
N2210 X-1.501
N2215 X-1.503 Y-0.9036
N2220 X-1.5048 Y-0.9045
N2225 X-1.5057 Y-0.905
N2230 X-1.5075 Y-0.9064
N2235 X-1.509 Y-0.9083
N2240 X-1.5099 Y-0.9106
N2245 X-1.5102 Y-0.9129
N2250 Y-1.0871
N2255 X-1.5099 Y-1.0894
N2260 X-1.509 Y-1.0917
N2265 X-1.5075 Y-1.0936
N2270 X-1.5057 Y-1.095
N2275 X-1.5048 Y-1.0955
N2280 X-1.503 Y-1.0964
N2285 X-1.501 Y-1.0968
N2290 X-1.499
N2295 X-1.497 Y-1.0964
N2300 X-1.4952 Y-1.0955
N2305 X-1.4943 Y-1.095
N2310 X-1.4925 Y-1.0936
N2315 X-1.491 Y-1.0917
N2320 X-1.4901 Y-1.0894
N2325 X-1.4898 Y-1.0871
N2330 Y-0.9134
N2335 G2 X-1.4829 Y-0.9013 I0.0142 J0.
N2340 G3 Y-0.8873 I-0.0042 J0.007
N2345 G1 X-1.4893 Y-0.8832
N2350 G3 X-1.5107 I-0.0107 J-0.0159
N2355 G1 X-1.5184 Y-0.8881
N2360 G3 X-1.5312 Y-0.9102 I0.0128 J-0.0222
N2365 G1 Y-1.0898
N2370 G3 X-1.5184 Y-1.1119 I0.0256 J0.
N2375 G1 X-1.5107 Y-1.1168
N2380 G3 X-1.4893 I0.0107 J0.0159
N2385 G1 X-1.4816 Y-1.1119
N2390 G3 X-1.4688 Y-1.0898 I-0.0128 J0.0222
N2395 G1 Y-0.9102
N2400 G3 X-1.4816 Y-0.8881 I-0.0256 J0.
N2405 G1 X-1.4829 Y-0.8873
N2410 G2 X-1.4929 Y-0.8606 I0.0116 J0.0195
N2415 G3 X-1.5168 Y-0.8452 I-0.0139 J0.0047
N2420 G2 X-1.5266 Y-0.8533 I-0.0663 J0.0704
N2425 X-1.5507 Y-0.8663 I-0.0613 J0.0851
N2430 G3 X-1.5648 Y-0.8866 I0.0077 J-0.0204
N2435 G1 Y-1.1134
N2440 G3 X-1.5507 Y-1.1337 I0.0218 J0.
N2445 G2 X-1.5266 Y-1.1467 I-0.0372 J-0.098
N2450 X-1.5069 Y-1.1657 I-0.0565 J-0.0784
N2455 G3 X-1.4931 I0.0069 J0.0053
N2460 G2 X-1.4734 Y-1.1467 I0.0763 J-0.0594
N2465 X-1.4493 Y-1.1337 I0.0613 J-0.0851
N2470 G3 X-1.4352 Y-1.1134 I-0.0077 J0.0204
N2475 G1 Y-0.8866
N2480 G3 X-1.4493 Y-0.8663 I-0.0218 J0.
N2485 G2 X-1.4734 Y-0.8533 I0.0372 J0.098
N2490 X-1.4931 Y-0.8343 I0.0565 J0.0784
N2495 G3 X-1.5069 I-0.0069 J-0.0053
N2500 G2 X-1.5168 Y-0.8452 I-0.0763 J0.0594
N2505 X-1.5497 Y-0.8467 I-0.0173 J0.0184
N2510 G3 X-1.5824 Y-0.8438 I-0.0187 J-0.0238
N2515 G1 X-1.5826 Y-0.8439
N2520 G3 X-1.5984 Y-0.8701 I0.0139 J-0.0263
N2525 G1 Y-1.1299
N2530 G3 X-1.5826 Y-1.1561 I0.0297 J0.
N2535 X-1.5719 Y-1.1609 I0.0423 J0.0801
N2540 G1 X-1.5616 Y-1.1648
N2545 G2 X-1.5301 Y-1.1887 I-0.0241 J-0.0644
N2550 X-1.5179 Y-1.2263 I-0.0516 J-0.0376
N2555 G1 X-1.5196 Y-1.3771
N2560 G3 X-1.5071 Y-1.3897 I0.0126 J0.
N2565 G1 X-1.4929
N2570 G3 X-1.4804 Y-1.3771 I0. J0.0126
N2575 G1 X-1.4821 Y-1.2263
N2580 G2 X-1.4699 Y-1.1887 I0.0639 J0.
N2585 X-1.4384 Y-1.1648 I0.0556 J-0.0405
N2590 G1 X-1.4281 Y-1.1609
N2595 G3 X-1.4174 Y-1.1561 I-0.0317 J0.0849
N2600 X-1.4016 Y-1.1299 I-0.0139 J0.0263
N2605 G1 Y-0.8701
N2610 G3 X-1.4174 Y-0.8439 I-0.0297 J0.
N2615 X-1.4281 Y-0.8391 I-0.0423 J-0.0801
N2620 G1 X-1.4384 Y-0.8352
N2625 G2 X-1.4699 Y-0.8113 I0.0241 J0.0644
N2630 X-1.4821 Y-0.7737 I0.0516 J0.0376
N2635 G1 X-1.4804 Y-0.6229
N2640 G3 X-1.4929 Y-0.6103 I-0.0126 J0.
N2645 G1 X-1.5071
N2650 G3 X-1.5196 Y-0.6229 I0. J-0.0126
N2655 G1 X-1.5179 Y-0.7737
N2660 G2 X-1.5301 Y-0.8113 I-0.0639 J0.
N2665 X-1.5616 Y-0.8352 I-0.0556 J0.0405
N2670 G1 X-1.5719 Y-0.8391
N2675 G3 X-1.5824 Y-0.8438 I0.0317 J-0.0849
N2680 G2 X-1.6076 Y-0.838 I-0.0092 J0.0176
N2685 G3 X-1.6321 Y-0.8461 I-0.0109 J-0.0081
N2690 G1 Y-1.1637
N2695 G3 X-1.5737 Y-1.1971 I0.1321 J0.1637
N2700 G2 X-1.5534 Y-1.2263 I-0.0109 J-0.0293
N2705 G1 Y-1.4209
N2710 X-1.5509 Y-1.4235
N2715 X-1.4491
N2720 X-1.4466 Y-1.4209
N2725 Y-1.2263
N2730 G2 X-1.4263 Y-1.1971 I0.0313 J0.
N2735 G3 X-1.3679 Y-1.1637 I-0.0737 J0.1971
N2740 G1 Y-0.8363
N2745 G3 X-1.4263 Y-0.8029 I-0.1321 J-0.1637
N2750 G2 X-1.4466 Y-0.7737 I0.0109 J0.0293
N2755 G1 Y-0.5791
N2760 X-1.4491 Y-0.5765
N2765 X-1.5509
N2770 X-1.5534 Y-0.5791
N2775 Y-0.7737
N2780 G2 X-1.5737 Y-0.8029 I-0.0313 J0.
N2785 G3 X-1.6321 Y-0.8363 I0.0737 J-0.1971
N2790 G1 Y-0.8461
N2795 X-1.6319 Y-0.8477 Z0.4217
N2800 X-1.6313 Y-0.8491 Z0.4221
N2805 X-1.6306 Y-0.85 Z0.4232
N2810 X-1.6298 Y-0.8508 Z0.4244
N2815 X-1.6291 Y-0.8513 Z0.4275
N2820 G0 Z1.0906

N2825 M5
N2830 M9
N2835 G53 G0 Z0.
N2840 X-1.5
N2845 G53 G0 Y0.
#801 = 3
M98 P9004
N2850 M30

%
