%
O01001 (Automatic CAM Program)
(Using high feed G1 F196.85 instead of G0.)
(T1 D=0.125 CR=0. - ZMIN=0.374 - flat end mill)
(T5 D=0.25 CR=0. TAPER=90deg - ZMIN=0.4291 - spot drill)
(T10 D=0.0625 CR=0. - ZMIN=0.4213 - flat end mill)
N10 G90 G17
N15 G20
N20 G53 G0 Z0.

(2D Pocket30)
N25 T1 M6
N30 S6000 M3
N35 G17 G90
N40 G54
N45 M8
N50 G1 X-1.6454 Y-1.7495 F196.85
N55 G0 G43 Z1.0906 H1
N60 T5
N65 G0 Z0.6969
N70 G1 Z0.5984 F13.123
N75 Z0.4803
N80 X-2.0762 F26.4
N85 Z0.4928
N90 G0 Z0.6969
N95 G1 X-2.0761 Y-1.7505 F196.85
N100 Z0.5984 F13.123
N105 Z0.4803
N110 X-1.6952 F26.4
N115 X-1.6454
N120 Z0.4928
N125 G0 Z1.0906
N130 G1 X-0.5005 Y-1.4339 F196.85
N135 G0 Z0.6969
N140 G1 Z0.5984 F13.123
N145 Z0.4803
N150 Y-1.687 F26.4
N155 G2 X-0.563 Y-1.7495 I-0.0625 J0.
N160 G1 X-1.3048
N165 X-1.3546
N170 Z0.4928
N175 G0 Z0.6969
N180 G1 X-1.3542 Y-1.7505 F196.85
N185 Z0.5984 F13.123
N190 Z0.4803
N195 X-0.5 F26.4
N200 X-0.4995 Y-1.75
N205 Y-1.4921
N210 Y-1.4341
N215 Z0.4928
N220 G0 Z1.0906
N225 G1 X-2.4995 Y-0.6647 F196.85
N230 G0 Z0.6969
N235 G1 Z0.5984 F13.123
N240 Z0.4803
N245 Y-0.6114 F26.4
N250 Y-0.563
N255 Y-0.5343
N260 Z0.4928
N265 G0 Z0.6969
N270 G1 X-2.5005 Y-0.5346 F196.85
N275 Z0.5984 F13.123
N280 Z0.4803
N285 Y-0.6114 F26.4
N290 Y-0.6646
N295 Z0.4928
N300 G0 Z1.0906
N305 G1 X-1.1645 Y-0.5005 F196.85
N310 G0 Z0.6969
N315 G1 Z0.5984 F13.123
N320 Z0.4803
N325 X-0.4995 F26.4
N330 Y-0.5
N335 X-0.5 Y-0.4995
N340 X-1.1114
N345 X-1.1646
N350 Z0.4928
N355 G0 Z1.0906
N360 G1 X-1.3878 Y-1.7406 F196.85
N365 G0 Z0.6969
N370 G1 Z0.5984 F13.123
N375 Z0.4606
N380 X-1.6216 F26.4
N385 Y-1.7594
N390 X-1.3784
N395 Y-1.7406
N400 X-1.3878
N405 X-1.3902 Y-1.7409 Z0.4611
N410 X-1.3925 Y-1.7416 Z0.4616
N415 X-1.3943 Y-1.7425 Z0.4629
N420 X-1.3959 Y-1.7436 Z0.4643
N425 X-1.3978 Y-1.7456 Z0.4683
N430 X-1.3983 Y-1.7464 Z0.4731
N435 G0 Z1.0906
N440 G1 X-2.5052 Y-1.1042 F196.85
N445 G0 Z0.6969
N450 G1 Z0.525 F13.123
N455 Z0.4534 F26.4
N460 X-2.5051 Y-1.1045 Z0.4507
N465 X-2.5047 Y-1.1054 Z0.448
N470 X-2.5041 Y-1.1067 Z0.4457
N475 X-2.5034 Y-1.1086 Z0.4437
N480 X-2.5025 Y-1.1108 Z0.4422
N485 X-2.5015 Y-1.1132 Z0.4413
N490 X-2.5004 Y-1.1158 Z0.4409
N495 X-2.5 Y-1.116
N500 G3 Y-0.884 I0. J0.116
N505 Y-1.116 I0. J-0.116
N510 G2 X-2.4923 Y-1.1255 I0. J-0.0079
N515 G1 X-2.5031 Y-1.1794
N520 G3 X-2.4952 Y-1.1888 I0.0077 J-0.0016
N525 X-2.3667 Y-0.8662 I-0.0048 J0.1888
N530 X-2.4281 Y-0.8263 I-0.1254 J-0.126
N535 X-2.5719 I-0.0719 J-0.1861
N540 X-2.6333 Y-0.8662 I0.0641 J-0.1658
N545 X-2.505 Y-1.1888 I0.1333 J-0.1338
N550 G2 X-2.4973 Y-1.1975 I-0.0002 J-0.0079
N555 G1 X-2.5032 Y-1.2512
N560 G3 X-2.4952 Y-1.2599 I0.0078 J-0.0009
N565 X-2.3166 Y-0.8158 I-0.0048 J0.2599
N570 X-2.401 Y-0.7606 I-0.1755 J-0.1762
N575 X-2.599 I-0.099 J-0.2516
N580 X-2.6834 Y-0.8158 I0.0911 J-0.2314
N585 X-2.5045 Y-1.2599 I0.1834 J-0.1842
N590 G2 X-2.4968 Y-1.2688 I-0.0001 J-0.0079
N595 G1 X-2.5044 Y-1.326
N600 G3 X-2.4953 Y-1.3348 I0.0078 J-0.001
N605 G1 X-2.447 Y-1.3269
N610 G3 X-2.553 I-0.053 J0.3269
N615 G1 X-2.5049 Y-1.3347
N620 X-2.5026 Y-1.3348 Z0.4414
N625 X-2.5002 Y-1.3344 Z0.4419
N630 X-2.4983 Y-1.3338 Z0.4433
N635 X-2.4965 Y-1.3328 Z0.4446
N640 X-2.4945 Y-1.331 Z0.4487
N645 X-2.4938 Y-1.3303 Z0.4534
N650 G0 Z1.0906
N655 G1 X-1.6042 Y-0.4948 F196.85
N660 G0 Z0.6969
N665 G1 Z0.525 F13.123
N670 Z0.4534 F26.4
N675 X-1.6045 Y-0.4949 Z0.4507
N680 X-1.6054 Y-0.4953 Z0.448
N685 X-1.6067 Y-0.4959 Z0.4457
N690 X-1.6086 Y-0.4966 Z0.4437
N695 X-1.6108 Y-0.4975 Z0.4422
N700 X-1.6132 Y-0.4985 Z0.4413
N705 X-1.6158 Y-0.4996 Z0.4409
N710 X-1.616 Y-0.5
N715 G3 X-1.384 I0.116 J0.
N720 X-1.616 I-0.116 J0.
N725 G2 X-1.6441 Y-0.5493 I-0.0573 J0.
N730 G3 X-1.6566 Y-0.6046 I0.0199 J-0.0336
N735 X-1.3129 Y-0.5 I0.156 J0.1045
N740 X-1.686 Y-0.4699 I-0.1878 J0.
N745 G1 X-1.6874 Y-0.4774
N750 X-1.6889 Y-0.4849
N755 G3 Y-0.5151 I0.0931 J-0.0151
N760 G1 X-1.6874 Y-0.5226
N765 X-1.686 Y-0.5301
N770 G3 X-1.6566 Y-0.6046 I0.1853 J0.03
N775 G2 X-1.6543 Y-0.662 I-0.0458 J-0.0307
N780 G3 X-1.6402 Y-0.7177 I0.0367 J-0.0204
N785 X-1.2418 Y-0.5 I0.1398 J0.2176
N790 X-1.7558 Y-0.4585 I-0.2586 J0.
N795 G2 X-1.7583 Y-0.4717 I-0.2124 J0.0344
N800 G3 X-1.7609 Y-0.4849 I0.2097 J-0.0476
N805 Y-0.5151 I0.0931 J-0.0151
N810 X-1.7583 Y-0.5283 I0.2123 J0.0344
N815 G2 X-1.7558 Y-0.5415 I-0.2098 J-0.0476
N820 G3 X-1.6402 Y-0.7177 I0.2553 J0.0414
N825 X-1.6302 Y-0.7057 I0.0043 J0.0066
N830 G1 X-1.8212 Y-0.4981
N835 G3 X-1.8348 Y-0.5047 I-0.0058 J-0.0053
N840 G1 X-1.8269 Y-0.553
N845 G3 Y-0.447 I0.3269 J0.053
N850 G1 X-1.8347 Y-0.4951
N855 X-1.8348 Y-0.4974 Z0.4414
N860 X-1.8344 Y-0.4998 Z0.4419
N865 X-1.8338 Y-0.5017 Z0.4433
N870 X-1.8328 Y-0.5035 Z0.4446
N875 X-1.831 Y-0.5055 Z0.4487
N880 X-1.8303 Y-0.5062 Z0.4534
N885 G0 Z1.0906
N890 G1 X-2.4838 Y-1.0105 F196.85
N895 G0 Z0.6969
N900 G1 Z0.5984 F13.123
N905 Z0.4771
N910 X-2.483 Y-1.01 Z0.4723
N915 X-2.481 Y-1.0081 Z0.4682
N920 X-2.4799 Y-1.0065 Z0.4669
N925 X-2.479 Y-1.0047 Z0.4655
N930 X-2.4783 Y-1.0024 Z0.465
N935 X-2.478 Y-1. Z0.4646
N940 G3 X-2.522 I-0.022 J0. F26.4
N945 X-2.478 I0.022 J0.
N950 X-2.4937 Y-0.999 I-0.0079 J0.
N955 G1 X-2.5062 Y-1.0933
N960 G3 X-2.4953 Y-1.1016 I0.0078 J-0.001
N965 G1 X-2.462 Y-1.0871
N970 G3 X-2.538 I-0.038 J0.0871
N975 G1 X-2.5047 Y-1.1016
N980 X-2.5036 Y-1.1018
N985 X-2.5024 Y-1.1016
N990 X-2.5015 Y-1.1009
N995 X-2.5008 Y-1.1
N1000 X-2.5006 Y-1.0988
N1005 X-2.5007 Y-1.0845
N1010 X-2.4971 Y-1.0141
N1015 G3 X-2.5004 Y-1.0193 I-0.0062 J0.0003
N1020 G1 X-2.4838 Y-1.0105
N1025 Z0.4416 F13.123
N1030 X-2.483 Y-1.01 Z0.4369
N1035 X-2.481 Y-1.0081 Z0.4328
N1040 X-2.4799 Y-1.0065 Z0.4314
N1045 X-2.479 Y-1.0047 Z0.4301
N1050 X-2.4783 Y-1.0024 Z0.4296
N1055 X-2.478 Y-1. Z0.4291
N1060 G3 X-2.522 I-0.022 J0. F26.4
N1065 X-2.478 I0.022 J0.
N1070 X-2.4937 Y-0.999 I-0.0079 J0.
N1075 G1 X-2.5062 Y-1.0933
N1080 G3 X-2.4953 Y-1.1016 I0.0078 J-0.001
N1085 G1 X-2.462 Y-1.0871
N1090 G3 X-2.538 I-0.038 J0.0871
N1095 G1 X-2.5047 Y-1.1016
N1100 X-2.5029 Y-1.1022 Z0.4295
N1105 X-2.5009 Y-1.1024 Z0.4299
N1110 X-2.4992 Y-1.1023 Z0.431
N1115 X-2.4976 Y-1.102 Z0.4322
N1120 X-2.4955 Y-1.1011 Z0.4355
N1125 X-2.4949 Y-1.1007 Z0.4395
N1130 G0 Z1.0906
N1135 G1 X-1.4838 Y-0.5105 F196.85
N1140 G0 Z0.6969
N1145 G1 Z0.5984 F13.123
N1150 Z0.4771
N1155 X-1.483 Y-0.51 Z0.4723
N1160 X-1.481 Y-0.5081 Z0.4682
N1165 X-1.4799 Y-0.5065 Z0.4669
N1170 X-1.479 Y-0.5047 Z0.4655
N1175 X-1.4783 Y-0.5024 Z0.465
N1180 X-1.478 Y-0.5 Z0.4646
N1185 G3 X-1.522 I-0.022 J0. F26.4
N1190 X-1.478 I0.022 J0.
N1195 X-1.486 Y-0.4921 I-0.0079 J0.
N1200 G1 X-1.5945 Y-0.4937
N1205 G3 X-1.6016 Y-0.5047 I0.0001 J-0.0079
N1210 G1 X-1.5871 Y-0.538
N1215 G3 Y-0.462 I0.0871 J0.038
N1220 G1 X-1.6016 Y-0.4953
N1225 X-1.6018 Y-0.4964
N1230 X-1.6016 Y-0.4976
N1235 X-1.6009 Y-0.4985
N1240 X-1.5999 Y-0.4992
N1245 X-1.5988 Y-0.4994
N1250 X-1.5845 Y-0.4991
N1255 X-1.4982 Y-0.5023
N1260 X-1.4972 Y-0.5025
N1265 X-1.4964 Y-0.503
N1270 X-1.4875 Y-0.5103
N1275 X-1.4863 Y-0.5109
N1280 X-1.485 Y-0.511
N1285 X-1.4838 Y-0.5105
N1290 Z0.4416 F13.123
N1295 X-1.483 Y-0.51 Z0.4369
N1300 X-1.481 Y-0.5081 Z0.4328
N1305 X-1.4799 Y-0.5065 Z0.4314
N1310 X-1.479 Y-0.5047 Z0.4301
N1315 X-1.4783 Y-0.5024 Z0.4296
N1320 X-1.478 Y-0.5 Z0.4291
N1325 G3 X-1.522 I-0.022 J0. F26.4
N1330 X-1.478 I0.022 J0.
N1335 X-1.486 Y-0.4921 I-0.0079 J0.
N1340 G1 X-1.5945 Y-0.4937
N1345 G3 X-1.6016 Y-0.5047 I0.0001 J-0.0079
N1350 G1 X-1.5871 Y-0.538
N1355 G3 Y-0.462 I0.0871 J0.038
N1360 G1 X-1.6016 Y-0.4953
N1365 X-1.6022 Y-0.4971 Z0.4295
N1370 X-1.6024 Y-0.4991 Z0.4299
N1375 X-1.6023 Y-0.5008 Z0.431
N1380 X-1.602 Y-0.5024 Z0.4322
N1385 X-1.6011 Y-0.5045 Z0.4355
N1390 X-1.6007 Y-0.5051 Z0.4395
N1395 G0 Z1.0906
N1400 G1 X-0.4781 Y-1.0968 F196.85
N1405 G0 Z0.6969
N1410 G1 Z0.5984 F13.123
N1415 Z0.4731
N1420 X-0.4773 Y-1.0963 Z0.4683
N1425 X-0.4754 Y-1.0944 Z0.4643
N1430 X-0.4742 Y-1.0928 Z0.4629
N1435 X-0.4733 Y-1.091 Z0.4616
N1440 X-0.4726 Y-1.0887 Z0.4611
N1445 X-0.4724 Y-1.0863 Z0.4606
N1450 Y-0.9124 F26.4
N1455 G3 X-0.4849 Y-0.8905 I-0.0254 J0.
N1460 G1 X-0.489 Y-0.888
N1465 G3 X-0.511 I-0.011 J-0.0173
N1470 G1 X-0.5151 Y-0.8905
N1475 G3 X-0.5276 Y-0.9124 I0.0128 J-0.0219
N1480 G1 Y-1.0876
N1485 G3 X-0.5151 Y-1.1095 I0.0254 J0.
N1490 G1 X-0.511 Y-1.112
N1495 G3 X-0.489 I0.011 J0.0173
N1500 G1 X-0.4849 Y-1.1095
N1505 G3 X-0.4724 Y-1.0876 I-0.0128 J0.0219
N1510 G1 Y-1.0863
N1515 G2 X-0.4367 Y-1.0329 I0.0579 J0.
N1520 G3 X-0.4011 Y-0.9794 I-0.0223 J0.0535
N1525 G1 Y-0.853
N1530 G3 X-0.4389 Y-0.8337 I-0.0989 J-0.147
N1535 G2 X-0.4798 Y-0.775 I0.0216 J0.0587
N1540 G1 Y-0.6097
N1545 X-0.5202
N1550 Y-0.775
N1555 G2 X-0.5611 Y-0.8337 I-0.0625 J0.
N1560 G3 X-0.5989 Y-0.853 I0.0611 J-0.1663
N1565 G1 Y-1.147
N1570 G3 X-0.5611 Y-1.1663 I0.0989 J0.147
N1575 G2 X-0.5202 Y-1.225 I-0.0216 J-0.0587
N1580 G1 Y-1.3903
N1585 X-0.4798
N1590 Y-1.225
N1595 G2 X-0.4389 Y-1.1663 I0.0625 J0.
N1600 G3 X-0.4011 Y-1.147 I-0.0611 J0.1663
N1605 G1 Y-0.9794
N1610 G3 X-0.4118 Y-0.975 I-0.0062 J0.
N1615 G1 X-0.4357 Y-1.0001
N1620 X-0.4788 Y-1.0803
N1625 X-0.4829 Y-1.0932
N1630 X-0.483 Y-1.0945
N1635 X-0.4827 Y-1.0957
N1640 X-0.4818 Y-1.0967
N1645 X-0.4806 Y-1.0973
N1650 X-0.4793
N1655 X-0.4781 Y-1.0968
N1660 Z0.4338 F13.123
N1665 X-0.4773 Y-1.0963 Z0.429
N1670 X-0.4754 Y-1.0944 Z0.4249
N1675 X-0.4742 Y-1.0928 Z0.4236
N1680 X-0.4733 Y-1.091 Z0.4222
N1685 X-0.4726 Y-1.0887 Z0.4217
N1690 X-0.4724 Y-1.0863 Z0.4213
N1695 Y-0.9124 F26.4
N1700 G3 X-0.4849 Y-0.8905 I-0.0254 J0.
N1705 G1 X-0.489 Y-0.888
N1710 G3 X-0.511 I-0.011 J-0.0173
N1715 G1 X-0.5151 Y-0.8905
N1720 G3 X-0.5276 Y-0.9124 I0.0128 J-0.0219
N1725 G1 Y-1.0876
N1730 G3 X-0.5151 Y-1.1095 I0.0254 J0.
N1735 G1 X-0.511 Y-1.112
N1740 G3 X-0.489 I0.011 J0.0173
N1745 G1 X-0.4849 Y-1.1095
N1750 G3 X-0.4724 Y-1.0876 I-0.0128 J0.0219
N1755 G1 Y-1.0863
N1760 G2 X-0.4367 Y-1.0329 I0.0579 J0.
N1765 G3 X-0.4011 Y-0.9794 I-0.0223 J0.0535
N1770 G1 Y-0.853
N1775 G3 X-0.4389 Y-0.8337 I-0.0989 J-0.147
N1780 G2 X-0.4798 Y-0.775 I0.0216 J0.0587
N1785 G1 Y-0.6097
N1790 X-0.5202
N1795 Y-0.775
N1800 G2 X-0.5611 Y-0.8337 I-0.0625 J0.
N1805 G3 X-0.5989 Y-0.853 I0.0611 J-0.1663
N1810 G1 Y-1.147
N1815 G3 X-0.5611 Y-1.1663 I0.0989 J0.147
N1820 G2 X-0.5202 Y-1.225 I-0.0216 J-0.0587
N1825 G1 Y-1.3903
N1830 X-0.4798
N1835 Y-1.225
N1840 G2 X-0.4389 Y-1.1663 I0.0625 J0.
N1845 G3 X-0.4011 Y-1.147 I-0.0611 J0.1663
N1850 G1 Y-0.9794
N1855 X-0.4014 Y-0.977 Z0.4217
N1860 X-0.4021 Y-0.9747 Z0.4222
N1865 X-0.4031 Y-0.973 Z0.4236
N1870 X-0.4044 Y-0.9714 Z0.4249
N1875 X-0.4064 Y-0.9696 Z0.429
N1880 X-0.4072 Y-0.9691 Z0.4338
N1885 G0 Z1.0906

(Trace11)
N1890 G1 X-2.5 Y-1.75 F196.85
N1895 G0 Z1.0906
N1900 Z0.6969
N1905 G1 Z0.4213 F13.123
N1910 X-2.0689 Z0.4803 F15.4
N1915 Z0.6969
N1920 G0 X-2.5
N1925 G1 Z0.4213 F13.123
N1930 Y-1.687 F15.4
N1935 Y-1.5153 Z0.374
N1940 Y-1.1718
N1945 Y-1. Z0.4213
N1950 Z0.6969
N1955 G0 Y-0.5
N1960 G1 Z0.4213 F13.123
N1965 X-2.437 F15.4
N1970 Z0.6969
N1975 G0 X-2.5
N1980 G1 Z0.4213 F13.123
N1985 Y-0.57 Z0.4803 F15.4
N1990 Z0.6969
N1995 X-2.437 Y-0.5 F196.85
N2000 Z0.4213 F13.123
N2005 X-2.2028 Z0.374 F15.4
N2010 X-1.7343
N2015 X-1.5 Z0.4213
N2020 Z0.6969
N2025 X-2.5 Y-1.75 F196.85
N2030 Z0.4213 F13.123
N2035 X-2.0689 Z0.4803 F15.4
N2040 Z0.6969
N2045 G0 X-2.5
N2050 G1 Z0.4213 F13.123
N2055 Y-1.687 F15.4
N2060 Y-1.5153 Z0.374
N2065 Y-1.1718
N2070 Y-1. Z0.4213
N2075 Z0.6969
N2080 G0 Y-0.5
N2085 G1 Z0.4213 F13.123
N2090 X-2.437 F15.4
N2095 Z0.6969
N2100 G0 X-2.5
N2105 G1 Z0.4213 F13.123
N2110 Y-0.57 Z0.4803 F15.4
N2115 Z0.6969
N2120 X-2.437 Y-0.5 F196.85
N2125 Z0.4213 F13.123
N2130 X-2.2028 Z0.374 F15.4
N2135 X-1.7343
N2140 X-1.5 Z0.4213
N2145 Z0.6969
N2150 G0 Z1.0906
N2155 M9
N2160 M5
N2165 G53 G0 Z0.

(2D Contour19)
N2170 T5 M6
N2175 S4500 M3
N2180 G17 G90
N2185 G54
N2190 M8
N2195 G1 X-0.4254 Y-0.9387 F196.85
N2200 G0 G43 Z1.0906 H5
N2205 T10
N2210 G0 Z0.6969
N2215 G1 Z0.5394 F13.123
N2220 Z0.4541
N2225 G18 G2 X-0.4004 Z0.4291 I0.025 K0. F25.
N2230 G1 X-0.3754
N2235 G17 G3 X-0.3504 Y-0.9137 I0. J0.025
N2240 G1 Y-0.8281 F0.984
N2245 G3 X-0.4214 Y-0.7861 I-0.1496 J-0.1719
N2250 G2 X-0.4291 Y-0.775 I0.0041 J0.0111
N2255 G1 Y-0.5718
N2260 X-0.4419 Y-0.5591
N2265 X-0.5581
N2270 X-0.5709 Y-0.5718
N2275 Y-0.775
N2280 G2 X-0.5786 Y-0.7861 I-0.0118 J0.
N2285 G3 X-0.6496 Y-0.8281 I0.0786 J-0.2139
N2290 G1 Y-1.1719
N2295 G3 X-0.5786 Y-1.2139 I0.1496 J0.1719
N2300 G2 X-0.5709 Y-1.225 I-0.0041 J-0.0111
N2305 G1 Y-1.4282
N2310 X-0.5581 Y-1.4409
N2315 X-0.4419
N2320 X-0.4291 Y-1.4282
N2325 Y-1.225
N2330 G2 X-0.4214 Y-1.2139 I0.0118 J0.
N2335 G3 X-0.3504 Y-1.1719 I-0.0786 J0.2139
N2340 G1 Y-0.9137
N2345 Y-0.8281
N2350 G3 X-0.4214 Y-0.7861 I-0.1496 J-0.1719
N2355 G2 X-0.4291 Y-0.775 I0.0041 J0.0111
N2360 G1 Y-0.5718
N2365 X-0.4419 Y-0.5591
N2370 X-0.5581
N2375 X-0.5709 Y-0.5718
N2380 Y-0.775
N2385 G2 X-0.5786 Y-0.7861 I-0.0118 J0.
N2390 G3 X-0.6496 Y-0.8281 I0.0786 J-0.2139
N2395 G1 Y-1.1719
N2400 G3 X-0.5786 Y-1.2139 I0.1496 J0.1719
N2405 G2 X-0.5709 Y-1.225 I-0.0041 J-0.0111
N2410 G1 Y-1.4282
N2415 X-0.5581 Y-1.4409
N2420 X-0.4419
N2425 X-0.4291 Y-1.4282
N2430 Y-1.225
N2435 G2 X-0.4214 Y-1.2139 I0.0118 J0.
N2440 G3 X-0.3504 Y-1.1719 I-0.0786 J0.2139
N2445 G1 Y-0.9137
N2450 G3 X-0.3754 Y-0.8887 I-0.025 J0. F25.
N2455 G1 X-0.4004
N2460 G18 G3 X-0.4254 Z0.4541 I0. K0.025
N2465 G0 Z1.0906

(2D Contour20)
N2470 G17
N2475 G1 X-1.3909 Y-1.775 F196.85
N2480 G0 Z1.0906
N2485 Z0.6969
N2490 G1 Z0.5394 F13.123
N2495 Z0.4856
N2500 G18 G2 X-1.3659 Z0.4606 I0.025 K0. F25.
N2505 G1 X-1.3409
N2510 G17 G3 X-1.3159 Y-1.75 I0. J0.025
N2515 G1 Y-1.7175 F0.984
N2520 G3 X-1.3553 Y-1.6781 I-0.0394 J0.
N2525 G1 X-1.6447
N2530 G3 X-1.6841 Y-1.7175 I0. J-0.0394
N2535 G1 Y-1.7825
N2540 G3 X-1.6447 Y-1.8219 I0.0394 J0.
N2545 G1 X-1.3553
N2550 G3 X-1.3159 Y-1.7825 I0. J0.0394
N2555 G1 Y-1.7175
N2560 G3 X-1.3553 Y-1.6781 I-0.0394 J0.
N2565 G1 X-1.6447
N2570 G3 X-1.6841 Y-1.7175 I0. J-0.0394
N2575 G1 Y-1.7825
N2580 G3 X-1.6447 Y-1.8219 I0.0394 J0.
N2585 G1 X-1.3553
N2590 G3 X-1.3159 Y-1.7825 I0. J0.0394
N2595 G1 Y-1.75
N2600 G3 X-1.3409 Y-1.725 I-0.025 J0. F25.
N2605 G1 X-1.3659
N2610 G18 G3 X-1.3909 Z0.4856 I0. K0.025
N2615 G0 Z1.0906
N2620 M9
N2625 M5
N2630 G53 G0 Z0.

(2D Pocket31)
N2635 T10 M6
N2640 S6000 M3
N2645 G17 G90
N2650 G54
N2655 M8
N2660 G1 X-1.3825 Y-1.746 F196.85
N2665 G0 G43 Z1.0906 H10
N2670 T1
N2675 G0 Z0.6969
N2680 G1 Z0.5984 F13.123
N2685 Z0.4669
N2690 X-1.383 Y-1.7454 Z0.4638
N2695 X-1.3839 Y-1.7446 Z0.4626
N2700 X-1.3848 Y-1.7439 Z0.4615
N2705 X-1.3862 Y-1.7434 Z0.461
N2710 X-1.3878 Y-1.7432 Z0.4606
N2715 X-1.6139 F13.2
N2720 X-1.6155 Y-1.7434
N2725 X-1.6169 Y-1.7441
N2730 X-1.6181 Y-1.7453
N2735 X-1.6188 Y-1.7467
N2740 X-1.619 Y-1.7483
N2745 Y-1.7517
N2750 X-1.6188 Y-1.7533
N2755 X-1.6181 Y-1.7547
N2760 X-1.6169 Y-1.7559
N2765 X-1.6155 Y-1.7566
N2770 X-1.6139 Y-1.7568
N2775 X-1.3861
N2780 X-1.3845 Y-1.7566
N2785 X-1.3831 Y-1.7559
N2790 X-1.3819 Y-1.7547
N2795 X-1.3812 Y-1.7533
N2800 X-1.381 Y-1.7517
N2805 Y-1.7483
N2810 X-1.3812 Y-1.7467
N2815 X-1.3819 Y-1.7453
N2820 X-1.3831 Y-1.7441
N2825 X-1.3845 Y-1.7434
N2830 X-1.3861 Y-1.7432
N2835 X-1.3878
N2840 G2 X-1.4131 Y-1.7263 I0. J0.0274
N2845 G3 X-1.4384 Y-1.7094 I-0.0253 J-0.0105
N2850 G1 X-1.6447
N2855 G3 X-1.6528 Y-1.7175 I0. J-0.0081
N2860 G1 Y-1.7825
N2865 G3 X-1.6447 Y-1.7906 I0.0081 J0.
N2870 G1 X-1.3553
N2875 G3 X-1.3472 Y-1.7825 I0. J0.0081
N2880 G1 Y-1.7175
N2885 G3 X-1.3553 Y-1.7094 I-0.0081 J0.
N2890 G1 X-1.4384
N2895 X-1.44 Y-1.7096 Z0.461
N2900 X-1.4414 Y-1.7103 Z0.4615
N2905 X-1.4423 Y-1.7109 Z0.4626
N2910 X-1.4431 Y-1.7118 Z0.4638
N2915 X-1.4436 Y-1.7125 Z0.4669
N2920 G0 Z1.0906
N2925 G1 X-0.482 Y-0.8937 F196.85
N2930 G0 Z0.6969
N2935 G1 Z0.5984 F13.123
N2940 Z0.4275
N2945 X-0.4821 Y-0.8929 Z0.4244
N2950 X-0.4824 Y-0.8918 Z0.4232
N2955 X-0.4828 Y-0.8908 Z0.4221
N2960 X-0.4838 Y-0.8895 Z0.4217
N2965 X-0.485 Y-0.8886 Z0.4213
N2970 X-0.489 Y-0.8861 F13.2
N2975 G3 X-0.511 I-0.011 J-0.0171
N2980 G1 X-0.5165 Y-0.8894
N2985 G3 X-0.5292 Y-0.9116 I0.0128 J-0.0222
N2990 G1 Y-1.0884
N2995 G3 X-0.5165 Y-1.1106 I0.0256 J0.
N3000 G1 X-0.511 Y-1.1139
N3005 G3 X-0.489 I0.011 J0.0171
N3010 G1 X-0.4835 Y-1.1106
N3015 G3 X-0.4708 Y-1.0884 I-0.0128 J0.0222
N3020 G1 Y-0.9116
N3025 G3 X-0.4835 Y-0.8894 I-0.0256 J0.
N3030 G1 X-0.485 Y-0.8886
N3035 G2 X-0.4964 Y-0.8643 I0.0123 J0.0206
N3040 G3 X-0.5198 Y-0.851 I-0.0142 J0.0022
N3045 G2 X-0.5485 Y-0.8676 I-0.0629 J0.076
N3050 G3 X-0.5628 Y-0.888 I0.0076 J-0.0205
N3055 G1 Y-1.112
N3060 G3 X-0.5485 Y-1.1324 I0.0218 J0.
N3065 G2 X-0.5072 Y-1.1616 I-0.0341 J-0.0925
N3070 G3 X-0.4928 I0.0072 J0.006
N3075 G2 X-0.4515 Y-1.1324 I0.0755 J-0.0634
N3080 G3 X-0.4372 Y-1.112 I-0.0076 J0.0205
N3085 G1 Y-0.888
N3090 G3 X-0.4515 Y-0.8676 I-0.0218 J0.
N3095 G2 X-0.4928 Y-0.8384 I0.0341 J0.0925
N3100 G3 X-0.5072 I-0.0072 J-0.006
N3105 G2 X-0.5198 Y-0.851 I-0.0755 J0.0634
N3110 X-0.5522 Y-0.8506 I-0.016 J0.0193
N3115 G3 X-0.5844 Y-0.8471 I-0.0186 J-0.0213
N3120 G1 X-0.585 Y-0.8474
N3125 G3 X-0.5964 Y-0.8668 I0.0108 J-0.0194
N3130 G1 Y-1.1332
N3135 G3 X-0.585 Y-1.1526 I0.0222 J0.
N3140 X-0.5727 Y-1.1584 I0.0471 J0.0846
N3145 X-0.56 Y-1.1631 I0.3145 J0.8164
N3150 G2 X-0.5282 Y-1.1871 I-0.0236 J-0.0643
N3155 X-0.5159 Y-1.225 I-0.052 J-0.0378
N3160 G1 X-0.5177 Y-1.3752
N3165 G3 X-0.5051 Y-1.3877 I0.0126 J0.
N3170 G1 X-0.4949
N3175 G3 X-0.4823 Y-1.3752 I0. J0.0126
N3180 G1 X-0.4841 Y-1.225
N3185 G2 X-0.4718 Y-1.1871 I0.0643 J0.
N3190 X-0.44 Y-1.1631 I0.0554 J-0.0403
N3195 G3 X-0.4273 Y-1.1584 I-0.3018 J0.8212
N3200 X-0.415 Y-1.1526 I-0.0348 J0.0904
N3205 X-0.4036 Y-1.1332 I-0.0108 J0.0194
N3210 G1 Y-0.8668
N3215 G3 X-0.415 Y-0.8474 I-0.0222 J0.
N3220 X-0.4273 Y-0.8416 I-0.0471 J-0.0846
N3225 X-0.44 Y-0.8369 I-0.3147 J-0.8169
N3230 G2 X-0.4718 Y-0.8129 I0.0236 J0.0643
N3235 X-0.4841 Y-0.775 I0.052 J0.0378
N3240 G1 X-0.4823 Y-0.6248
N3245 G3 X-0.4949 Y-0.6123 I-0.0126 J0.
N3250 G1 X-0.5051
N3255 G3 X-0.5177 Y-0.6248 I0. J-0.0126
N3260 G1 X-0.5159 Y-0.775
N3265 G2 X-0.5282 Y-0.8129 I-0.0643 J0.
N3270 X-0.56 Y-0.8369 I-0.0554 J0.0403
N3275 G3 X-0.5727 Y-0.8416 I0.3016 J-0.8206
N3280 X-0.5844 Y-0.8471 I0.0348 J-0.0904
N3285 G2 X-0.608 Y-0.8434 I-0.0094 J0.0172
N3290 G3 X-0.6302 Y-0.8523 I-0.0093 J-0.0089
N3295 G1 Y-1.1628
N3300 G3 X-0.5719 Y-1.1956 I0.1302 J0.1628
N3305 G2 X-0.5514 Y-1.225 I-0.0108 J-0.0293
N3310 G1 Y-1.4201
N3315 X-0.55 Y-1.4215
N3320 X-0.45
N3325 X-0.4486 Y-1.4201
N3330 Y-1.225
N3335 G2 X-0.4281 Y-1.1956 I0.0312 J0.
N3340 G3 X-0.3698 Y-1.1628 I-0.0719 J0.1956
N3345 G1 Y-0.8372
N3350 G3 X-0.4281 Y-0.8044 I-0.1302 J-0.1628
N3355 G2 X-0.4486 Y-0.775 I0.0108 J0.0293
N3360 G1 Y-0.5799
N3365 X-0.45 Y-0.5785
N3370 X-0.55
N3375 X-0.5514 Y-0.5799
N3380 Y-0.775
N3385 G2 X-0.5719 Y-0.8044 I-0.0312 J0.
N3390 G3 X-0.6302 Y-0.8372 I0.0719 J-0.1956
N3395 G1 Y-0.8523
N3400 X-0.6299 Y-0.8538 Z0.4217
N3405 X-0.6293 Y-0.8553 Z0.4221
N3410 X-0.6286 Y-0.8562 Z0.4232
N3415 X-0.6278 Y-0.857 Z0.4244
N3420 X-0.6271 Y-0.8574 Z0.4275
N3425 G0 Z1.0906

N3430 M5
N3435 M9
N3440 G53 G0 Z0.
N3445 X-1.5
N3450 G53 G0 Y0.
N3455 M30

%
