%
O01001 (Automatic CAM Program)
(Using high feed G1 F196.85 instead of G0.)
(T1 D=0.125 CR=0. - ZMIN=0.374 - flat end mill)
(T5 D=0.25 CR=0. TAPER=90deg - ZMIN=0.4291 - spot drill)
(T10 D=0.0625 CR=0. - ZMIN=0.4213 - flat end mill)
N10 G90 G17
N15 G20
N20 G53 G0 Z0.

(2D Pocket3)
N25 T1 M6
N30 S6000 M3
N35 G17 G90
N40 G54
N45 M8
N50 G1 X-2.4994 Y-0.6644 F196.85
N55 G0 G43 Z1.0906 H1
N60 T5
N65 G0 Z0.6969
N70 G1 Z0.5984 F13.123
N75 Z0.4803
N80 X-2.4997 Y-0.6117 F26.4
N85 X-2.5012 Y-0.3237
N90 G2 X-2.4393 Y-0.2608 I0.0625 J0.0003
N95 G1 X-0.5701 Y-0.241
N100 G2 X-0.5069 Y-0.3022 I0.0007 J-0.0625
N105 G1 X-0.5028 Y-0.5066
N110 X-0.5016 Y-0.5658
N115 Z0.4928
N120 G0 Z0.6969
N125 G1 X-0.5006 Y-0.566 F196.85
N130 Z0.5984 F13.123
N135 Z0.4803
N140 X-0.5018 Y-0.5091 F26.4
N145 X-0.5072 Y-0.2398
N150 X-0.5074 Y-0.2394
N155 X-0.5077 Y-0.2393
N160 X-2.502 Y-0.2605
N165 X-2.5024 Y-0.2607
N170 X-2.5025 Y-0.261
N175 X-2.5006 Y-0.6111
N180 X-2.5004 Y-0.665
N185 Z0.4928
N190 G0 Z1.0906
N195 G1 X-0.5024 Y-1.4342 F196.85
N200 G0 Z0.6969
N205 G1 Z0.5984 F13.123
N210 Z0.4803
N215 X-0.5044 Y-1.4942 F26.4
N220 X-0.5067 Y-1.5646
N225 G2 X-0.5678 Y-1.625 I-0.0625 J0.0021
N230 G1 X-1.5007 Y-1.6448
N235 Z0.4928
N240 G0 Z0.6969
N245 G1 X-1.5002 Y-1.6458 F196.85
N250 Z0.5984 F13.123
N255 Z0.4803
N260 X-0.5082 Y-1.6247 F26.4
N265 X-0.5077 Y-1.6242
N270 X-0.5032 Y-1.49
N275 X-0.5014 Y-1.4341
N280 Z0.4928
N285 G0 Z1.0906
N290 G1 X-2.499 Y-1.1169 F196.85
N295 G0 Z0.6969
N300 G1 Z0.525 F13.123
N305 Z0.4534 F26.4
N310 X-2.4987 Y-1.1168 Z0.4507
N315 X-2.4977 Y-1.1167 Z0.448
N320 X-2.4963 Y-1.1165 Z0.4457
N325 X-2.4943 Y-1.1163 Z0.4437
N330 X-2.492 Y-1.116 Z0.4422
N335 X-2.4893 Y-1.1156 Z0.4413
N340 X-2.4866 Y-1.1153 Z0.4409
N345 X-2.4853 Y-1.1151
N350 G3 X-2.5112 Y-1.1155 I-0.0147 J0.1151
N355 G2 X-2.5041 Y-1.1229 I-0.0008 J-0.0078
N360 G1 X-2.5007 Y-1.1813
N365 G3 X-2.4925 Y-1.1887 I0.0079 J0.0005
N370 X-2.3667 Y-0.8662 I-0.0075 J0.1887
N375 X-2.4294 Y-0.8258 I-0.1257 J-0.1263
N380 X-2.5029 Y-0.8129 I-0.0704 J-0.1861
N385 X-2.5732 Y-0.8269 I0.0031 J-0.2
N390 X-2.6333 Y-0.8662 I0.0651 J-0.165
N395 X-2.5016 Y-1.1889 I0.1333 J-0.1338
N400 G2 X-2.4939 Y-1.1975 I-0.0001 J-0.0079
N405 G1 X-2.4992 Y-1.2511
N410 G3 X-2.4911 Y-1.2598 I0.0078 J-0.0008
N415 X-2.3166 Y-0.8158 I-0.0089 J0.2598
N420 X-2.4028 Y-0.7599 I-0.1758 J-0.1765
N425 X-2.504 Y-0.7419 I-0.097 J-0.2518
N430 X-2.6009 Y-0.7614 I0.0042 J-0.2708
N435 X-2.6834 Y-0.8158 I0.0926 J-0.2303
N440 X-2.5004 Y-1.2599 I0.1834 J-0.1842
N445 G2 X-2.4926 Y-1.2687 I0. J-0.0079
N450 G1 X-2.4993 Y-1.326
N455 G3 X-2.4901 Y-1.3346 I0.0078 J-0.0009
N460 G1 X-2.442 Y-1.3261
N465 G3 X-2.5479 Y-1.3277 I-0.058 J0.3261
N470 G1 X-2.4998 Y-1.3348
N475 X-2.4974 Z0.4414
N480 X-2.495 Y-1.3344 Z0.4419
N485 X-2.4931 Y-1.3337 Z0.4433
N490 X-2.4914 Y-1.3327 Z0.4446
N495 X-2.4893 Y-1.3309 Z0.4487
N500 X-2.4887 Y-1.3302 Z0.4534
N505 G0 Z1.0906
N510 G1 X-2.4838 Y-1.0105 F196.85
N515 G0 Z0.6969
N520 G1 Z0.5984 F13.123
N525 Z0.4771
N530 X-2.483 Y-1.01 Z0.4723
N535 X-2.481 Y-1.0081 Z0.4682
N540 X-2.4799 Y-1.0065 Z0.4669
N545 X-2.479 Y-1.0047 Z0.4655
N550 X-2.4783 Y-1.0024 Z0.465
N555 X-2.4781 Y-1. Z0.4646
N560 G3 X-2.522 I-0.0219 J0. F26.4
N565 X-2.4781 I0.0219 J0.
N570 X-2.4937 Y-0.9991 I-0.0079 J0.
N575 G1 X-2.5048 Y-1.0934
N580 G3 X-2.4937 Y-1.1015 I0.0078 J-0.0009
N585 G1 X-2.4607 Y-1.0865
N590 G3 X-2.5366 Y-1.0876 I-0.0393 J0.0865
N595 G1 X-2.5032 Y-1.1016
N600 X-2.502 Y-1.1019
N605 X-2.5009 Y-1.1016
N610 X-2.4999 Y-1.101
N615 X-2.4993 Y-1.1
N620 X-2.4991 Y-1.0988
N625 X-2.4994 Y-1.0845
N630 X-2.4969 Y-1.0141
N635 G3 X-2.5002 Y-1.0194 I-0.0062 J0.0002
N640 G1 X-2.4838 Y-1.0105
N645 Z0.4416 F13.123
N650 X-2.483 Y-1.01 Z0.4369
N655 X-2.481 Y-1.0081 Z0.4328
N660 X-2.4799 Y-1.0065 Z0.4314
N665 X-2.479 Y-1.0047 Z0.4301
N670 X-2.4783 Y-1.0024 Z0.4296
N675 X-2.4781 Y-1. Z0.4291
N680 G3 X-2.522 I-0.0219 J0. F26.4
N685 X-2.4781 I0.0219 J0.
N690 X-2.4937 Y-0.9991 I-0.0079 J0.
N695 G1 X-2.5048 Y-1.0934
N700 G3 X-2.4937 Y-1.1015 I0.0078 J-0.0009
N705 G1 X-2.4607 Y-1.0865
N710 G3 X-2.5366 Y-1.0876 I-0.0393 J0.0865
N715 G1 X-2.5032 Y-1.1016
N720 X-2.5013 Y-1.1022 Z0.4295
N725 X-2.4993 Y-1.1024 Z0.4299
N730 X-2.4976 Y-1.1023 Z0.431
N735 X-2.496 Y-1.1019 Z0.4322
N740 X-2.494 Y-1.101 Z0.4355
N745 X-2.4933 Y-1.1006 Z0.4395
N750 G0 Z1.0906
N755 G1 X-0.4781 Y-1.0968 F196.85
N760 G0 Z0.6969
N765 G1 Z0.5984 F13.123
N770 Z0.4731
N775 X-0.4773 Y-1.0963 Z0.4683
N780 X-0.4754 Y-1.0944 Z0.4643
N785 X-0.4742 Y-1.0928 Z0.4629
N790 X-0.4733 Y-1.091 Z0.4616
N795 X-0.4726 Y-1.0887 Z0.4611
N800 X-0.4724 Y-1.0863 Z0.4606
N805 Y-0.9124 F26.4
N810 G3 X-0.4849 Y-0.8905 I-0.0254 J0.
N815 G1 X-0.489 Y-0.888
N820 G3 X-0.511 I-0.011 J-0.0173
N825 G1 X-0.5151 Y-0.8905
N830 G3 X-0.5276 Y-0.9124 I0.0128 J-0.0219
N835 G1 Y-1.0876
N840 G3 X-0.5151 Y-1.1095 I0.0254 J0.
N845 G1 X-0.511 Y-1.112
N850 G3 X-0.489 I0.011 J0.0173
N855 G1 X-0.4849 Y-1.1095
N860 G3 X-0.4724 Y-1.0876 I-0.0128 J0.0219
N865 G1 Y-1.0863
N870 G2 X-0.4367 Y-1.0329 I0.0579 J0.
N875 G3 X-0.4011 Y-0.9794 I-0.0223 J0.0535
N880 G1 Y-0.853
N885 G3 X-0.4389 Y-0.8337 I-0.0989 J-0.147
N890 G2 X-0.4798 Y-0.775 I0.0216 J0.0587
N895 G1 Y-0.6097
N900 X-0.5202
N905 Y-0.775
N910 G2 X-0.5611 Y-0.8337 I-0.0625 J0.
N915 G3 X-0.5989 Y-0.853 I0.0611 J-0.1663
N920 G1 Y-1.147
N925 G3 X-0.5611 Y-1.1663 I0.0989 J0.147
N930 G2 X-0.5202 Y-1.225 I-0.0216 J-0.0587
N935 G1 Y-1.3903
N940 X-0.4798
N945 Y-1.225
N950 G2 X-0.4389 Y-1.1663 I0.0625 J0.
N955 G3 X-0.4011 Y-1.147 I-0.0611 J0.1663
N960 G1 Y-0.9794
N965 G3 X-0.4118 Y-0.975 I-0.0062 J0.
N970 G1 X-0.4357 Y-1.0001
N975 X-0.4788 Y-1.0803
N980 X-0.4829 Y-1.0932
N985 X-0.483 Y-1.0945
N990 X-0.4827 Y-1.0957
N995 X-0.4818 Y-1.0967
N1000 X-0.4806 Y-1.0973
N1005 X-0.4793
N1010 X-0.4781 Y-1.0968
N1015 Z0.4338 F13.123
N1020 X-0.4773 Y-1.0963 Z0.429
N1025 X-0.4754 Y-1.0944 Z0.4249
N1030 X-0.4742 Y-1.0928 Z0.4236
N1035 X-0.4733 Y-1.091 Z0.4222
N1040 X-0.4726 Y-1.0887 Z0.4217
N1045 X-0.4724 Y-1.0863 Z0.4213
N1050 Y-0.9124 F26.4
N1055 G3 X-0.4849 Y-0.8905 I-0.0254 J0.
N1060 G1 X-0.489 Y-0.888
N1065 G3 X-0.511 I-0.011 J-0.0173
N1070 G1 X-0.5151 Y-0.8905
N1075 G3 X-0.5276 Y-0.9124 I0.0128 J-0.0219
N1080 G1 Y-1.0876
N1085 G3 X-0.5151 Y-1.1095 I0.0254 J0.
N1090 G1 X-0.511 Y-1.112
N1095 G3 X-0.489 I0.011 J0.0173
N1100 G1 X-0.4849 Y-1.1095
N1105 G3 X-0.4724 Y-1.0876 I-0.0128 J0.0219
N1110 G1 Y-1.0863
N1115 G2 X-0.4367 Y-1.0329 I0.0579 J0.
N1120 G3 X-0.4011 Y-0.9794 I-0.0223 J0.0535
N1125 G1 Y-0.853
N1130 G3 X-0.4389 Y-0.8337 I-0.0989 J-0.147
N1135 G2 X-0.4798 Y-0.775 I0.0216 J0.0587
N1140 G1 Y-0.6097
N1145 X-0.5202
N1150 Y-0.775
N1155 G2 X-0.5611 Y-0.8337 I-0.0625 J0.
N1160 G3 X-0.5989 Y-0.853 I0.0611 J-0.1663
N1165 G1 Y-1.147
N1170 G3 X-0.5611 Y-1.1663 I0.0989 J0.147
N1175 G2 X-0.5202 Y-1.225 I-0.0216 J-0.0587
N1180 G1 Y-1.3903
N1185 X-0.4798
N1190 Y-1.225
N1195 G2 X-0.4389 Y-1.1663 I0.0625 J0.
N1200 G3 X-0.4011 Y-1.147 I-0.0611 J0.1663
N1205 G1 Y-0.9794
N1210 X-0.4014 Y-0.977 Z0.4217
N1215 X-0.4021 Y-0.9747 Z0.4222
N1220 X-0.4031 Y-0.973 Z0.4236
N1225 X-0.4044 Y-0.9714 Z0.4249
N1230 X-0.4064 Y-0.9696 Z0.429
N1235 X-0.4072 Y-0.9691 Z0.4338
N1240 G0 Z1.0906

(Trace2)
N1245 G1 X-2.4897 Y-1.6663 F196.85
N1250 G0 Z1.0906
N1255 Z0.6969
N1260 G1 Z0.4213 F13.123
N1265 X-1.4989 Y-1.6453 Z0.4803 F15.4
N1270 Z0.6969
N1275 X-2.4897 Y-1.6663 F196.85
N1280 Z0.4213 F13.123
N1285 X-2.4907 Y-1.6033 F15.4
N1290 X-2.493 Y-1.4525 Z0.374
N1295 X-2.4977 Y-1.1508
N1300 X-2.5 Y-1. Z0.4213
N1305 Z0.6969
N1310 X-2.4897 Y-1.6663 F196.85
N1315 Z0.4213 F13.123
N1320 X-1.4989 Y-1.6453 Z0.4803 F15.4
N1325 Z0.6969
N1330 X-2.4897 Y-1.6663 F196.85
N1335 Z0.4213 F13.123
N1340 X-2.4907 Y-1.6033 F15.4
N1345 X-2.493 Y-1.4525 Z0.374
N1350 X-2.4977 Y-1.1508
N1355 X-2.5 Y-1. Z0.4213
N1360 Z0.6969
N1365 G0 Z1.0906
N1370 M9
N1375 M5
N1380 G53 G0 Z0.

(2D Contour2)
N1385 T5 M6
N1390 S4500 M3
N1395 G17 G90
N1400 G54
N1405 M8
N1410 G1 X-0.4254 Y-0.9387 F196.85
N1415 G0 G43 Z1.0906 H5
N1420 T10
N1425 G0 Z0.6969
N1430 G1 Z0.5394 F13.123
N1435 Z0.4541
N1440 G18 G2 X-0.4004 Z0.4291 I0.025 K0. F25.
N1445 G1 X-0.3754
N1450 G17 G3 X-0.3504 Y-0.9137 I0. J0.025
N1455 G1 Y-0.8281 F0.984
N1460 G3 X-0.4214 Y-0.7861 I-0.1496 J-0.1719
N1465 G2 X-0.4291 Y-0.775 I0.0041 J0.0111
N1470 G1 Y-0.5718
N1475 X-0.4419 Y-0.5591
N1480 X-0.5581
N1485 X-0.5709 Y-0.5718
N1490 Y-0.775
N1495 G2 X-0.5786 Y-0.7861 I-0.0118 J0.
N1500 G3 X-0.6496 Y-0.8281 I0.0786 J-0.2139
N1505 G1 Y-1.1719
N1510 G3 X-0.5786 Y-1.2139 I0.1496 J0.1719
N1515 G2 X-0.5709 Y-1.225 I-0.0041 J-0.0111
N1520 G1 Y-1.4282
N1525 X-0.5581 Y-1.4409
N1530 X-0.4419
N1535 X-0.4291 Y-1.4282
N1540 Y-1.225
N1545 G2 X-0.4214 Y-1.2139 I0.0118 J0.
N1550 G3 X-0.3504 Y-1.1719 I-0.0786 J0.2139
N1555 G1 Y-0.9137
N1560 Y-0.8281
N1565 G3 X-0.4214 Y-0.7861 I-0.1496 J-0.1719
N1570 G2 X-0.4291 Y-0.775 I0.0041 J0.0111
N1575 G1 Y-0.5718
N1580 X-0.4419 Y-0.5591
N1585 X-0.5581
N1590 X-0.5709 Y-0.5718
N1595 Y-0.775
N1600 G2 X-0.5786 Y-0.7861 I-0.0118 J0.
N1605 G3 X-0.6496 Y-0.8281 I0.0786 J-0.2139
N1610 G1 Y-1.1719
N1615 G3 X-0.5786 Y-1.2139 I0.1496 J0.1719
N1620 G2 X-0.5709 Y-1.225 I-0.0041 J-0.0111
N1625 G1 Y-1.4282
N1630 X-0.5581 Y-1.4409
N1635 X-0.4419
N1640 X-0.4291 Y-1.4282
N1645 Y-1.225
N1650 G2 X-0.4214 Y-1.2139 I0.0118 J0.
N1655 G3 X-0.3504 Y-1.1719 I-0.0786 J0.2139
N1660 G1 Y-0.9137
N1665 G3 X-0.3754 Y-0.8887 I-0.025 J0. F25.
N1670 G1 X-0.4004
N1675 G18 G3 X-0.4254 Z0.4541 I0. K0.025
N1680 G0 Z1.0906
N1685 M9
N1690 M5
N1695 G53 G0 Z0.

(2D Pocket4)
N1700 T10 M6
N1705 S6000 M3
N1710 G17 G90
N1715 G54
N1720 M8
N1725 G1 X-0.482 Y-0.8937 F196.85
N1730 G0 G43 Z1.0906 H10
N1735 T1
N1740 G0 Z0.6969
N1745 G1 Z0.5984 F13.123
N1750 Z0.4275
N1755 X-0.4821 Y-0.8929 Z0.4244
N1760 X-0.4824 Y-0.8918 Z0.4232
N1765 X-0.4828 Y-0.8908 Z0.4221
N1770 X-0.4838 Y-0.8895 Z0.4217
N1775 X-0.485 Y-0.8886 Z0.4213
N1780 X-0.489 Y-0.8861 F13.2
N1785 G3 X-0.511 I-0.011 J-0.0171
N1790 G1 X-0.5165 Y-0.8894
N1795 G3 X-0.5292 Y-0.9116 I0.0128 J-0.0222
N1800 G1 Y-1.0884
N1805 G3 X-0.5165 Y-1.1106 I0.0256 J0.
N1810 G1 X-0.511 Y-1.1139
N1815 G3 X-0.489 I0.011 J0.0171
N1820 G1 X-0.4835 Y-1.1106
N1825 G3 X-0.4708 Y-1.0884 I-0.0128 J0.0222
N1830 G1 Y-0.9116
N1835 G3 X-0.4835 Y-0.8894 I-0.0256 J0.
N1840 G1 X-0.485 Y-0.8886
N1845 G2 X-0.4964 Y-0.8643 I0.0123 J0.0206
N1850 G3 X-0.5198 Y-0.851 I-0.0142 J0.0022
N1855 G2 X-0.5485 Y-0.8676 I-0.0629 J0.076
N1860 G3 X-0.5628 Y-0.888 I0.0076 J-0.0205
N1865 G1 Y-1.112
N1870 G3 X-0.5485 Y-1.1324 I0.0218 J0.
N1875 G2 X-0.5072 Y-1.1616 I-0.0341 J-0.0925
N1880 G3 X-0.4928 I0.0072 J0.006
N1885 G2 X-0.4515 Y-1.1324 I0.0755 J-0.0634
N1890 G3 X-0.4372 Y-1.112 I-0.0076 J0.0205
N1895 G1 Y-0.888
N1900 G3 X-0.4515 Y-0.8676 I-0.0218 J0.
N1905 G2 X-0.4928 Y-0.8384 I0.0341 J0.0925
N1910 G3 X-0.5072 I-0.0072 J-0.006
N1915 G2 X-0.5198 Y-0.851 I-0.0755 J0.0634
N1920 X-0.5522 Y-0.8506 I-0.016 J0.0193
N1925 G3 X-0.5844 Y-0.8471 I-0.0186 J-0.0213
N1930 G1 X-0.585 Y-0.8474
N1935 G3 X-0.5964 Y-0.8668 I0.0108 J-0.0194
N1940 G1 Y-1.1332
N1945 G3 X-0.585 Y-1.1526 I0.0222 J0.
N1950 X-0.5727 Y-1.1584 I0.0471 J0.0846
N1955 X-0.56 Y-1.1631 I0.3145 J0.8164
N1960 G2 X-0.5282 Y-1.1871 I-0.0236 J-0.0643
N1965 X-0.5159 Y-1.225 I-0.052 J-0.0378
N1970 G1 X-0.5177 Y-1.3752
N1975 G3 X-0.5051 Y-1.3877 I0.0126 J0.
N1980 G1 X-0.4949
N1985 G3 X-0.4823 Y-1.3752 I0. J0.0126
N1990 G1 X-0.4841 Y-1.225
N1995 G2 X-0.4718 Y-1.1871 I0.0643 J0.
N2000 X-0.44 Y-1.1631 I0.0554 J-0.0403
N2005 G3 X-0.4273 Y-1.1584 I-0.3018 J0.8212
N2010 X-0.415 Y-1.1526 I-0.0348 J0.0904
N2015 X-0.4036 Y-1.1332 I-0.0108 J0.0194
N2020 G1 Y-0.8668
N2025 G3 X-0.415 Y-0.8474 I-0.0222 J0.
N2030 X-0.4273 Y-0.8416 I-0.0471 J-0.0846
N2035 X-0.44 Y-0.8369 I-0.3147 J-0.8169
N2040 G2 X-0.4718 Y-0.8129 I0.0236 J0.0643
N2045 X-0.4841 Y-0.775 I0.052 J0.0378
N2050 G1 X-0.4823 Y-0.6248
N2055 G3 X-0.4949 Y-0.6123 I-0.0126 J0.
N2060 G1 X-0.5051
N2065 G3 X-0.5177 Y-0.6248 I0. J-0.0126
N2070 G1 X-0.5159 Y-0.775
N2075 G2 X-0.5282 Y-0.8129 I-0.0643 J0.
N2080 X-0.56 Y-0.8369 I-0.0554 J0.0403
N2085 G3 X-0.5727 Y-0.8416 I0.3016 J-0.8206
N2090 X-0.5844 Y-0.8471 I0.0348 J-0.0904
N2095 G2 X-0.608 Y-0.8434 I-0.0094 J0.0172
N2100 G3 X-0.6302 Y-0.8523 I-0.0093 J-0.0089
N2105 G1 Y-1.1628
N2110 G3 X-0.5719 Y-1.1956 I0.1302 J0.1628
N2115 G2 X-0.5514 Y-1.225 I-0.0108 J-0.0293
N2120 G1 Y-1.4201
N2125 X-0.55 Y-1.4215
N2130 X-0.45
N2135 X-0.4486 Y-1.4201
N2140 Y-1.225
N2145 G2 X-0.4281 Y-1.1956 I0.0312 J0.
N2150 G3 X-0.3698 Y-1.1628 I-0.0719 J0.1956
N2155 G1 Y-0.8372
N2160 G3 X-0.4281 Y-0.8044 I-0.1302 J-0.1628
N2165 G2 X-0.4486 Y-0.775 I0.0108 J0.0293
N2170 G1 Y-0.5799
N2175 X-0.45 Y-0.5785
N2180 X-0.55
N2185 X-0.5514 Y-0.5799
N2190 Y-0.775
N2195 G2 X-0.5719 Y-0.8044 I-0.0312 J0.
N2200 G3 X-0.6302 Y-0.8372 I0.0719 J-0.1956
N2205 G1 Y-0.8523
N2210 X-0.6299 Y-0.8538 Z0.4217
N2215 X-0.6293 Y-0.8553 Z0.4221
N2220 X-0.6286 Y-0.8562 Z0.4232
N2225 X-0.6278 Y-0.857 Z0.4244
N2230 X-0.6271 Y-0.8574 Z0.4275
N2235 G0 Z1.0906

N2240 M5
N2245 M9
N2250 G53 G0 Z0.
N2255 X-1.5
N2260 G53 G0 Y0.
N2265 M30

%
