%
O10024 (Automatic CAM Program)
(Using high feed G1 F196.85 instead of G0.)
(T1 D=0.125 CR=0. - ZMIN=0.374 - flat end mill)
(T5 D=0.25 CR=0. TAPER=90deg - ZMIN=0.4291 - spot drill)
(T10 D=0.0625 CR=0. - ZMIN=0.4213 - flat end mill)
N10 G90 G17
N15 G20
N20 G53 G0 Z0.

(2D Pocket1)
N25 T1 M6
N30 S6000 M3
N35 G17 G90
N40 G54
N45 M8
N50 G1 X-1.6476 Y-1.4995 F196.85
N55 G0 G43 Z1.0906 H1
N60 T5
N65 G0 Z0.6969
N70 G1 Z0.5984 F13.123
N75 Z0.4803
N80 X-2.5006 F26.4
N85 X-2.5005 Y-1.5001
N90 X-2.5 Y-1.5005
N95 X-1.6975
N100 X-1.6477
N105 Z0.4928
N110 G0 Z1.0906
N115 G1 X-0.4995 Y-0.6627 F196.85
N120 G0 Z0.6969
N125 G1 Z0.5984 F13.123
N130 Z0.4803
N135 Y-0.51 F26.4
N140 X-0.4997 Y-0.5097
N145 X-0.5 Y-0.5095
N150 X-2.5
N155 X-2.5003 Y-0.5096
N160 X-2.5005 Y-0.5098
N165 X-2.5007 Y-0.5105
N170 X-0.563
N175 G2 X-0.5005 Y-0.573 I0. J-0.0625
N180 G1 Y-0.6626
N185 Z0.4928
N190 G0 Z1.0906
N195 G1 X-1.3523 Y-1.5055 F196.85
N200 G0 Z0.6969
N205 G1 Z0.5984 F13.123
N210 Z0.4803
N215 X-0.9239 F26.4
N220 Z0.4928
N225 G0 Z0.6969
N230 Y-1.5045
N235 G1 Z0.5984 F13.123
N240 Z0.4803
N245 X-1.2999 F26.4
N250 X-1.3524
N255 Z0.4928
N260 G0 Z1.0906
N265 G1 X-1.6122 Y-1.4887 F196.85
N270 G0 Z0.6969
N275 G1 Z0.5984 F13.123
N280 Z0.4606
N285 X-1.6235 F26.4
N290 Y-1.5113
N295 X-1.3765
N300 Y-1.4887
N305 X-1.6122
N310 X-1.6144 Y-1.4889 Z0.4611
N315 X-1.6164 Y-1.4896 Z0.4615
N320 X-1.618 Y-1.4905 Z0.4627
N325 X-1.6195 Y-1.4916 Z0.4639
N330 X-1.621 Y-1.4935 Z0.4676
N335 X-1.6215 Y-1.4942 Z0.4719
N340 G0 Z1.0906
N345 G1 X-0.5043 Y-1.1058 F196.85
N350 G0 Z0.6969
N355 G1 Z0.525 F13.123
N360 Z0.4534 F26.4
N365 X-0.5042 Y-1.1061 Z0.4507
N370 X-0.5039 Y-1.107 Z0.448
N375 X-0.5034 Y-1.1084 Z0.4457
N380 X-0.5028 Y-1.1103 Z0.4437
N385 X-0.5021 Y-1.1126 Z0.4422
N390 X-0.5013 Y-1.1151 Z0.4413
N395 X-0.5004 Y-1.1177 Z0.4409
N400 X-0.5 Y-1.118
N405 G3 Y-0.882 I0. J0.118
N410 Y-1.118 I0. J-0.118
N415 G2 X-0.4923 Y-1.1274 I0. J-0.0079
N420 G1 X-0.5031 Y-1.1814
N425 G3 X-0.4952 Y-1.1908 I0.0077 J-0.0016
N430 X-0.3653 Y-0.8648 I-0.0048 J0.1908
N435 X-0.4273 Y-0.8245 I-0.1268 J-0.1274
N440 X-0.5727 I-0.0727 J-0.1879
N445 X-0.6347 Y-0.8648 I0.0648 J-0.1676
N450 X-0.5046 Y-1.1908 I0.1347 J-0.1352
N455 G2 X-0.497 Y-1.1996 I-0.0002 J-0.0079
N460 G1 X-0.5032 Y-1.2531
N465 G3 X-0.4952 Y-1.2619 I0.0078 J-0.0009
N470 X-0.3152 Y-0.8144 I-0.0048 J0.2619
N475 X-0.4002 Y-0.7588 I-0.1769 J-0.1776
N480 X-0.5998 I-0.0998 J-0.2534
N485 X-0.6848 Y-0.8144 I0.0919 J-0.2332
N490 X-0.5048 Y-1.2619 I0.1848 J-0.1856
N495 G2 X-0.4971 Y-1.2707 I-0.0001 J-0.0079
N500 G1 X-0.5044 Y-1.328
N505 G3 X-0.4953 Y-1.3367 I0.0078 J-0.001
N510 G1 X-0.447 Y-1.3289
N515 G3 X-0.553 I-0.053 J0.3289
N520 G1 X-0.505 Y-1.3367
N525 X-0.5026 Y-1.3368 Z0.4414
N530 X-0.5002 Y-1.3364 Z0.4419
N535 X-0.4983 Y-1.3357 Z0.4433
N540 X-0.4965 Y-1.3347 Z0.4446
N545 X-0.4945 Y-1.333 Z0.4487
N550 X-0.4939 Y-1.3323 Z0.4534
N555 G0 Z1.0906
N560 G1 X-0.4838 Y-1.0105 F196.85
N565 G0 Z0.6969
N570 G1 Z0.5984 F13.123
N575 Z0.4771
N580 X-0.483 Y-1.01 Z0.4723
N585 X-0.481 Y-1.0081 Z0.4682
N590 X-0.4799 Y-1.0065 Z0.4669
N595 X-0.479 Y-1.0047 Z0.4655
N600 X-0.4783 Y-1.0024 Z0.465
N605 X-0.478 Y-1. Z0.4646
N610 G3 X-0.522 I-0.022 J0. F26.4
N615 X-0.478 I0.022 J0.
N620 X-0.4937 Y-0.999 I-0.0079 J0.
N625 G1 X-0.5062 Y-1.0933
N630 G3 X-0.4953 Y-1.1016 I0.0078 J-0.001
N635 G1 X-0.462 Y-1.0871
N640 G3 X-0.538 I-0.038 J0.0871
N645 G1 X-0.5047 Y-1.1016
N650 X-0.5036 Y-1.1018
N655 X-0.5024 Y-1.1016
N660 X-0.5015 Y-1.1009
N665 X-0.5008 Y-1.1
N670 X-0.5006 Y-1.0988
N675 X-0.5007 Y-1.0845
N680 X-0.4971 Y-1.0141
N685 G3 X-0.5004 Y-1.0193 I-0.0062 J0.0003
N690 G1 X-0.4838 Y-1.0105
N695 Z0.4416 F13.123
N700 X-0.483 Y-1.01 Z0.4369
N705 X-0.481 Y-1.0081 Z0.4328
N710 X-0.4799 Y-1.0065 Z0.4314
N715 X-0.479 Y-1.0047 Z0.4301
N720 X-0.4783 Y-1.0024 Z0.4296
N725 X-0.478 Y-1. Z0.4291
N730 G3 X-0.522 I-0.022 J0. F26.4
N735 X-0.478 I0.022 J0.
N740 X-0.4937 Y-0.999 I-0.0079 J0.
N745 G1 X-0.5062 Y-1.0933
N750 G3 X-0.4953 Y-1.1016 I0.0078 J-0.001
N755 G1 X-0.462 Y-1.0871
N760 G3 X-0.538 I-0.038 J0.0871
N765 G1 X-0.5047 Y-1.1016
N770 X-0.5029 Y-1.1022 Z0.4295
N775 X-0.5009 Y-1.1024 Z0.4299
N780 X-0.4992 Y-1.1023 Z0.431
N785 X-0.4976 Y-1.102 Z0.4322
N790 X-0.4955 Y-1.1011 Z0.4355
N795 X-0.4949 Y-1.1007 Z0.4395
N800 G0 Z1.0906
N805 G1 X-2.4582 Y-1.0995 F196.85
N810 G0 Z0.6969
N815 G1 Z0.5984 F13.123
N820 Z0.4731
N825 X-2.4574 Y-1.0989 Z0.4683
N830 X-2.4554 Y-1.0971 Z0.4643
N835 X-2.4542 Y-1.0954 Z0.4629
N840 X-2.4533 Y-1.0936 Z0.4616
N845 X-2.4526 Y-1.0913 Z0.4611
N850 X-2.4524 Y-1.0889 Z0.4606
N855 Y-0.8989 F26.4
N860 G3 X-2.465 Y-0.877 I-0.0254 J0.
N865 G2 X-2.4919 Y-0.8562 I0.0676 J0.1155
N870 G3 X-2.5081 I-0.0081 J-0.0081
N875 G2 X-2.535 Y-0.877 I-0.0945 J0.0947
N880 G3 X-2.5476 Y-0.8989 I0.0128 J-0.0219
N885 G1 Y-1.1011
N890 G3 X-2.535 Y-1.123 I0.0254 J0.
N895 G2 X-2.5081 Y-1.1438 I-0.0676 J-0.1155
N900 G3 X-2.4919 I0.0081 J0.0081
N905 G2 X-2.465 Y-1.123 I0.0945 J-0.0947
N910 G3 X-2.4524 Y-1.1011 I-0.0128 J0.0219
N915 G1 Y-1.0889
N920 G2 X-2.4168 Y-1.0355 I0.0579 J0.
N925 G3 X-2.3811 Y-0.982 I-0.0223 J0.0535
N930 G1 Y-0.8427
N935 G3 X-2.4221 Y-0.8189 I-0.1189 J-0.1573
N940 G2 X-2.4599 Y-0.7615 I0.0247 J0.0574
N945 G1 Y-0.5898
N950 X-2.5401
N955 Y-0.7615
N960 G2 X-2.5779 Y-0.8189 I-0.0625 J0.
N965 G3 X-2.6189 Y-0.8427 I0.0779 J-0.1811
N970 G1 Y-1.1573
N975 G3 X-2.5779 Y-1.1811 I0.1189 J0.1573
N980 G2 X-2.5401 Y-1.2385 I-0.0247 J-0.0574
N985 G1 Y-1.4102
N990 X-2.4599
N995 Y-1.2385
N1000 G2 X-2.4221 Y-1.1811 I0.0625 J0.
N1005 G3 X-2.3811 Y-1.1573 I-0.0779 J0.1811
N1010 G1 Y-0.982
N1015 G3 X-2.3904 Y-0.9785 I-0.0053 J0.
N1020 G1 X-2.4053 Y-0.9955
N1025 X-2.4583 Y-1.0819
N1030 X-2.4633 Y-1.0954
N1035 X-2.4635 Y-1.0968
N1040 X-2.4631 Y-1.0982
N1045 X-2.4622 Y-1.0993
N1050 X-2.4609 Y-1.0999
N1055 X-2.4595 Y-1.1
N1060 X-2.4582 Y-1.0995
N1065 Z0.4338 F13.123
N1070 X-2.4574 Y-1.0989 Z0.429
N1075 X-2.4554 Y-1.0971 Z0.4249
N1080 X-2.4542 Y-1.0954 Z0.4236
N1085 X-2.4533 Y-1.0936 Z0.4222
N1090 X-2.4526 Y-1.0913 Z0.4217
N1095 X-2.4524 Y-1.0889 Z0.4213
N1100 Y-0.8989 F26.4
N1105 G3 X-2.465 Y-0.877 I-0.0254 J0.
N1110 G2 X-2.4919 Y-0.8562 I0.0676 J0.1155
N1115 G3 X-2.5081 I-0.0081 J-0.0081
N1120 G2 X-2.535 Y-0.877 I-0.0945 J0.0947
N1125 G3 X-2.5476 Y-0.8989 I0.0128 J-0.0219
N1130 G1 Y-1.1011
N1135 G3 X-2.535 Y-1.123 I0.0254 J0.
N1140 G2 X-2.5081 Y-1.1438 I-0.0676 J-0.1155
N1145 G3 X-2.4919 I0.0081 J0.0081
N1150 G2 X-2.465 Y-1.123 I0.0945 J-0.0947
N1155 G3 X-2.4524 Y-1.1011 I-0.0128 J0.0219
N1160 G1 Y-1.0889
N1165 G2 X-2.4168 Y-1.0355 I0.0579 J0.
N1170 G3 X-2.3811 Y-0.982 I-0.0223 J0.0535
N1175 G1 Y-0.8427
N1180 G3 X-2.4221 Y-0.8189 I-0.1189 J-0.1573
N1185 G2 X-2.4599 Y-0.7615 I0.0247 J0.0574
N1190 G1 Y-0.5898
N1195 X-2.5401
N1200 Y-0.7615
N1205 G2 X-2.5779 Y-0.8189 I-0.0625 J0.
N1210 G3 X-2.6189 Y-0.8427 I0.0779 J-0.1811
N1215 G1 Y-1.1573
N1220 G3 X-2.5779 Y-1.1811 I0.1189 J0.1573
N1225 G2 X-2.5401 Y-1.2385 I-0.0247 J-0.0574
N1230 G1 Y-1.4102
N1235 X-2.4599
N1240 Y-1.2385
N1245 G2 X-2.4221 Y-1.1811 I0.0625 J0.
N1250 G3 X-2.3811 Y-1.1573 I-0.0779 J0.1811
N1255 G1 Y-0.982
N1260 X-2.3814 Y-0.9796 Z0.4217
N1265 X-2.3822 Y-0.9774 Z0.4222
N1270 X-2.3831 Y-0.9756 Z0.4236
N1275 X-2.3844 Y-0.974 Z0.4249
N1280 X-2.3864 Y-0.9722 Z0.429
N1285 X-2.3872 Y-0.9717 Z0.4338
N1290 G0 Z1.0906

(Trace1)
N1295 G1 X-0.5 Y-1.505 F196.85
N1300 G0 Z1.0906
N1305 Z0.6969
N1310 G1 Z0.4213 F13.123
N1315 X-0.9311 Z0.4803 F15.4
N1320 Z0.6969
N1325 G0 X-0.5
N1330 G1 Z0.4213 F13.123
N1335 Y-1.442 F15.4
N1340 Y-1.3315 Z0.374
N1345 Y-1.1105
N1350 Y-1. Z0.4213
N1355 Z0.6969
N1360 G0 Y-1.505
N1365 G1 Z0.4213 F13.123
N1370 X-0.9311 Z0.4803 F15.4
N1375 Z0.6969
N1380 G0 X-0.5
N1385 G1 Z0.4213 F13.123
N1390 Y-1.442 F15.4
N1395 Y-1.3315 Z0.374
N1400 Y-1.1105
N1405 Y-1. Z0.4213
N1410 Z0.6969
N1415 G0 Z1.0906
N1420 M9
N1425 M5
N1430 G53 G0 Z0.

(2D Contour1)
N1435 T5 M6
N1440 S4500 M3
N1445 G17 G90
N1450 G54
N1455 M8
N1460 G1 X-1.5872 Y-1.5012 F196.85
N1465 G0 G43 Z1.0906 H5
N1470 T10
N1475 G0 Z0.6969
N1480 G1 Z0.5394 F13.123
N1485 Z0.4856
N1490 G19 G3 Y-1.4762 Z0.4606 J0.025 K0. F25.
N1495 G1 Y-1.4512
N1500 G17 G3 X-1.6122 Y-1.4262 I-0.025 J0.
N1505 G1 X-1.6447
N1510 G3 X-1.686 Y-1.4675 I0. J-0.0413
N1515 G1 Y-1.5325
N1520 G3 X-1.6447 Y-1.5738 I0.0413 J0.
N1525 G1 X-1.3553
N1530 G3 X-1.314 Y-1.5325 I0. J0.0413
N1535 G1 Y-1.4675
N1540 G3 X-1.3553 Y-1.4262 I-0.0413 J0.
N1545 G1 X-1.6122
N1550 X-1.6447
N1555 G3 X-1.686 Y-1.4675 I0. J-0.0413
N1560 G1 Y-1.5325
N1565 G3 X-1.6447 Y-1.5738 I0.0413 J0.
N1570 G1 X-1.3553
N1575 G3 X-1.314 Y-1.5325 I0. J0.0413
N1580 G1 Y-1.4675
N1585 G3 X-1.3553 Y-1.4262 I-0.0413 J0.
N1590 G1 X-1.6122
N1595 G3 X-1.6372 Y-1.4512 I0. J-0.025
N1600 G1 Y-1.4762
N1605 G19 G2 Y-1.5012 Z0.4856 J0. K0.025
N1610 G0 Z1.0906

(2D Contour2)
N1615 G17
N1620 G1 X-2.4054 Y-1.1139 F196.85
N1625 G0 Z1.0906
N1630 Z0.6969
N1635 G1 Z0.5394 F13.123
N1640 Z0.4541
N1645 G18 G2 X-2.3804 Z0.4291 I0.025 K0. F25.
N1650 G1 X-2.3554
N1655 G17 G3 X-2.3304 Y-1.0889 I0. J0.025
N1660 G1 Y-0.8193
N1665 G3 X-2.402 Y-0.7724 I-0.1696 J-0.1807
N1670 G2 X-2.4092 Y-0.7615 I0.0047 J0.0108
N1675 G1 Y-0.5635
N1680 X-2.4336 Y-0.5391
N1685 X-2.5664
N1690 X-2.5908 Y-0.5635
N1695 Y-0.7615
N1700 G2 X-2.598 Y-0.7724 I-0.0118 J0.
N1705 G3 X-2.6696 Y-0.8193 I0.098 J-0.2276
N1710 G1 Y-1.1807
N1715 G3 X-2.598 Y-1.2276 I0.1696 J0.1807
N1720 G2 X-2.5908 Y-1.2385 I-0.0047 J-0.0108
N1725 G1 Y-1.4365
N1730 X-2.5664 Y-1.4609
N1735 X-2.4336
N1740 X-2.4092 Y-1.4365
N1745 Y-1.2385
N1750 G2 X-2.402 Y-1.2276 I0.0118 J0.
N1755 G3 X-2.3304 Y-1.1807 I-0.098 J0.2276
N1760 G1 Y-0.8193
N1765 G3 X-2.402 Y-0.7724 I-0.1696 J-0.1807
N1770 G2 X-2.4092 Y-0.7615 I0.0047 J0.0108
N1775 G1 Y-0.5635
N1780 X-2.4336 Y-0.5391
N1785 X-2.5664
N1790 X-2.5908 Y-0.5635
N1795 Y-0.7615
N1800 G2 X-2.598 Y-0.7724 I-0.0118 J0.
N1805 G3 X-2.6696 Y-0.8193 I0.098 J-0.2276
N1810 G1 Y-1.1807
N1815 G3 X-2.598 Y-1.2276 I0.1696 J0.1807
N1820 G2 X-2.5908 Y-1.2385 I-0.0047 J-0.0108
N1825 G1 Y-1.4365
N1830 X-2.5664 Y-1.4609
N1835 X-2.4336
N1840 X-2.4092 Y-1.4365
N1845 Y-1.2385
N1850 G2 X-2.402 Y-1.2276 I0.0118 J0.
N1855 G3 X-2.3304 Y-1.1807 I-0.098 J0.2276
N1860 G1 Y-1.0889
N1865 G3 X-2.3554 Y-1.0639 I-0.025 J0.
N1870 G1 X-2.3804
N1875 G18 G3 X-2.4054 Z0.4541 I0. K0.025
N1880 G0 Z1.0906
N1885 M9
N1890 M5
N1895 G53 G0 Z0.

(2D Pocket2)
N1900 T10 M6
N1905 S6000 M3
N1910 G17 G90
N1915 G54
N1920 M8
N1925 G1 X-1.3839 Y-1.5053 F196.85
N1930 G0 G43 Z1.0906 H10
N1935 T1
N1940 G0 Z0.6969
N1945 G1 Z0.5984 F13.123
N1950 Z0.4669
N1955 X-1.3832 Y-1.5048 Z0.4638
N1960 X-1.3824 Y-1.5039 Z0.4626
N1965 X-1.3818 Y-1.503 Z0.4615
N1970 X-1.3812 Y-1.5015 Z0.461
N1975 X-1.381 Y-1.5 Z0.4606
N1980 G3 X-1.3898 Y-1.4912 I-0.0088 J0. F13.2
N1985 G1 X-1.6141
N1990 X-1.6159 Y-1.4914
N1995 X-1.6176 Y-1.4921
N2000 X-1.619 Y-1.4932
N2005 X-1.6201 Y-1.4946
N2010 X-1.6208 Y-1.4963
N2015 X-1.621 Y-1.4981
N2020 Y-1.5019
N2025 X-1.6208 Y-1.5037
N2030 X-1.6201 Y-1.5054
N2035 X-1.619 Y-1.5068
N2040 X-1.6176 Y-1.5079
N2045 X-1.6159 Y-1.5086
N2050 X-1.6141 Y-1.5088
N2055 X-1.3898
N2060 G3 X-1.381 Y-1.5 I0. J0.0088
N2065 G2 X-1.371 Y-1.4792 I0.0265 J0.
N2070 G3 X-1.3786 Y-1.4574 I-0.0076 J0.0096
N2075 G1 X-1.6447
N2080 G3 X-1.6548 Y-1.4675 I0. J-0.0101
N2085 G1 Y-1.5325
N2090 G3 X-1.6447 Y-1.5426 I0.0101 J0.
N2095 G1 X-1.3553
N2100 G3 X-1.3452 Y-1.5325 I0. J0.0101
N2105 G1 Y-1.4675
N2110 G3 X-1.3553 Y-1.4574 I-0.0101 J0.
N2115 G1 X-1.3786
N2120 X-1.3801 Y-1.4577 Z0.461
N2125 X-1.3816 Y-1.4583 Z0.4615
N2130 X-1.3825 Y-1.459 Z0.4626
N2135 X-1.3833 Y-1.4598 Z0.4638
N2140 X-1.3837 Y-1.4605 Z0.4669
N2145 G0 Z1.0906
N2150 G1 X-2.4868 Y-1.0942 F196.85
N2155 G0 Z0.6969
N2160 G1 Z0.5984 F13.123
N2165 Z0.4275
N2170 X-2.4861 Y-1.0937 Z0.4244
N2175 X-2.4853 Y-1.0929 Z0.4232
N2180 X-2.4847 Y-1.0919 Z0.4221
N2185 X-2.4841 Y-1.0905 Z0.4217
N2190 X-2.4839 Y-1.0889 Z0.4213
N2195 Y-0.9091 F13.2
N2200 G3 X-2.4894 Y-0.8988 I-0.0124 J0.
N2205 G1 X-2.4928 Y-0.8964
N2210 G3 X-2.5072 I-0.0072 J-0.0101
N2215 G1 X-2.5106 Y-0.8988
N2220 G3 X-2.5161 Y-0.9091 I0.0069 J-0.0103
N2225 G1 Y-1.0909
N2230 G3 X-2.5106 Y-1.1012 I0.0124 J0.
N2235 G1 X-2.5072 Y-1.1036
N2240 G3 X-2.4928 I0.0072 J0.0101
N2245 G1 X-2.4894 Y-1.1012
N2250 G3 X-2.4839 Y-1.0909 I-0.0069 J0.0103
N2255 G1 Y-1.0889
N2260 G2 X-2.4671 Y-1.0638 I0.0273 J0.
N2265 G3 X-2.4503 Y-1.0386 I-0.0105 J0.0252
N2270 G1 Y-0.8978
N2275 G3 X-2.4631 Y-0.8756 I-0.0255 J0.
N2280 G2 X-2.4919 Y-0.8532 I0.0658 J0.1141
N2285 G3 X-2.5081 I-0.0081 J-0.0079
N2290 G2 X-2.5369 Y-0.8756 I-0.0945 J0.0917
N2295 G3 X-2.5497 Y-0.8978 I0.0127 J-0.0221
N2300 G1 Y-1.1022
N2305 G3 X-2.5369 Y-1.1244 I0.0255 J0.
N2310 G2 X-2.5081 Y-1.1468 I-0.0658 J-0.1141
N2315 G3 X-2.4919 I0.0081 J0.0079
N2320 G2 X-2.4631 Y-1.1244 I0.0945 J-0.0917
N2325 G3 X-2.4503 Y-1.1022 I-0.0127 J0.0221
N2330 G1 Y-1.0386
N2335 G2 X-2.4336 Y-1.0134 I0.0273 J0.
N2340 G3 X-2.4168 Y-0.9883 I-0.0105 J0.0252
N2345 G1 Y-0.8748
N2350 G3 X-2.4293 Y-0.8548 I-0.0222 J0.
N2355 G1 X-2.4327 Y-0.8533
N2360 X-2.4363 Y-0.8519
N2365 G2 X-2.4803 Y-0.8159 I0.0408 J0.0948
N2370 X-2.4973 Y-0.7615 I0.0785 J0.0543
N2375 G1 X-2.4955 Y-0.6292
N2380 X-2.4958 Y-0.6278
N2385 X-2.4966 Y-0.6266
N2390 X-2.4979 Y-0.6257
N2395 X-2.4993 Y-0.6254
N2400 X-2.5007
N2405 X-2.5021 Y-0.6257
N2410 X-2.5034 Y-0.6266
N2415 X-2.5042 Y-0.6278
N2420 X-2.5045 Y-0.6292
N2425 G3 X-2.5036 Y-0.6954 I2.4694 J0.
N2430 G2 X-2.5027 Y-0.7615 I-2.4685 J-0.0661
N2435 X-2.5197 Y-0.8159 I-0.0954 J0.
N2440 X-2.5637 Y-0.8519 I-0.0849 J0.0588
N2445 G1 X-2.5673 Y-0.8533
N2450 X-2.5707 Y-0.8548
N2455 G3 X-2.5832 Y-0.8748 I0.0097 J-0.02
N2460 G1 Y-1.1252
N2465 G3 X-2.5707 Y-1.1452 I0.0222 J0.
N2470 G1 X-2.5673 Y-1.1467
N2475 X-2.5637 Y-1.1481
N2480 G2 X-2.5197 Y-1.1841 I-0.0408 J-0.0948
N2485 X-2.5027 Y-1.2385 I-0.0785 J-0.0543
N2490 G1 X-2.5045 Y-1.3708
N2495 X-2.5042 Y-1.3722
N2500 X-2.5034 Y-1.3734
N2505 X-2.5021 Y-1.3743
N2510 X-2.5007 Y-1.3746
N2515 X-2.4993
N2520 X-2.4979 Y-1.3743
N2525 X-2.4966 Y-1.3734
N2530 X-2.4958 Y-1.3722
N2535 X-2.4955 Y-1.3708
N2540 X-2.4973 Y-1.2385
N2545 G2 X-2.4803 Y-1.1841 I0.0954 J0.
N2550 X-2.4363 Y-1.1481 I0.0849 J-0.0588
N2555 G1 X-2.4327 Y-1.1467
N2560 X-2.4293 Y-1.1452
N2565 G3 X-2.4168 Y-1.1252 I-0.0097 J0.02
N2570 G1 Y-0.9883
N2575 G2 X-2.4002 Y-0.9634 I0.0269 J0.
N2580 G3 X-2.3836 Y-0.9385 I-0.0104 J0.0249
N2585 G1 Y-0.8597
N2590 G3 X-2.3977 Y-0.8344 I-0.0297 J0.
N2595 X-2.4103 Y-0.8278 I-0.0552 J-0.0894
N2600 X-2.4234 Y-0.822 I-0.5277 J-1.1899
N2605 G2 X-2.4528 Y-0.7979 I0.0271 J0.0631
N2610 X-2.4641 Y-0.7615 I0.0529 J0.0364
N2615 G1 X-2.4624 Y-0.6049
N2620 G3 X-2.4749 Y-0.5923 I-0.0126 J0.
N2625 G1 X-2.5251
N2630 G3 X-2.5376 Y-0.6049 I0. J-0.0126
N2635 G1 X-2.5359 Y-0.7615
N2640 G2 X-2.5472 Y-0.7979 I-0.0642 J0.
N2645 X-2.5766 Y-0.822 I-0.0566 J0.0389
N2650 G3 X-2.5897 Y-0.8278 I0.5149 J-1.1965
N2655 X-2.6023 Y-0.8344 I0.0426 J-0.096
N2660 X-2.6164 Y-0.8597 I0.0156 J-0.0253
N2665 G1 Y-1.1403
N2670 G3 X-2.6023 Y-1.1656 I0.0297 J0.
N2675 X-2.5897 Y-1.1722 I0.0552 J0.0894
N2680 X-2.5766 Y-1.178 I0.5277 J1.1899
N2685 G2 X-2.5472 Y-1.2021 I-0.0271 J-0.0631
N2690 X-2.5359 Y-1.2385 I-0.0529 J-0.0364
N2695 G1 X-2.5376 Y-1.3951
N2700 G3 X-2.5251 Y-1.4077 I0.0126 J0.
N2705 G1 X-2.4749
N2710 G3 X-2.4624 Y-1.3951 I0. J0.0126
N2715 G1 X-2.4641 Y-1.2385
N2720 G2 X-2.4528 Y-1.2021 I0.0642 J0.
N2725 X-2.4234 Y-1.178 I0.0566 J-0.0389
N2730 G3 X-2.4103 Y-1.1722 I-0.5145 J1.1954
N2735 X-2.3977 Y-1.1656 I-0.0426 J0.096
N2740 X-2.3836 Y-1.1403 I-0.0156 J0.0253
N2745 G1 Y-0.9385
N2750 G2 X-2.3667 Y-0.9132 I0.0274 J0.
N2755 G3 X-2.3499 Y-0.8879 I-0.0106 J0.0253
N2760 G1 Y-0.8279
N2765 G3 X-2.4097 Y-0.7902 I-0.1501 J-0.1721
N2770 G2 X-2.4286 Y-0.7615 I0.0124 J0.0287
N2775 G1 Y-0.5716
N2780 X-2.4417 Y-0.5585
N2785 X-2.5583
N2790 X-2.5714 Y-0.5716
N2795 Y-0.7615
N2800 G2 X-2.5903 Y-0.7902 I-0.0312 J0.
N2805 G3 X-2.6501 Y-0.8279 I0.0903 J-0.2098
N2810 G1 Y-1.1721
N2815 G3 X-2.5903 Y-1.2098 I0.1501 J0.1721
N2820 G2 X-2.5714 Y-1.2385 I-0.0124 J-0.0287
N2825 G1 Y-1.4284
N2830 X-2.5583 Y-1.4415
N2835 X-2.4417
N2840 X-2.4286 Y-1.4284
N2845 Y-1.2385
N2850 G2 X-2.4097 Y-1.2098 I0.0313 J0.
N2855 G3 X-2.3499 Y-1.1721 I-0.0903 J0.2098
N2860 G1 Y-0.8879
N2865 X-2.3501 Y-0.8863 Z0.4217
N2870 X-2.3507 Y-0.8849 Z0.4221
N2875 X-2.3514 Y-0.884 Z0.4232
N2880 X-2.3522 Y-0.8832 Z0.4244
N2885 X-2.3529 Y-0.8827 Z0.4275
N2890 G0 Z1.0906

N2895 M5
N2900 M9
N2905 G53 G0 Z0.
N2910 X-1.5
N2915 G53 G0 Y0.
M98 P9004
N2920 M30

%
