%
O10011 (Automatic CAM Program)
(Using high feed G1 F196.85 instead of G0.)
(T1 D=0.125 CR=0. - ZMIN=0.374 - flat end mill)
(T5 D=0.25 CR=0. TAPER=90deg - ZMIN=0.4291 - spot drill)
(T10 D=0.0625 CR=0. - ZMIN=0.4213 - flat end mill)
N10 G90 G17
N15 G20
N20 G53 G0 Z0.

(2D Pocket1)
N25 T1 M6
N30 S6000 M3
N35 G17 G90
N40 G54
N45 M8
N50 G1 X-1.6478 Y-1.4995 F196.85
N55 G0 G43 Z1.0906 H1
N60 T5
N65 G0 Z0.6969
N70 G1 Z0.5984 F13.123
N75 Z0.4803
N80 X-2.5005 F26.4
N85 Y-1.5
N90 X-2.5003 Y-1.5003
N95 X-2.5 Y-1.5005
N100 X-1.6975
N105 X-1.6477
N110 Z0.4928
N115 G0 Z1.0906
N120 G1 X-0.4995 Y-0.6625 F196.85
N125 G0 Z0.6969
N130 G1 Z0.5984 F13.123
N135 Z0.4803
N140 Y-0.51 F26.4
N145 X-0.4997 Y-0.5097
N150 X-0.5 Y-0.5095
N155 X-2.5
N160 X-2.5005 Y-0.51
N165 Y-0.5105
N170 X-0.563
N175 G2 X-0.5005 Y-0.573 I0. J-0.0625
N180 G1 Y-0.6626
N185 Z0.4928
N190 G0 Z1.0906
N195 G1 X-1.3523 Y-1.5055 F196.85
N200 G0 Z0.6969
N205 G1 Z0.5984 F13.123
N210 Z0.4803
N215 X-0.9239 F26.4
N220 Z0.4928
N225 G0 Z0.6969
N230 Y-1.5045
N235 G1 Z0.5984 F13.123
N240 Z0.4803
N245 X-1.2999 F26.4
N250 X-1.3524
N255 Z0.4928
N260 G0 Z1.0906
N265 G1 X-1.6122 Y-1.4887 F196.85
N270 G0 Z0.6969
N275 G1 Z0.5984 F13.123
N280 Z0.4606
N285 X-1.6235 F26.4
N290 Y-1.5113
N295 X-1.3765
N300 Y-1.4887
N305 X-1.6122
N310 X-1.6144 Y-1.4889 Z0.4611
N315 X-1.6164 Y-1.4896 Z0.4615
N320 X-1.618 Y-1.4905 Z0.4627
N325 X-1.6195 Y-1.4916 Z0.4639
N330 X-1.621 Y-1.4935 Z0.4676
N335 X-1.6215 Y-1.4942 Z0.4719
N340 G0 Z1.0906
N345 G1 X-0.5043 Y-1.1058 F196.85
N350 G0 Z0.6969
N355 G1 Z0.525 F13.123
N360 Z0.4534 F26.4
N365 X-0.5042 Y-1.1061 Z0.4507
N370 X-0.5039 Y-1.107 Z0.448
N375 X-0.5034 Y-1.1084 Z0.4457
N380 X-0.5028 Y-1.1103 Z0.4437
N385 X-0.5021 Y-1.1126 Z0.4422
N390 X-0.5013 Y-1.1151 Z0.4413
N395 X-0.5004 Y-1.1177 Z0.4409
N400 X-0.5 Y-1.118
N405 G3 Y-0.882 I0. J0.118
N410 Y-1.118 I0. J-0.118
N415 G2 X-0.4923 Y-1.1274 I0. J-0.0079
N420 G1 X-0.5031 Y-1.1814
N425 G3 X-0.4952 Y-1.1908 I0.0077 J-0.0016
N430 X-0.3653 Y-0.8648 I-0.0048 J0.1908
N435 X-0.4273 Y-0.8245 I-0.1268 J-0.1274
N440 X-0.5727 I-0.0727 J-0.1879
N445 X-0.6347 Y-0.8648 I0.0648 J-0.1676
N450 X-0.5046 Y-1.1908 I0.1347 J-0.1352
N455 G2 X-0.497 Y-1.1996 I-0.0002 J-0.0079
N460 G1 X-0.5032 Y-1.2531
N465 G3 X-0.4952 Y-1.2619 I0.0078 J-0.0009
N470 X-0.3152 Y-0.8144 I-0.0048 J0.2619
N475 X-0.4002 Y-0.7588 I-0.1769 J-0.1776
N480 X-0.5998 I-0.0998 J-0.2534
N485 X-0.6848 Y-0.8144 I0.0919 J-0.2332
N490 X-0.5048 Y-1.2619 I0.1848 J-0.1856
N495 G2 X-0.4971 Y-1.2707 I-0.0001 J-0.0079
N500 G1 X-0.5044 Y-1.328
N505 G3 X-0.4953 Y-1.3367 I0.0078 J-0.001
N510 G1 X-0.447 Y-1.3289
N515 G3 X-0.553 I-0.053 J0.3289
N520 G1 X-0.505 Y-1.3367
N525 X-0.5026 Y-1.3368 Z0.4414
N530 X-0.5002 Y-1.3364 Z0.4419
N535 X-0.4983 Y-1.3357 Z0.4433
N540 X-0.4965 Y-1.3347 Z0.4446
N545 X-0.4945 Y-1.333 Z0.4487
N550 X-0.4939 Y-1.3323 Z0.4534
N555 G0 Z1.0906
N560 G1 X-0.4838 Y-1.0105 F196.85
N565 G0 Z0.6969
N570 G1 Z0.5984 F13.123
N575 Z0.4771
N580 X-0.483 Y-1.01 Z0.4723
N585 X-0.481 Y-1.0081 Z0.4682
N590 X-0.4799 Y-1.0065 Z0.4669
N595 X-0.479 Y-1.0047 Z0.4655
N600 X-0.4783 Y-1.0024 Z0.465
N605 X-0.478 Y-1. Z0.4646
N610 G3 X-0.522 I-0.022 J0. F26.4
N615 X-0.478 I0.022 J0.
N620 X-0.4937 Y-0.999 I-0.0079 J0.
N625 G1 X-0.5062 Y-1.0933
N630 G3 X-0.4953 Y-1.1016 I0.0078 J-0.001
N635 G1 X-0.462 Y-1.0871
N640 G3 X-0.538 I-0.038 J0.0871
N645 G1 X-0.5047 Y-1.1016
N650 X-0.5036 Y-1.1018
N655 X-0.5024 Y-1.1016
N660 X-0.5015 Y-1.1009
N665 X-0.5008 Y-1.1
N670 X-0.5006 Y-1.0988
N675 X-0.5007 Y-1.0845
N680 X-0.4971 Y-1.0141
N685 G3 X-0.5004 Y-1.0193 I-0.0062 J0.0003
N690 G1 X-0.4838 Y-1.0105
N695 Z0.4416 F13.123
N700 X-0.483 Y-1.01 Z0.4369
N705 X-0.481 Y-1.0081 Z0.4328
N710 X-0.4799 Y-1.0065 Z0.4314
N715 X-0.479 Y-1.0047 Z0.4301
N720 X-0.4783 Y-1.0024 Z0.4296
N725 X-0.478 Y-1. Z0.4291
N730 G3 X-0.522 I-0.022 J0. F26.4
N735 X-0.478 I0.022 J0.
N740 X-0.4937 Y-0.999 I-0.0079 J0.
N745 G1 X-0.5062 Y-1.0933
N750 G3 X-0.4953 Y-1.1016 I0.0078 J-0.001
N755 G1 X-0.462 Y-1.0871
N760 G3 X-0.538 I-0.038 J0.0871
N765 G1 X-0.5047 Y-1.1016
N770 X-0.5029 Y-1.1022 Z0.4295
N775 X-0.5009 Y-1.1024 Z0.4299
N780 X-0.4992 Y-1.1023 Z0.431
N785 X-0.4976 Y-1.102 Z0.4322
N790 X-0.4955 Y-1.1011 Z0.4355
N795 X-0.4949 Y-1.1007 Z0.4395
N800 G0 Z1.0906
N805 G1 X-2.4762 Y-1.0971 F196.85
N810 G0 Z0.6969
N815 G1 Z0.5984 F13.123
N820 Z0.4731
N825 X-2.4754 Y-1.0966 Z0.4683
N830 X-2.4734 Y-1.0947 Z0.4643
N835 X-2.4722 Y-1.0931 Z0.4629
N840 X-2.4713 Y-1.0912 Z0.4616
N845 X-2.4706 Y-1.089 Z0.4611
N850 X-2.4704 Y-1.0866 Z0.4606
N855 Y-0.911 F26.4
N860 G3 X-2.483 Y-0.8891 I-0.0254 J0.
N865 G1 X-2.4894 Y-0.8851
N870 G3 X-2.5106 I-0.0106 J-0.016
N875 G1 X-2.517 Y-0.8891
N880 G3 X-2.5296 Y-0.911 I0.0128 J-0.0219
N885 G1 Y-1.089
N890 G3 X-2.517 Y-1.1109 I0.0254 J0.
N895 G1 X-2.5106 Y-1.1149
N900 G3 X-2.4894 I0.0106 J0.016
N905 G1 X-2.483 Y-1.1109
N910 G3 X-2.4704 Y-1.089 I-0.0128 J0.0219
N915 G1 Y-1.0866
N920 G2 X-2.4348 Y-1.0331 I0.0579 J0.
N925 G3 X-2.3991 Y-0.9796 I-0.0223 J0.0535
N930 G1 Y-0.852
N935 G3 X-2.4372 Y-0.8322 I-0.1009 J-0.148
N940 G2 X-2.4779 Y-0.7737 I0.0219 J0.0585
N945 G1 Y-0.6078
N950 X-2.5221
N955 Y-0.7737
N960 G2 X-2.5628 Y-0.8322 I-0.0625 J0.
N965 G3 X-2.6009 Y-0.852 I0.0628 J-0.1678
N970 G1 Y-1.148
N975 G3 X-2.5628 Y-1.1678 I0.1009 J0.148
N980 G2 X-2.5221 Y-1.2263 I-0.0219 J-0.0585
N985 G1 Y-1.3922
N990 X-2.4779
N995 Y-1.2263
N1000 G2 X-2.4372 Y-1.1678 I0.0625 J0.
N1005 G3 X-2.3991 Y-1.148 I-0.0628 J0.1678
N1010 G1 Y-0.9796
N1015 G3 X-2.4098 Y-0.9753 I-0.0062 J0.
N1020 G1 X-2.4344 Y-1.0007
N1025 X-2.4768 Y-1.0791
N1030 X-2.4814 Y-1.0931
N1035 X-2.4815 Y-1.0945
N1040 X-2.4811 Y-1.0959
N1045 X-2.4802 Y-1.0969
N1050 X-2.4789 Y-1.0975
N1055 X-2.4775 Y-1.0976
N1060 X-2.4762 Y-1.0971
N1065 Z0.4338 F13.123
N1070 X-2.4754 Y-1.0966 Z0.429
N1075 X-2.4734 Y-1.0947 Z0.4249
N1080 X-2.4722 Y-1.0931 Z0.4236
N1085 X-2.4713 Y-1.0912 Z0.4222
N1090 X-2.4706 Y-1.089 Z0.4217
N1095 X-2.4704 Y-1.0866 Z0.4213
N1100 Y-0.911 F26.4
N1105 G3 X-2.483 Y-0.8891 I-0.0254 J0.
N1110 G1 X-2.4894 Y-0.8851
N1115 G3 X-2.5106 I-0.0106 J-0.016
N1120 G1 X-2.517 Y-0.8891
N1125 G3 X-2.5296 Y-0.911 I0.0128 J-0.0219
N1130 G1 Y-1.089
N1135 G3 X-2.517 Y-1.1109 I0.0254 J0.
N1140 G1 X-2.5106 Y-1.1149
N1145 G3 X-2.4894 I0.0106 J0.016
N1150 G1 X-2.483 Y-1.1109
N1155 G3 X-2.4704 Y-1.089 I-0.0128 J0.0219
N1160 G1 Y-1.0866
N1165 G2 X-2.4348 Y-1.0331 I0.0579 J0.
N1170 G3 X-2.3991 Y-0.9796 I-0.0223 J0.0535
N1175 G1 Y-0.852
N1180 G3 X-2.4372 Y-0.8322 I-0.1009 J-0.148
N1185 G2 X-2.4779 Y-0.7737 I0.0219 J0.0585
N1190 G1 Y-0.6078
N1195 X-2.5221
N1200 Y-0.7737
N1205 G2 X-2.5628 Y-0.8322 I-0.0625 J0.
N1210 G3 X-2.6009 Y-0.852 I0.0628 J-0.1678
N1215 G1 Y-1.148
N1220 G3 X-2.5628 Y-1.1678 I0.1009 J0.148
N1225 G2 X-2.5221 Y-1.2263 I-0.0219 J-0.0585
N1230 G1 Y-1.3922
N1235 X-2.4779
N1240 Y-1.2263
N1245 G2 X-2.4372 Y-1.1678 I0.0625 J0.
N1250 G3 X-2.3991 Y-1.148 I-0.0628 J0.1678
N1255 G1 Y-0.9796
N1260 X-2.3994 Y-0.9773 Z0.4217
N1265 X-2.4002 Y-0.975 Z0.4222
N1270 X-2.4011 Y-0.9732 Z0.4236
N1275 X-2.4024 Y-0.9716 Z0.4249
N1280 X-2.4044 Y-0.9699 Z0.429
N1285 X-2.4052 Y-0.9694 Z0.4338
N1290 G0 Z1.0906

(Trace1)
N1295 G1 X-0.5 Y-1.505 F196.85
N1300 G0 Z1.0906
N1305 Z0.6969
N1310 G1 Z0.4213 F13.123
N1315 X-0.9311 Z0.4803 F15.4
N1320 Z0.6969
N1325 G0 X-0.5
N1330 G1 Z0.4213 F13.123
N1335 Y-1.442 F15.4
N1340 Y-1.3315 Z0.374
N1345 Y-1.1105
N1350 Y-1. Z0.4213
N1355 Z0.6969
N1360 G0 Y-1.505
N1365 G1 Z0.4213 F13.123
N1370 X-0.9311 Z0.4803 F15.4
N1375 Z0.6969
N1380 G0 X-0.5
N1385 G1 Z0.4213 F13.123
N1390 Y-1.442 F15.4
N1395 Y-1.3315 Z0.374
N1400 Y-1.1105
N1405 Y-1. Z0.4213
N1410 Z0.6969
N1415 G0 Z1.0906
N1420 M9
N1425 M5
N1430 G53 G0 Z0.

(2D Contour1)
N1435 T5 M6
N1440 S4500 M3
N1445 G17 G90
N1450 G54
N1455 M8
N1460 G1 X-1.5872 Y-1.5012 F196.85
N1465 G0 G43 Z1.0906 H5
N1470 T10
N1475 G0 Z0.6969
N1480 G1 Z0.5394 F13.123
N1485 Z0.4856
N1490 G19 G3 Y-1.4762 Z0.4606 J0.025 K0. F25.
N1495 G1 Y-1.4512
N1500 G17 G3 X-1.6122 Y-1.4262 I-0.025 J0.
N1505 G1 X-1.6447 F0.984
N1510 G3 X-1.686 Y-1.4675 I0. J-0.0413
N1515 G1 Y-1.5325
N1520 G3 X-1.6447 Y-1.5738 I0.0413 J0.
N1525 G1 X-1.3553
N1530 G3 X-1.314 Y-1.5325 I0. J0.0413
N1535 G1 Y-1.4675
N1540 G3 X-1.3553 Y-1.4262 I-0.0413 J0.
N1545 G1 X-1.6122
N1550 X-1.6447
N1555 G3 X-1.686 Y-1.4675 I0. J-0.0413
N1560 G1 Y-1.5325
N1565 G3 X-1.6447 Y-1.5738 I0.0413 J0.
N1570 G1 X-1.3553
N1575 G3 X-1.314 Y-1.5325 I0. J0.0413
N1580 G1 Y-1.4675
N1585 G3 X-1.3553 Y-1.4262 I-0.0413 J0.
N1590 G1 X-1.6122
N1595 G3 X-1.6372 Y-1.4512 I0. J-0.025 F25.
N1600 G1 Y-1.4762
N1605 G19 G2 Y-1.5012 Z0.4856 J0. K0.025
N1610 G0 Z1.0906

(2D Contour2)
N1615 G17
N1620 G1 X-2.4234 Y-1.1116 F196.85
N1625 G0 Z1.0906
N1630 Z0.6969
N1635 G1 Z0.5394 F13.123
N1640 Z0.4541
N1645 G18 G2 X-2.3984 Z0.4291 I0.025 K0. F25.
N1650 G1 X-2.3734
N1655 G17 G3 X-2.3484 Y-1.0866 I0. J0.025
N1660 G1 Y-0.8272 F0.984
N1665 G3 X-2.4195 Y-0.7847 I-0.1516 J-0.1728
N1670 G2 X-2.4272 Y-0.7737 I0.0041 J0.0111
N1675 G1 Y-0.571
N1680 X-2.4411 Y-0.5571
N1685 X-2.5589
N1690 X-2.5728 Y-0.571
N1695 Y-0.7737
N1700 G2 X-2.5805 Y-0.7847 I-0.0118 J0.
N1705 G3 X-2.6516 Y-0.8272 I0.0805 J-0.2153
N1710 G1 Y-1.1728
N1715 G3 X-2.5805 Y-1.2153 I0.1516 J0.1728
N1720 G2 X-2.5728 Y-1.2263 I-0.0041 J-0.0111
N1725 G1 Y-1.429
N1730 X-2.5589 Y-1.4429
N1735 X-2.4411
N1740 X-2.4272 Y-1.429
N1745 Y-1.2263
N1750 G2 X-2.4195 Y-1.2153 I0.0118 J0.
N1755 G3 X-2.3484 Y-1.1728 I-0.0805 J0.2153
N1760 G1 Y-0.8272
N1765 G3 X-2.4195 Y-0.7847 I-0.1516 J-0.1728
N1770 G2 X-2.4272 Y-0.7737 I0.0041 J0.0111
N1775 G1 Y-0.571
N1780 X-2.4411 Y-0.5571
N1785 X-2.5589
N1790 X-2.5728 Y-0.571
N1795 Y-0.7737
N1800 G2 X-2.5805 Y-0.7847 I-0.0118 J0.
N1805 G3 X-2.6516 Y-0.8272 I0.0805 J-0.2153
N1810 G1 Y-1.1728
N1815 G3 X-2.5805 Y-1.2153 I0.1516 J0.1728
N1820 G2 X-2.5728 Y-1.2263 I-0.0041 J-0.0111
N1825 G1 Y-1.429
N1830 X-2.5589 Y-1.4429
N1835 X-2.4411
N1840 X-2.4272 Y-1.429
N1845 Y-1.2263
N1850 G2 X-2.4195 Y-1.2153 I0.0118 J0.
N1855 G3 X-2.3484 Y-1.1728 I-0.0805 J0.2153
N1860 G1 Y-1.0866
N1865 G3 X-2.3734 Y-1.0616 I-0.025 J0. F25.
N1870 G1 X-2.3984
N1875 G18 G3 X-2.4234 Z0.4541 I0. K0.025
N1880 G0 Z1.0906
N1885 M9
N1890 M5
N1895 G53 G0 Z0.

(2D Pocket2)
N1900 T10 M6
N1905 S6000 M3
N1910 G17 G90
N1915 G54
N1920 M8
N1925 G1 X-1.3839 Y-1.5053 F196.85
N1930 G0 G43 Z1.0906 H10
N1935 T1
N1940 G0 Z0.6969
N1945 G1 Z0.5984 F13.123
N1950 Z0.4669
N1955 X-1.3832 Y-1.5048 Z0.4638
N1960 X-1.3824 Y-1.5039 Z0.4626
N1965 X-1.3818 Y-1.503 Z0.4615
N1970 X-1.3812 Y-1.5015 Z0.461
N1975 X-1.381 Y-1.5 Z0.4606
N1980 G3 X-1.3898 Y-1.4912 I-0.0088 J0. F13.2
N1985 G1 X-1.6141
N1990 X-1.6159 Y-1.4914
N1995 X-1.6176 Y-1.4921
N2000 X-1.619 Y-1.4932
N2005 X-1.6201 Y-1.4946
N2010 X-1.6208 Y-1.4963
N2015 X-1.621 Y-1.4981
N2020 Y-1.5019
N2025 X-1.6208 Y-1.5037
N2030 X-1.6201 Y-1.5054
N2035 X-1.619 Y-1.5068
N2040 X-1.6176 Y-1.5079
N2045 X-1.6159 Y-1.5086
N2050 X-1.6141 Y-1.5088
N2055 X-1.3898
N2060 G3 X-1.381 Y-1.5 I0. J0.0088
N2065 G2 X-1.371 Y-1.4792 I0.0265 J0.
N2070 G3 X-1.3786 Y-1.4574 I-0.0076 J0.0096
N2075 G1 X-1.6447
N2080 G3 X-1.6548 Y-1.4675 I0. J-0.0101
N2085 G1 Y-1.5325
N2090 G3 X-1.6447 Y-1.5426 I0.0101 J0.
N2095 G1 X-1.3553
N2100 G3 X-1.3452 Y-1.5325 I0. J0.0101
N2105 G1 Y-1.4675
N2110 G3 X-1.3553 Y-1.4574 I-0.0101 J0.
N2115 G1 X-1.3786
N2120 X-1.3801 Y-1.4577 Z0.461
N2125 X-1.3816 Y-1.4583 Z0.4615
N2130 X-1.3825 Y-1.459 Z0.4626
N2135 X-1.3833 Y-1.4598 Z0.4638
N2140 X-1.3837 Y-1.4605 Z0.4669
N2145 G0 Z1.0906
N2150 G1 X-2.4927 Y-0.9187 F196.85
N2155 G0 Z0.6969
N2160 G1 Z0.5984 F13.123
N2165 Z0.4275
N2170 X-2.492 Y-0.9182 Z0.4244
N2175 X-2.4912 Y-0.9174 Z0.4232
N2180 X-2.4906 Y-0.9164 Z0.4221
N2185 X-2.49 Y-0.915 Z0.4217
N2190 X-2.4898 Y-0.9134 Z0.4213
N2195 Y-0.9129 F13.2
N2200 X-2.4901 Y-0.9106
N2205 X-2.491 Y-0.9083
N2210 X-2.4925 Y-0.9064
N2215 X-2.4943 Y-0.905
N2220 X-2.4952 Y-0.9045
N2225 X-2.497 Y-0.9036
N2230 X-2.499 Y-0.9032
N2235 X-2.501
N2240 X-2.503 Y-0.9036
N2245 X-2.5048 Y-0.9045
N2250 X-2.5057 Y-0.905
N2255 X-2.5075 Y-0.9064
N2260 X-2.509 Y-0.9083
N2265 X-2.5099 Y-0.9106
N2270 X-2.5102 Y-0.9129
N2275 Y-1.0871
N2280 X-2.5099 Y-1.0894
N2285 X-2.509 Y-1.0917
N2290 X-2.5075 Y-1.0936
N2295 X-2.5057 Y-1.095
N2300 X-2.5048 Y-1.0955
N2305 X-2.503 Y-1.0964
N2310 X-2.501 Y-1.0968
N2315 X-2.499
N2320 X-2.497 Y-1.0964
N2325 X-2.4952 Y-1.0955
N2330 X-2.4943 Y-1.095
N2335 X-2.4925 Y-1.0936
N2340 X-2.491 Y-1.0917
N2345 X-2.4901 Y-1.0894
N2350 X-2.4898 Y-1.0871
N2355 Y-0.9134
N2360 G2 X-2.4829 Y-0.9013 I0.0142 J0.
N2365 G3 Y-0.8873 I-0.0042 J0.007
N2370 G1 X-2.4893 Y-0.8832
N2375 G3 X-2.5107 I-0.0107 J-0.0159
N2380 G1 X-2.5184 Y-0.8881
N2385 G3 X-2.5312 Y-0.9102 I0.0128 J-0.0222
N2390 G1 Y-1.0898
N2395 G3 X-2.5184 Y-1.1119 I0.0256 J0.
N2400 G1 X-2.5107 Y-1.1168
N2405 G3 X-2.4893 I0.0107 J0.0159
N2410 G1 X-2.4816 Y-1.1119
N2415 G3 X-2.4688 Y-1.0898 I-0.0128 J0.0222
N2420 G1 Y-0.9102
N2425 G3 X-2.4816 Y-0.8881 I-0.0256 J0.
N2430 G1 X-2.4829 Y-0.8873
N2435 G2 X-2.4929 Y-0.8606 I0.0116 J0.0195
N2440 G3 X-2.5168 Y-0.8452 I-0.0139 J0.0047
N2445 G2 X-2.5266 Y-0.8533 I-0.0663 J0.0704
N2450 X-2.5507 Y-0.8663 I-0.0613 J0.0851
N2455 G3 X-2.5648 Y-0.8866 I0.0077 J-0.0204
N2460 G1 Y-1.1134
N2465 G3 X-2.5507 Y-1.1337 I0.0218 J0.
N2470 G2 X-2.5266 Y-1.1467 I-0.0372 J-0.098
N2475 X-2.5069 Y-1.1657 I-0.0565 J-0.0784
N2480 G3 X-2.4931 I0.0069 J0.0053
N2485 G2 X-2.4734 Y-1.1467 I0.0763 J-0.0594
N2490 X-2.4493 Y-1.1337 I0.0613 J-0.0851
N2495 G3 X-2.4352 Y-1.1134 I-0.0077 J0.0204
N2500 G1 Y-0.8866
N2505 G3 X-2.4493 Y-0.8663 I-0.0218 J0.
N2510 G2 X-2.4734 Y-0.8533 I0.0372 J0.098
N2515 X-2.4931 Y-0.8343 I0.0565 J0.0784
N2520 G3 X-2.5069 I-0.0069 J-0.0053
N2525 G2 X-2.5168 Y-0.8452 I-0.0763 J0.0594
N2530 X-2.5497 Y-0.8467 I-0.0173 J0.0184
N2535 G3 X-2.5824 Y-0.8438 I-0.0186 J-0.0238
N2540 G1 X-2.5826 Y-0.8439
N2545 G3 X-2.5984 Y-0.8701 I0.0139 J-0.0263
N2550 G1 Y-1.1299
N2555 G3 X-2.5826 Y-1.1561 I0.0297 J0.
N2560 X-2.5719 Y-1.1609 I0.0423 J0.0801
N2565 G1 X-2.5616 Y-1.1648
N2570 G2 X-2.5301 Y-1.1887 I-0.0241 J-0.0644
N2575 X-2.5179 Y-1.2263 I-0.0516 J-0.0376
N2580 G1 X-2.5196 Y-1.3771
N2585 G3 X-2.5071 Y-1.3897 I0.0126 J0.
N2590 G1 X-2.4929
N2595 G3 X-2.4804 Y-1.3771 I0. J0.0126
N2600 G1 X-2.4821 Y-1.2263
N2605 G2 X-2.4699 Y-1.1887 I0.0639 J0.
N2610 X-2.4384 Y-1.1648 I0.0556 J-0.0405
N2615 G1 X-2.4281 Y-1.1609
N2620 G3 X-2.4174 Y-1.1561 I-0.0317 J0.0849
N2625 X-2.4016 Y-1.1299 I-0.0139 J0.0263
N2630 G1 Y-0.8701
N2635 G3 X-2.4174 Y-0.8439 I-0.0297 J0.
N2640 X-2.4281 Y-0.8391 I-0.0423 J-0.0801
N2645 G1 X-2.4384 Y-0.8352
N2650 G2 X-2.4699 Y-0.8113 I0.0241 J0.0644
N2655 X-2.4821 Y-0.7737 I0.0516 J0.0376
N2660 G1 X-2.4804 Y-0.6229
N2665 G3 X-2.4929 Y-0.6103 I-0.0126 J0.
N2670 G1 X-2.5071
N2675 G3 X-2.5196 Y-0.6229 I0. J-0.0126
N2680 G1 X-2.5179 Y-0.7737
N2685 G2 X-2.5301 Y-0.8113 I-0.0639 J0.
N2690 X-2.5616 Y-0.8352 I-0.0556 J0.0405
N2695 G1 X-2.5719 Y-0.8391
N2700 G3 X-2.5824 Y-0.8438 I0.0317 J-0.0849
N2705 G2 X-2.6076 Y-0.838 I-0.0092 J0.0176
N2710 G3 X-2.6321 Y-0.8461 I-0.0109 J-0.0081
N2715 G1 Y-1.1637
N2720 G3 X-2.5737 Y-1.1971 I0.1321 J0.1637
N2725 G2 X-2.5534 Y-1.2263 I-0.0109 J-0.0293
N2730 G1 Y-1.4209
N2735 X-2.5509 Y-1.4235
N2740 X-2.4491
N2745 X-2.4466 Y-1.4209
N2750 Y-1.2263
N2755 G2 X-2.4263 Y-1.1971 I0.0313 J0.
N2760 G3 X-2.3679 Y-1.1637 I-0.0737 J0.1971
N2765 G1 Y-0.8363
N2770 G3 X-2.4263 Y-0.8029 I-0.1321 J-0.1637
N2775 G2 X-2.4466 Y-0.7737 I0.0109 J0.0293
N2780 G1 Y-0.5791
N2785 X-2.4491 Y-0.5765
N2790 X-2.5509
N2795 X-2.5534 Y-0.5791
N2800 Y-0.7737
N2805 G2 X-2.5737 Y-0.8029 I-0.0313 J0.
N2810 G3 X-2.6321 Y-0.8363 I0.0737 J-0.1971
N2815 G1 Y-0.8461
N2820 X-2.6319 Y-0.8477 Z0.4217
N2825 X-2.6313 Y-0.8491 Z0.4221
N2830 X-2.6306 Y-0.85 Z0.4232
N2835 X-2.6298 Y-0.8508 Z0.4244
N2840 X-2.6291 Y-0.8513 Z0.4275
N2845 G0 Z1.0906

N2850 M5
N2855 M9
N2860 G53 G0 Z0.
N2865 X-1.5
N2870 G53 G0 Y0.
M98 P9004
N2875 M30

%
