%
O10026 (Automatic CAM Program)
(Using high feed G1 F196.85 instead of G0.)
(T1 D=0.125 CR=0. - ZMIN=1.874 - flat end mill)
(T5 D=0.25 CR=0. TAPER=90deg - ZMIN=1.9291 - spot drill)
(T10 D=0.0625 CR=0. - ZMIN=1.9213 - flat end mill)
N10 G90 G17
N15 G20
N20 G53 G0 Z0.

(2D Pocket1)
N25 T1 M6
N30 S6000 M3
N35 G17 G90
N40 G54
N45 M8
N50 G1 X-2.9995 Y-1.5462 F196.85
N55 G0 G43 Z2.5906 H1
N60 T5
N65 G0 Z2.1969
N70 G1 Z2.0984 F13.123
N75 Z1.9803
N80 Y-0.673 F26.4
N85 G2 X-2.937 Y-0.6105 I0.0625 J0.
N90 G1 X-1.2228
N95 X-0.9995
N100 Y-0.61
N105 X-1. Y-0.6095
N110 X-3.
N115 X-3.0003 Y-0.6097
N120 X-3.0005 Y-0.61
N125 Y-1.4879
N130 Y-1.5459
N135 Z1.9928
N140 G0 Z2.5906
N145 G1 X-2.9165 Y-2.2875 F196.85
N150 G0 Z2.1969
N155 G1 Z2.0984 F13.123
N160 Z1.9803
N165 X-2.9041 Y-2.2739 F26.4
N170 X-2.4315 Y-1.7572
N175 G2 X-2.3657 Y-1.74 I0.0461 J-0.0422
N180 G1 X-1.3536 Y-2.0755
N185 X-1.3533 Y-2.0746
N190 X-2.4041 Y-1.7262
N195 X-2.4044
N200 X-2.4047 Y-1.7264
N205 X-2.7331 Y-2.0855
N210 X-2.9164 Y-2.2859
N215 Z1.9928
N220 G0 Z2.5906
N225 G1 X-0.9497 Y-1.1076 F196.85
N230 G0 Z2.1969
N235 G1 Z2.025 F13.123
N240 Z1.9534 F26.4
N245 X-0.9494 Y-1.1075 Z1.9507
N250 X-0.9486 Y-1.107 Z1.948
N255 X-0.9474 Y-1.1062 Z1.9457
N260 X-0.9457 Y-1.1052 Z1.9437
N265 X-0.9437 Y-1.1039 Z1.9422
N270 X-0.9414 Y-1.1025 Z1.9413
N275 X-0.9391 Y-1.1011 Z1.9409
N280 X-0.938 Y-1.1004
N285 G3 X-0.9588 Y-1.1106 I-0.062 J0.1004
N290 G2 X-0.9033 Y-1.1202 I0.0195 J-0.0524
N295 G3 X-0.8473 Y-1.1136 I0.0249 J0.0296
N300 X-1.0831 Y-0.8302 I-0.1523 J0.1131
N305 X-0.9447 Y-1.1821 I0.0834 J-0.1704
N310 G1 X-0.9371 Y-1.1801
N315 X-0.9296 Y-1.1781
N320 G3 X-0.9027 Y-1.1649 I-0.0274 J0.0902
N325 G1 X-0.8964 Y-1.1602
N330 X-0.8902 Y-1.1555
N335 G3 X-0.8473 Y-1.1136 I-0.1094 J0.155
N340 G2 X-0.794 Y-1.0921 I0.0443 J-0.0329
N345 G3 X-0.7461 Y-1.0603 I0.0069 J0.0415
N350 X-1.1143 Y-0.7663 I-0.2536 J0.0599
N355 X-0.9241 Y-1.2498 I0.1145 J-0.2341
N360 G2 X-0.911 Y-1.2463 I0.063 J-0.2072
N365 G3 X-0.898 Y-1.2427 I-0.0499 J0.2106
N370 X-0.871 Y-1.2295 I-0.0274 J0.0902
N375 X-0.8602 Y-1.2214 I-0.1249 J0.1769
N380 G2 X-0.8494 Y-1.2133 I0.1357 J-0.1688
N385 G3 X-0.7461 Y-1.0603 I-0.1503 J0.2129
N390 X-0.761 Y-1.0554 I-0.0077 J0.0018
N395 G1 X-0.8596 Y-1.2909
N400 G3 X-0.8478 Y-1.3004 I0.0073 J-0.003
N405 G1 X-0.8078 Y-1.2722
N410 G3 X-0.9031 Y-1.3188 I-0.1922 J0.2722
N415 G1 X-0.8565 Y-1.3046
N420 X-0.8544 Y-1.3036 Z1.9414
N425 X-0.8524 Y-1.3023 Z1.9419
N430 X-0.851 Y-1.3008 Z1.9433
N435 X-0.8498 Y-1.2992 Z1.9446
N440 X-0.8488 Y-1.2967 Z1.9487
N445 X-0.8485 Y-1.2958 Z1.9534
N450 G0 Z2.5906
N455 G1 X-0.966 Y-1.0634 F196.85
N460 G0 Z2.1969
N465 G1 Z2.025 F13.123
N470 Z1.9771 F26.4
N475 X-0.9661 Y-1.0631 Z1.9743
N480 X-0.9664 Y-1.0622 Z1.9716
N485 X-0.9669 Y-1.0608 Z1.9693
N490 X-0.9675 Y-1.0589 Z1.9673
N495 X-0.9682 Y-1.0567 Z1.9658
N500 X-0.969 Y-1.0542 Z1.9649
N505 X-0.9699 Y-1.0515 Z1.9646
N510 G2 X-0.9781 Y-1. I0.1585 J0.0515
N515 G3 X-1.0219 I-0.0219 J0.
N520 X-0.9781 I0.0219 J0.
N525 G2 X-0.9623 Y-1.0003 I0.0079 J0.
N530 G1 X-0.965 Y-1.0838
N535 G3 X-0.9511 Y-1.0891 I0.0079 J-0.0003
N540 G1 X-0.9276 Y-1.0615
N545 G3 X-0.9959 Y-1.0949 I-0.0724 J0.0615
N550 G1 X-0.9596 Y-1.0933
N555 X-0.9585 Y-1.093
N560 X-0.9576 Y-1.0923
N565 X-0.957 Y-1.0913
N570 X-0.9568 Y-1.0902
N575 X-0.9571 Y-1.089
N580 X-0.9634 Y-1.0762
N585 X-0.9894 Y-1.0135
N590 G3 X-0.9902 Y-1.0196 I-0.0058 J-0.0024
N595 G1 X-0.9838 Y-1.0105
N600 Z1.9416 F13.123
N605 X-0.983 Y-1.01 Z1.9369
N610 X-0.981 Y-1.0081 Z1.9328
N615 X-0.9799 Y-1.0065 Z1.9314
N620 X-0.979 Y-1.0047 Z1.9301
N625 X-0.9783 Y-1.0024 Z1.9296
N630 X-0.9781 Y-1. Z1.9291
N635 G3 X-1.0219 I-0.0219 J0. F26.4
N640 X-0.9781 I0.0219 J0.
N645 G2 X-0.9623 Y-1.0003 I0.0079 J0.
N650 G1 X-0.965 Y-1.0838
N655 G3 X-0.9511 Y-1.0891 I0.0079 J-0.0003
N660 G1 X-0.9276 Y-1.0615
N665 G3 X-0.9959 Y-1.0949 I-0.0724 J0.0615
N670 G1 X-0.9596 Y-1.0933
N675 X-0.9577 Y-1.093 Z1.9295
N680 X-0.9558 Y-1.0924 Z1.9299
N685 X-0.9543 Y-1.0916 Z1.931
N690 X-0.953 Y-1.0905 Z1.9322
N695 X-0.9516 Y-1.0888 Z1.9355
N700 X-0.9511 Y-1.0882 Z1.9395
N705 G0 Z2.5906
N710 G1 X-2.9582 Y-2.0995 F196.85
N715 G0 Z2.1969
N720 G1 Z2.0984 F13.123
N725 Z1.9731
N730 X-2.9574 Y-2.0989 Z1.9683
N735 X-2.9554 Y-2.0971 Z1.9643
N740 X-2.9542 Y-2.0954 Z1.9629
N745 X-2.9533 Y-2.0936 Z1.9616
N750 X-2.9526 Y-2.0913 Z1.9611
N755 X-2.9524 Y-2.0889 Z1.9606
N760 Y-1.8989 F26.4
N765 G3 X-2.965 Y-1.877 I-0.0254 J0.
N770 G2 X-2.9919 Y-1.8562 I0.0676 J0.1155
N775 G3 X-3.0081 I-0.0081 J-0.0081
N780 G2 X-3.035 Y-1.877 I-0.0945 J0.0947
N785 G3 X-3.0476 Y-1.8989 I0.0128 J-0.0219
N790 G1 Y-2.1011
N795 G3 X-3.035 Y-2.123 I0.0254 J0.
N800 G2 X-3.0081 Y-2.1438 I-0.0676 J-0.1155
N805 G3 X-2.9919 I0.0081 J0.0081
N810 G2 X-2.965 Y-2.123 I0.0945 J-0.0947
N815 G3 X-2.9524 Y-2.1011 I-0.0128 J0.0219
N820 G1 Y-2.0889
N825 G2 X-2.9168 Y-2.0355 I0.0579 J0.
N830 G3 X-2.8811 Y-1.982 I-0.0223 J0.0535
N835 G1 Y-1.8427
N840 G3 X-2.9221 Y-1.8189 I-0.1189 J-0.1573
N845 G2 X-2.9599 Y-1.7615 I0.0247 J0.0574
N850 G1 Y-1.5898
N855 X-3.0401
N860 Y-1.7615
N865 G2 X-3.0779 Y-1.8189 I-0.0625 J0.
N870 G3 X-3.1189 Y-1.8427 I0.0779 J-0.1811
N875 G1 Y-2.1573
N880 G3 X-3.0779 Y-2.1811 I0.1189 J0.1573
N885 G2 X-3.0401 Y-2.2385 I-0.0247 J-0.0574
N890 G1 Y-2.4102
N895 X-2.9599
N900 Y-2.2385
N905 G2 X-2.9221 Y-2.1811 I0.0625 J0.
N910 G3 X-2.8811 Y-2.1573 I-0.0779 J0.1811
N915 G1 Y-1.982
N920 G3 X-2.8904 Y-1.9785 I-0.0053 J0.
N925 G1 X-2.9053 Y-1.9955
N930 X-2.9583 Y-2.0819
N935 X-2.9633 Y-2.0954
N940 X-2.9635 Y-2.0968
N945 X-2.9631 Y-2.0982
N950 X-2.9622 Y-2.0993
N955 X-2.9609 Y-2.0999
N960 X-2.9595 Y-2.1
N965 X-2.9582 Y-2.0995
N970 Z1.9338 F13.123
N975 X-2.9574 Y-2.0989 Z1.929
N980 X-2.9554 Y-2.0971 Z1.9249
N985 X-2.9542 Y-2.0954 Z1.9236
N990 X-2.9533 Y-2.0936 Z1.9222
N995 X-2.9526 Y-2.0913 Z1.9217
N1000 X-2.9524 Y-2.0889 Z1.9213
N1005 Y-1.8989 F26.4
N1010 G3 X-2.965 Y-1.877 I-0.0254 J0.
N1015 G2 X-2.9919 Y-1.8562 I0.0676 J0.1155
N1020 G3 X-3.0081 I-0.0081 J-0.0081
N1025 G2 X-3.035 Y-1.877 I-0.0945 J0.0947
N1030 G3 X-3.0476 Y-1.8989 I0.0128 J-0.0219
N1035 G1 Y-2.1011
N1040 G3 X-3.035 Y-2.123 I0.0254 J0.
N1045 G2 X-3.0081 Y-2.1438 I-0.0676 J-0.1155
N1050 G3 X-2.9919 I0.0081 J0.0081
N1055 G2 X-2.965 Y-2.123 I0.0945 J-0.0947
N1060 G3 X-2.9524 Y-2.1011 I-0.0128 J0.0219
N1065 G1 Y-2.0889
N1070 G2 X-2.9168 Y-2.0355 I0.0579 J0.
N1075 G3 X-2.8811 Y-1.982 I-0.0223 J0.0535
N1080 G1 Y-1.8427
N1085 G3 X-2.9221 Y-1.8189 I-0.1189 J-0.1573
N1090 G2 X-2.9599 Y-1.7615 I0.0247 J0.0574
N1095 G1 Y-1.5898
N1100 X-3.0401
N1105 Y-1.7615
N1110 G2 X-3.0779 Y-1.8189 I-0.0625 J0.
N1115 G3 X-3.1189 Y-1.8427 I0.0779 J-0.1811
N1120 G1 Y-2.1573
N1125 G3 X-3.0779 Y-2.1811 I0.1189 J0.1573
N1130 G2 X-3.0401 Y-2.2385 I-0.0247 J-0.0574
N1135 G1 Y-2.4102
N1140 X-2.9599
N1145 Y-2.2385
N1150 G2 X-2.9221 Y-2.1811 I0.0625 J0.
N1155 G3 X-2.8811 Y-2.1573 I-0.0779 J0.1811
N1160 G1 Y-1.982
N1165 X-2.8814 Y-1.9796 Z1.9217
N1170 X-2.8822 Y-1.9774 Z1.9222
N1175 X-2.8831 Y-1.9756 Z1.9236
N1180 X-2.8844 Y-1.974 Z1.9249
N1185 X-2.8864 Y-1.9722 Z1.929
N1190 X-2.8872 Y-1.9717 Z1.9338
N1195 G0 Z2.5906

(Trace1)
N1200 G1 X-0.3041 Y-2.4229 F196.85
N1205 G0 Z2.5906
N1210 Z2.1969
N1215 G1 Z1.9213 F13.123
N1220 X-1.3542 Y-2.0748 Z1.9803 F15.4
N1225 Z2.1969
N1230 X-0.3041 Y-2.4229 F196.85
N1235 Z1.9213 F13.123
N1240 X-0.3318 Y-2.3663 F15.4
N1245 X-0.4988 Y-2.0247 Z1.874
N1250 X-0.8329 Y-1.3416
N1255 X-1. Y-1. Z1.9213
N1260 Z2.1969
N1265 X-0.3041 Y-2.4229 F196.85
N1270 Z1.9213 F13.123
N1275 X-1.3542 Y-2.0748 Z1.9803 F15.4
N1280 Z2.1969
N1285 X-0.3041 Y-2.4229 F196.85
N1290 Z1.9213 F13.123
N1295 X-0.3318 Y-2.3663 F15.4
N1300 X-0.4988 Y-2.0247 Z1.874
N1305 X-0.8329 Y-1.3416
N1310 X-1. Y-1. Z1.9213
N1315 Z2.1969
N1320 G0 Z2.5906
N1325 M9
N1330 M5
N1335 G53 G0 Z0.

(2D Contour1)
N1340 T5 M6
N1345 S4500 M3
N1350 G17 G90
N1355 G54
N1360 M8
N1365 G1 X-0.8594 Y-1.3451 F196.85
N1370 G0 G43 Z2.5906 H5
N1375 T10
N1380 G0 Z2.1969
N1385 G1 Z2.0394 F13.123
N1390 Z2.0126
N1395 X-0.8591 Z2.0087 F25.
N1400 X-0.8582 Y-1.3452 Z2.0049
N1405 X-0.8567 Z2.0012
N1410 X-0.8547 Y-1.3453 Z1.9979
N1415 X-0.8521 Y-1.3454 Z1.9949
N1420 X-0.8491 Y-1.3455 Z1.9924
N1425 X-0.8458 Y-1.3456 Z1.9903
N1430 X-0.8422 Y-1.3457 Z1.9888
N1435 X-0.8384 Y-1.3459 Z1.9879
N1440 X-0.8345 Y-1.346 Z1.9876
N1445 X-0.8095 Y-1.3469
N1450 G3 X-0.7836 Y-1.3228 I0.0009 J0.025
N1455 G2 X-0.7786 Y-1.3136 I0.0118 J-0.0004
N1460 G3 X-0.9389 Y-0.621 I-0.2214 J0.3136
N1465 G2 X-0.9488 Y-0.6095 I0.0019 J0.0117
N1470 G3 X-1. Y-0.5588 I-0.0512 J-0.0005
N1475 G1 X-3.
N1480 G3 X-3.0512 Y-0.61 I0. J-0.0512
N1485 G1 Y-1.4682
N1490 G2 X-3.063 Y-1.48 I-0.0118 J0.
N1495 G1 X-3.0908
N1500 X-3.1499 Y-1.5391
N1505 Y-1.7254
N1510 G2 X-3.1557 Y-1.7356 I-0.0118 J0.
N1515 G3 X-3.2286 Y-1.7953 I0.1557 J-0.2644
N1520 G1 Y-2.2047
N1525 G3 X-3.1557 Y-2.2644 I0.2286 J0.2047
N1530 G2 X-3.1499 Y-2.2746 I-0.006 J-0.0102
N1535 G1 Y-2.4609
N1540 X-3.0908 Y-2.52
N1545 X-2.9092
N1550 X-2.8501 Y-2.4609
N1555 Y-2.2945
N1560 X-2.8499 Y-2.2924
N1565 X-2.8493 Y-2.2903
N1570 X-2.8483 Y-2.2883
N1575 X-2.847 Y-2.2866
N1580 X-2.7871 Y-2.221
N1585 X-2.7688 Y-2.201
N1590 X-2.7683 Y-2.2005
N1595 X-2.3941 Y-1.7914
N1600 G2 X-2.3817 Y-1.7881 I0.0087 J-0.008
N1605 G1 X-0.3202 Y-2.4715
N1610 G3 X-0.2581 Y-2.4004 I0.0161 J0.0486
N1615 G1 X-0.7824 Y-1.3284
N1620 G2 X-0.7786 Y-1.3136 I0.0106 J0.0052
N1625 G3 X-0.9389 Y-0.621 I-0.2214 J0.3136
N1630 G2 X-0.9488 Y-0.6095 I0.0019 J0.0117
N1635 G3 X-1. Y-0.5588 I-0.0512 J-0.0005
N1640 G1 X-3.
N1645 G3 X-3.0512 Y-0.61 I0. J-0.0512
N1650 G1 Y-1.4682
N1655 G2 X-3.063 Y-1.48 I-0.0118 J0.
N1660 G1 X-3.0908
N1665 X-3.1499 Y-1.5391
N1670 Y-1.7254
N1675 G2 X-3.1557 Y-1.7356 I-0.0118 J0.
N1680 G3 X-3.2286 Y-1.7953 I0.1557 J-0.2644
N1685 G1 Y-2.2047
N1690 G3 X-3.1557 Y-2.2644 I0.2286 J0.2047
N1695 G2 X-3.1499 Y-2.2746 I-0.006 J-0.0102
N1700 G1 Y-2.4609
N1705 X-3.0908 Y-2.52
N1710 X-2.9092
N1715 X-2.8501 Y-2.4609
N1720 Y-2.2945
N1725 X-2.8499 Y-2.2924
N1730 X-2.8493 Y-2.2903
N1735 X-2.8483 Y-2.2883
N1740 X-2.847 Y-2.2866
N1745 X-2.7871 Y-2.221
N1750 X-2.7688 Y-2.201
N1755 X-2.7683 Y-2.2005
N1760 X-2.3941 Y-1.7914
N1765 G2 X-2.3817 Y-1.7881 I0.0087 J-0.008
N1770 G1 X-0.3202 Y-2.4715
N1775 G3 X-0.2581 Y-2.4004 I0.0161 J0.0486
N1780 G1 X-0.7824 Y-1.3284
N1785 X-0.7831 Y-1.3266
N1790 X-0.7835 Y-1.3247
N1795 X-0.7836 Y-1.3228
N1800 G3 X-0.8077 Y-1.2969 I-0.025 J0.0009
N1805 G1 X-0.8327 Y-1.296
N1810 X-0.8366 Y-1.2959 Z1.9879
N1815 X-0.8404 Y-1.2958 Z1.9888
N1820 X-0.844 Y-1.2956 Z1.9903
N1825 X-0.8474 Y-1.2955 Z1.9924
N1830 X-0.8503 Y-1.2954 Z1.9949
N1835 X-0.8529 Y-1.2953 Z1.9979
N1840 X-0.8549 Y-1.2952 Z2.0012
N1845 X-0.8564 Z2.0049
N1850 X-0.8573 Z2.0087
N1855 X-0.8577 Y-1.2951 Z2.0126
N1860 G0 Z2.5906
N1865 G1 X-2.9054 Y-2.1139 F196.85
N1870 G0 Z2.1969
N1875 G1 Z2.0394 F13.123
N1880 Z1.9541
N1885 G18 G2 X-2.8804 Z1.9291 I0.025 K0. F25.
N1890 G1 X-2.8554
N1895 G17 G3 X-2.8304 Y-2.0889 I0. J0.025
N1900 G1 Y-1.8193
N1905 G3 X-2.902 Y-1.7724 I-0.1696 J-0.1807
N1910 G2 X-2.9092 Y-1.7615 I0.0047 J0.0108
N1915 G1 Y-1.5635
N1920 X-2.9336 Y-1.5391
N1925 X-3.0664
N1930 X-3.0908 Y-1.5635
N1935 Y-1.7615
N1940 G2 X-3.098 Y-1.7724 I-0.0118 J0.
N1945 G3 X-3.1696 Y-1.8193 I0.098 J-0.2276
N1950 G1 Y-2.1807
N1955 G3 X-3.098 Y-2.2276 I0.1696 J0.1807
N1960 G2 X-3.0908 Y-2.2385 I-0.0047 J-0.0108
N1965 G1 Y-2.4365
N1970 X-3.0664 Y-2.4609
N1975 X-2.9336
N1980 X-2.9092 Y-2.4365
N1985 Y-2.2385
N1990 G2 X-2.902 Y-2.2276 I0.0118 J0.
N1995 G3 X-2.8304 Y-2.1807 I-0.098 J0.2276
N2000 G1 Y-1.8193
N2005 G3 X-2.902 Y-1.7724 I-0.1696 J-0.1807
N2010 G2 X-2.9092 Y-1.7615 I0.0047 J0.0108
N2015 G1 Y-1.5635
N2020 X-2.9336 Y-1.5391
N2025 X-3.0664
N2030 X-3.0908 Y-1.5635
N2035 Y-1.7615
N2040 G2 X-3.098 Y-1.7724 I-0.0118 J0.
N2045 G3 X-3.1696 Y-1.8193 I0.098 J-0.2276
N2050 G1 Y-2.1807
N2055 G3 X-3.098 Y-2.2276 I0.1696 J0.1807
N2060 G2 X-3.0908 Y-2.2385 I-0.0047 J-0.0108
N2065 G1 Y-2.4365
N2070 X-3.0664 Y-2.4609
N2075 X-2.9336
N2080 X-2.9092 Y-2.4365
N2085 Y-2.2385
N2090 G2 X-2.902 Y-2.2276 I0.0118 J0.
N2095 G3 X-2.8304 Y-2.1807 I-0.098 J0.2276
N2100 G1 Y-2.0889
N2105 G3 X-2.8554 Y-2.0639 I-0.025 J0.
N2110 G1 X-2.8804
N2115 G18 G3 X-2.9054 Z1.9541 I0. K0.025
N2120 G0 Z2.5906
N2125 M9
N2130 M5
N2135 G53 G0 Z0.

(2D Pocket2)
N2140 T10 M6
N2145 S6000 M3
N2150 G17 G90
N2155 G54
N2160 M8
N2165 G1 X-2.9868 Y-2.0942 F196.85
N2170 G0 G43 Z2.5906 H10
N2175 T1
N2180 G0 Z2.1969
N2185 G1 Z2.0984 F13.123
N2190 Z1.9275
N2195 X-2.9861 Y-2.0937 Z1.9244
N2200 X-2.9853 Y-2.0929 Z1.9232
N2205 X-2.9847 Y-2.0919 Z1.9221
N2210 X-2.9841 Y-2.0905 Z1.9217
N2215 X-2.9839 Y-2.0889 Z1.9213
N2220 Y-1.9091 F13.2
N2225 G3 X-2.9894 Y-1.8988 I-0.0124 J0.
N2230 G1 X-2.9928 Y-1.8964
N2235 G3 X-3.0072 I-0.0072 J-0.0101
N2240 G1 X-3.0106 Y-1.8988
N2245 G3 X-3.0161 Y-1.9091 I0.0069 J-0.0103
N2250 G1 Y-2.0909
N2255 G3 X-3.0106 Y-2.1012 I0.0124 J0.
N2260 G1 X-3.0072 Y-2.1036
N2265 G3 X-2.9928 I0.0072 J0.0101
N2270 G1 X-2.9894 Y-2.1012
N2275 G3 X-2.9839 Y-2.0909 I-0.0069 J0.0103
N2280 G1 Y-2.0889
N2285 G2 X-2.9671 Y-2.0638 I0.0273 J0.
N2290 G3 X-2.9503 Y-2.0386 I-0.0105 J0.0252
N2295 G1 Y-1.8978
N2300 G3 X-2.9631 Y-1.8756 I-0.0255 J0.
N2305 G2 X-2.9919 Y-1.8532 I0.0658 J0.1141
N2310 G3 X-3.0081 I-0.0081 J-0.0079
N2315 G2 X-3.0369 Y-1.8756 I-0.0945 J0.0917
N2320 G3 X-3.0497 Y-1.8978 I0.0127 J-0.0221
N2325 G1 Y-2.1022
N2330 G3 X-3.0369 Y-2.1244 I0.0255 J0.
N2335 G2 X-3.0081 Y-2.1468 I-0.0658 J-0.1141
N2340 G3 X-2.9919 I0.0081 J0.0079
N2345 G2 X-2.9631 Y-2.1244 I0.0945 J-0.0917
N2350 G3 X-2.9503 Y-2.1022 I-0.0127 J0.0221
N2355 G1 Y-2.0386
N2360 G2 X-2.9336 Y-2.0134 I0.0273 J0.
N2365 G3 X-2.9168 Y-1.9883 I-0.0105 J0.0252
N2370 G1 Y-1.8748
N2375 G3 X-2.9293 Y-1.8548 I-0.0222 J0.
N2380 G1 X-2.9327 Y-1.8533
N2385 X-2.9363 Y-1.8519
N2390 G2 X-2.9803 Y-1.8159 I0.0408 J0.0948
N2395 X-2.9973 Y-1.7615 I0.0785 J0.0543
N2400 G1 X-2.9955 Y-1.6292
N2405 X-2.9958 Y-1.6278
N2410 X-2.9966 Y-1.6266
N2415 X-2.9979 Y-1.6257
N2420 X-2.9993 Y-1.6254
N2425 X-3.0007
N2430 X-3.0021 Y-1.6257
N2435 X-3.0034 Y-1.6266
N2440 X-3.0042 Y-1.6278
N2445 X-3.0045 Y-1.6292
N2450 G3 X-3.0036 Y-1.6954 I2.4694 J0.
N2455 G2 X-3.0027 Y-1.7615 I-2.4685 J-0.0661
N2460 X-3.0197 Y-1.8159 I-0.0954 J0.
N2465 X-3.0637 Y-1.8519 I-0.0849 J0.0588
N2470 G1 X-3.0673 Y-1.8533
N2475 X-3.0707 Y-1.8548
N2480 G3 X-3.0832 Y-1.8748 I0.0097 J-0.02
N2485 G1 Y-2.1252
N2490 G3 X-3.0707 Y-2.1452 I0.0222 J0.
N2495 G1 X-3.0673 Y-2.1467
N2500 X-3.0637 Y-2.1481
N2505 G2 X-3.0197 Y-2.1841 I-0.0408 J-0.0948
N2510 X-3.0027 Y-2.2385 I-0.0785 J-0.0543
N2515 G1 X-3.0045 Y-2.3708
N2520 X-3.0042 Y-2.3722
N2525 X-3.0034 Y-2.3734
N2530 X-3.0021 Y-2.3743
N2535 X-3.0007 Y-2.3746
N2540 X-2.9993
N2545 X-2.9979 Y-2.3743
N2550 X-2.9966 Y-2.3734
N2555 X-2.9958 Y-2.3722
N2560 X-2.9955 Y-2.3708
N2565 X-2.9973 Y-2.2385
N2570 G2 X-2.9803 Y-2.1841 I0.0954 J0.
N2575 X-2.9363 Y-2.1481 I0.0849 J-0.0588
N2580 G1 X-2.9327 Y-2.1467
N2585 X-2.9293 Y-2.1452
N2590 G3 X-2.9168 Y-2.1252 I-0.0097 J0.02
N2595 G1 Y-1.9883
N2600 G2 X-2.9002 Y-1.9634 I0.0269 J0.
N2605 G3 X-2.8836 Y-1.9385 I-0.0104 J0.0249
N2610 G1 Y-1.8597
N2615 G3 X-2.8977 Y-1.8344 I-0.0297 J0.
N2620 X-2.9103 Y-1.8278 I-0.0552 J-0.0894
N2625 X-2.9234 Y-1.822 I-0.5277 J-1.1899
N2630 G2 X-2.9528 Y-1.7979 I0.0271 J0.0631
N2635 X-2.9641 Y-1.7615 I0.0529 J0.0364
N2640 G1 X-2.9624 Y-1.6049
N2645 G3 X-2.9749 Y-1.5923 I-0.0126 J0.
N2650 G1 X-3.0251
N2655 G3 X-3.0376 Y-1.6049 I0. J-0.0126
N2660 G1 X-3.0359 Y-1.7615
N2665 G2 X-3.0472 Y-1.7979 I-0.0642 J0.
N2670 X-3.0766 Y-1.822 I-0.0566 J0.0389
N2675 G3 X-3.0897 Y-1.8278 I0.5146 J-1.1956
N2680 X-3.1023 Y-1.8344 I0.0426 J-0.096
N2685 X-3.1164 Y-1.8597 I0.0156 J-0.0253
N2690 G1 Y-2.1403
N2695 G3 X-3.1023 Y-2.1656 I0.0297 J0.
N2700 X-3.0897 Y-2.1722 I0.0552 J0.0894
N2705 X-3.0766 Y-2.178 I0.5277 J1.1899
N2710 G2 X-3.0472 Y-2.2021 I-0.0271 J-0.0631
N2715 X-3.0359 Y-2.2385 I-0.0529 J-0.0364
N2720 G1 X-3.0376 Y-2.3951
N2725 G3 X-3.0251 Y-2.4077 I0.0126 J0.
N2730 G1 X-2.9749
N2735 G3 X-2.9624 Y-2.3951 I0. J0.0126
N2740 G1 X-2.9641 Y-2.2385
N2745 G2 X-2.9528 Y-2.2021 I0.0642 J0.
N2750 X-2.9234 Y-2.178 I0.0566 J-0.0389
N2755 G3 X-2.9103 Y-2.1722 I-0.5149 J1.1965
N2760 X-2.8977 Y-2.1656 I-0.0426 J0.096
N2765 X-2.8836 Y-2.1403 I-0.0156 J0.0253
N2770 G1 Y-1.9385
N2775 G2 X-2.8667 Y-1.9132 I0.0274 J0.
N2780 G3 X-2.8499 Y-1.8879 I-0.0105 J0.0253
N2785 G1 Y-1.8279
N2790 G3 X-2.9097 Y-1.7902 I-0.1501 J-0.1721
N2795 G2 X-2.9286 Y-1.7615 I0.0124 J0.0287
N2800 G1 Y-1.5716
N2805 X-2.9417 Y-1.5585
N2810 X-3.0583
N2815 X-3.0714 Y-1.5716
N2820 Y-1.7615
N2825 G2 X-3.0903 Y-1.7902 I-0.0312 J0.
N2830 G3 X-3.1501 Y-1.8279 I0.0903 J-0.2098
N2835 G1 Y-2.1721
N2840 G3 X-3.0903 Y-2.2098 I0.1501 J0.1721
N2845 G2 X-3.0714 Y-2.2385 I-0.0124 J-0.0287
N2850 G1 Y-2.4284
N2855 X-3.0583 Y-2.4415
N2860 X-2.9417
N2865 X-2.9286 Y-2.4284
N2870 Y-2.2385
N2875 G2 X-2.9097 Y-2.2098 I0.0313 J0.
N2880 G3 X-2.8499 Y-2.1721 I-0.0903 J0.2098
N2885 G1 Y-1.8879
N2890 X-2.8501 Y-1.8863 Z1.9217
N2895 X-2.8507 Y-1.8849 Z1.9221
N2900 X-2.8514 Y-1.884 Z1.9232
N2905 X-2.8522 Y-1.8832 Z1.9244
N2910 X-2.8529 Y-1.8827 Z1.9275
N2915 G0 Z2.5906

N2920 M5
N2925 M9
N2930 G53 G0 Z0.
N2935 X-2.5
N2940 G53 G0 Y0.
M98 P9004
N2945 M30

%
