%
O10025 (Automatic CAM Program)
(Using high feed G1 F196.85 instead of G0.)
(T1 D=0.125 CR=0. - ZMIN=0.374 - flat end mill)
(T5 D=0.25 CR=0. TAPER=90deg - ZMIN=0.4606 - spot drill)
(T10 D=0.0625 CR=0. - ZMIN=0.4606 - flat end mill)
N10 G90 G17
N15 G20
N20 G53 G0 Z0.

(2D Pocket1)
N25 T1 M6
N30 S6000 M3
N35 G17 G90
N40 G54
N45 M8
N50 G1 X-1.7495 Y-0.8524 F196.85
N55 G0 G43 Z1.0906 H1
N60 T5
N65 G0 Z0.6969
N70 G1 Z0.5984 F13.123
N75 Z0.4803
N80 Y-0.673 F26.4
N85 G2 X-1.687 Y-0.6105 I0.0625 J0.
N90 G1 X-1.2228
N95 X-0.9995
N100 Y-0.61
N105 X-1. Y-0.6095
N110 X-1.75
N115 X-1.7503 Y-0.6097
N120 X-1.7505 Y-0.61
N125 Y-0.8025
N130 Y-0.8523
N135 Z0.4928
N140 G0 Z1.0906
N145 G1 X-1.3663 Y-1.5307 F196.85
N150 G0 Z0.6969
N155 G1 Z0.5984 F13.123
N160 Z0.4803
N165 X-1.687 F26.4
N170 G2 X-1.7495 Y-1.4682 I0. J0.0625
N175 G1 Y-1.1975
N180 Y-1.1477
N185 X-1.7505 Y-1.1472
N190 Y-1.5312
N195 X-1.75 Y-1.5317
N200 X-1.3659
N205 Z0.4928
N210 G0 Z1.0906
N215 G1 X-1.7387 Y-1.1122 F196.85
N220 G0 Z0.6969
N225 G1 Z0.5984 F13.123
N230 Z0.4606
N235 Y-0.8765 F26.4
N240 X-1.7613
N245 Y-1.1235
N250 X-1.7387
N255 Y-1.1122
N260 X-1.7389 Y-1.1098 Z0.4611
N265 X-1.7396 Y-1.1075 Z0.4616
N270 X-1.7405 Y-1.1057 Z0.4629
N275 X-1.7417 Y-1.1041 Z0.4643
N280 X-1.7436 Y-1.1022 Z0.4683
N285 X-1.7444 Y-1.1017 Z0.4731
N290 G0 Z1.0906
N295 G1 X-1.0043 Y-1.1058 F196.85
N300 G0 Z0.6969
N305 G1 Z0.525 F13.123
N310 Z0.4534 F26.4
N315 X-1.0042 Y-1.1061 Z0.4507
N320 X-1.004 Y-1.107 Z0.448
N325 X-1.0035 Y-1.1084 Z0.4457
N330 X-1.0029 Y-1.1103 Z0.4437
N335 X-1.0022 Y-1.1125 Z0.4422
N340 X-1.0013 Y-1.115 Z0.4413
N345 X-1.0005 Y-1.1177 Z0.4409
N350 X-1.0003 Y-1.1179
N355 X-1. Y-1.118
N360 G3 Y-0.882 I0. J0.118
N365 Y-1.118 I0. J-0.118
N370 G2 X-0.9923 Y-1.1274 I0. J-0.0079
N375 G1 X-1.0031 Y-1.1814
N380 G3 X-0.9952 Y-1.1908 I0.0077 J-0.0016
N385 X-0.8653 Y-0.8648 I-0.0048 J0.1908
N390 X-0.9273 Y-0.8245 I-0.1268 J-0.1274
N395 X-1.0727 I-0.0727 J-0.1879
N400 X-1.1347 Y-0.8648 I0.0648 J-0.1676
N405 X-1.0046 Y-1.1908 I0.1347 J-0.1352
N410 G2 X-0.997 Y-1.1996 I-0.0002 J-0.0079
N415 G1 X-1.0032 Y-1.2531
N420 G3 X-0.9952 Y-1.2619 I0.0078 J-0.0009
N425 X-0.8152 Y-0.8144 I-0.0048 J0.2619
N430 X-0.9002 Y-0.7588 I-0.1769 J-0.1776
N435 X-1.0998 I-0.0998 J-0.2534
N440 X-1.1848 Y-0.8144 I0.0919 J-0.2332
N445 X-1.0048 Y-1.2619 I0.1848 J-0.1856
N450 G2 X-0.9971 Y-1.2707 I-0.0001 J-0.0079
N455 G1 X-1.0044 Y-1.328
N460 G3 X-0.9953 Y-1.3367 I0.0078 J-0.001
N465 G1 X-0.947 Y-1.3289
N470 G3 X-1.053 I-0.053 J0.3289
N475 G1 X-1.005 Y-1.3367
N480 X-1.0026 Y-1.3368 Z0.4414
N485 X-1.0002 Y-1.3364 Z0.4419
N490 X-0.9983 Y-1.3357 Z0.4433
N495 X-0.9965 Y-1.3347 Z0.4446
N500 X-0.9945 Y-1.333 Z0.4487
N505 X-0.9939 Y-1.3323 Z0.4534
N510 G0 Z1.0906
N515 G1 X-0.9838 Y-1.0105 F196.85
N520 G0 Z0.6969
N525 G1 Z0.5984 F13.123
N530 Z0.4771
N535 X-0.983 Y-1.01 Z0.4723
N540 X-0.981 Y-1.0081 Z0.4682
N545 X-0.9799 Y-1.0065 Z0.4669
N550 X-0.979 Y-1.0047 Z0.4655
N555 X-0.9783 Y-1.0024 Z0.465
N560 X-0.978 Y-1. Z0.4646
N565 G3 X-1.022 I-0.022 J0. F26.4
N570 X-0.978 I0.022 J0.
N575 X-0.9937 Y-0.999 I-0.0079 J0.
N580 G1 X-1.0062 Y-1.0933
N585 G3 X-0.9953 Y-1.1016 I0.0078 J-0.001
N590 G1 X-0.962 Y-1.0871
N595 G3 X-1.038 I-0.038 J0.0871
N600 G1 X-1.0047 Y-1.1016
N605 X-1.0036 Y-1.1018
N610 X-1.0024 Y-1.1016
N615 X-1.0015 Y-1.1009
N620 X-1.0008 Y-1.1
N625 X-1.0006 Y-1.0988
N630 X-1.0007 Y-1.0845
N635 X-0.9971 Y-1.0141
N640 G3 X-1.0004 Y-1.0193 I-0.0062 J0.0003
N645 G1 X-0.9838 Y-1.0105
N650 Z0.4416 F13.123
N655 X-0.983 Y-1.01 Z0.4369
N660 X-0.981 Y-1.0081 Z0.4328
N665 X-0.9799 Y-1.0065 Z0.4314
N670 X-0.979 Y-1.0047 Z0.4301
N675 X-0.9783 Y-1.0024 Z0.4296
N680 X-0.978 Y-1. Z0.4291
N685 G3 X-1.022 I-0.022 J0. F26.4
N690 X-0.978 I0.022 J0.
N695 X-0.9937 Y-0.999 I-0.0079 J0.
N700 G1 X-1.0062 Y-1.0933
N705 G3 X-0.9953 Y-1.1016 I0.0078 J-0.001
N710 G1 X-0.962 Y-1.0871
N715 G3 X-1.038 I-0.038 J0.0871
N720 G1 X-1.0047 Y-1.1016
N725 X-1.0029 Y-1.1022 Z0.4295
N730 X-1.0009 Y-1.1024 Z0.4299
N735 X-0.9992 Y-1.1023 Z0.431
N740 X-0.9976 Y-1.102 Z0.4322
N745 X-0.9955 Y-1.1011 Z0.4355
N750 X-0.9949 Y-1.1007 Z0.4395
N755 G0 Z1.0906

(Trace1)
N760 G1 X-1. Y-1.5312 F196.85
N765 G0 Z1.0906
N770 Z0.6969
N775 G1 Z0.4213 F13.123
N780 X-1.375 Z0.4803 F15.4
N785 Z0.6969
N790 G0 X-1.
N795 G1 Z0.4213 F13.123
N800 Y-1.4682 F15.4
N805 Y-1.3512 Z0.374
N810 Y-1.1171
N815 Y-1. Z0.4213
N820 Z0.6969
N825 G0 Y-1.5312
N830 G1 Z0.4213 F13.123
N835 X-1.375 Z0.4803 F15.4
N840 Z0.6969
N845 G0 X-1.
N850 G1 Z0.4213 F13.123
N855 Y-1.4682 F15.4
N860 Y-1.3512 Z0.374
N865 Y-1.1171
N870 Y-1. Z0.4213
N875 Z0.6969
N880 G0 Z1.0906
N885 M9
N890 M5
N895 G53 G0 Z0.

(2D Contour1)
N900 T5 M6
N905 S4500 M3
N910 G17 G90
N915 G54
N920 M8
N925 G1 X-1.7512 Y-1.1372 F196.85
N930 G0 G43 Z1.0906 H5
N935 T10
N940 G0 Z0.6969
N945 G1 Z0.5394 F13.123
N950 Z0.4856
N955 G18 G2 X-1.7262 Z0.4606 I0.025 K0. F25.
N960 G1 X-1.7012
N965 G17 G3 X-1.6762 Y-1.1122 I0. J0.025
N970 G1 Y-0.8553
N975 G3 X-1.7175 Y-0.814 I-0.0413 J0.
N980 G1 X-1.7825
N985 G3 X-1.8238 Y-0.8553 I0. J-0.0413
N990 G1 Y-1.1447
N995 G3 X-1.7825 Y-1.186 I0.0413 J0.
N1000 G1 X-1.7175
N1005 G3 X-1.6762 Y-1.1447 I0. J0.0413
N1010 G1 Y-0.8553
N1015 G3 X-1.7175 Y-0.814 I-0.0413 J0.
N1020 G1 X-1.7825
N1025 G3 X-1.8238 Y-0.8553 I0. J-0.0413
N1030 G1 Y-1.1447
N1035 G3 X-1.7825 Y-1.186 I0.0413 J0.
N1040 G1 X-1.7175
N1045 G3 X-1.6762 Y-1.1447 I0. J0.0413
N1050 G1 Y-1.1122
N1055 G3 X-1.7012 Y-1.0872 I-0.025 J0.
N1060 G1 X-1.7262
N1065 G18 G3 X-1.7512 Z0.4856 I0. K0.025
N1070 G0 Z1.0906
N1075 M9
N1080 M5
N1085 G53 G0 Z0.

(2D Pocket2)
N1090 T10 M6
N1095 S6000 M3
N1100 G17 G90
N1105 G54
N1110 M8
N1115 G1 X-1.7441 Y-1.1175 F196.85
N1120 G0 G43 Z1.0906 H10
N1125 T1
N1130 G0 Z0.6969
N1135 G1 Z0.5984 F13.123
N1140 Z0.4669
N1145 X-1.7434 Y-1.117 Z0.4638
N1150 X-1.7426 Y-1.1161 Z0.4626
N1155 X-1.742 Y-1.1152 Z0.4615
N1160 X-1.7414 Y-1.1138 Z0.461
N1165 X-1.7412 Y-1.1122 Z0.4606
N1170 Y-0.8898 F13.2
N1175 G3 X-1.7588 I-0.0088 J0.
N1180 G1 Y-1.1141
N1185 X-1.7586 Y-1.1159
N1190 X-1.7579 Y-1.1176
N1195 X-1.7568 Y-1.119
N1200 X-1.7554 Y-1.1201
N1205 X-1.7537 Y-1.1208
N1210 X-1.7519 Y-1.121
N1215 X-1.7481
N1220 X-1.7463 Y-1.1208
N1225 X-1.7446 Y-1.1201
N1230 X-1.7432 Y-1.119
N1235 X-1.7421 Y-1.1176
N1240 X-1.7414 Y-1.1159
N1245 X-1.7412 Y-1.1141
N1250 Y-1.1122
N1255 G2 X-1.7243 Y-1.0869 I0.0274 J0.
N1260 G3 X-1.7074 Y-1.0616 I-0.0105 J0.0253
N1265 G1 Y-0.8553
N1270 G3 X-1.7175 Y-0.8452 I-0.0101 J0.
N1275 G1 X-1.7825
N1280 G3 X-1.7926 Y-0.8553 I0. J-0.0101
N1285 G1 Y-1.1447
N1290 G3 X-1.7825 Y-1.1548 I0.0101 J0.
N1295 G1 X-1.7175
N1300 G3 X-1.7074 Y-1.1447 I0. J0.0101
N1305 G1 Y-1.0616
N1310 X-1.7077 Y-1.06 Z0.461
N1315 X-1.7083 Y-1.0586 Z0.4615
N1320 X-1.709 Y-1.0577 Z0.4626
N1325 X-1.7098 Y-1.0569 Z0.4638
N1330 X-1.7105 Y-1.0564 Z0.4669
N1335 G0 Z1.0906

N1340 M5
N1345 M9
N1350 G53 G0 Z0.
N1355 X-1.5
N1360 G53 G0 Y0.
M98 P9004
N1365 M30

%
