%
O10022 (Automatic CAM Program)
(Using high feed G1 F196.85 instead of G0.)
(T1 D=0.125 CR=0. - ZMIN=0.374 - flat end mill)
(T5 D=0.25 CR=0. TAPER=90deg - ZMIN=0.4291 - spot drill)
(T10 D=0.0625 CR=0. - ZMIN=0.4213 - flat end mill)
N10 G90 G17
N15 G20
N20 G53 G0 Z0.

(2D Pocket1)
N25 T1 M6
N30 S6000 M3
N35 G17 G90
N40 G54
N45 M8
N50 G1 X-2.4995 Y-0.6626 F196.85
N55 G0 G43 Z1.0906 H1
N60 T5
N65 G0 Z0.6969
N70 G1 Z0.5984 F13.123
N75 Z0.4803
N80 Y-0.6094 F26.4
N85 Y-0.585
N90 G2 X-2.437 Y-0.5225 I0.0625 J0.
N95 G1 X-1.5062
N100 G2 X-1.494 Y-0.5237 I0. J-0.0625
N105 G1 X-1.1118 Y-0.6002
N110 X-1.0656 Y-0.6094
N115 Z0.4928
N120 G0 Z0.6969
N125 Y-0.6084
N130 G1 Z0.5984 F13.123
N135 Z0.4803
N140 X-1.1222 Y-0.5971 F26.4
N145 X-1.4999 Y-0.5215
N150 X-2.5
N155 X-2.5003 Y-0.5217
N160 X-2.5005 Y-0.522
N165 Y-0.6094
N170 Y-0.6626
N175 Z0.4928
N180 G0 Z1.0906
N185 G1 X-1.0659 Y-1.4209 F196.85
N190 G0 Z0.6969
N195 G1 Z0.5984 F13.123
N200 Z0.4803
N205 X-1.0896 Y-1.4365 F26.4
N210 X-1.5088 Y-1.7129
N215 G2 X-1.5432 Y-1.7232 I-0.0344 J0.0522
N220 G1 X-2.0304
N225 Z0.4928
N230 G0 Z0.6969
N235 G1 X-2.0301 Y-1.7242 F196.85
N240 Z0.5984 F13.123
N245 Z0.4803
N250 X-1.5243 F26.4
N255 X-1.096 Y-1.4419
N260 X-1.0659 Y-1.422
N265 Z0.4928
N270 G0 Z1.0906
N275 G1 X-2.5043 Y-1.1058 F196.85
N280 G0 Z0.6969
N285 G1 Z0.525 F13.123
N290 Z0.4534 F26.4
N295 X-2.5042 Y-1.1061 Z0.4507
N300 X-2.5039 Y-1.107 Z0.448
N305 X-2.5034 Y-1.1084 Z0.4457
N310 X-2.5028 Y-1.1103 Z0.4437
N315 X-2.5021 Y-1.1126 Z0.4422
N320 X-2.5013 Y-1.1151 Z0.4413
N325 X-2.5004 Y-1.1177 Z0.4409
N330 X-2.5 Y-1.118
N335 G3 Y-0.882 I0. J0.118
N340 Y-1.118 I0. J-0.118
N345 G2 X-2.4514 Y-1.1467 I0. J-0.0556
N350 G3 X-2.3966 Y-1.1604 I0.0338 J0.0187
N355 X-2.3653 Y-0.8648 I-0.1034 J0.1604
N360 X-2.4244 Y-0.8257 I-0.1262 J-0.1267
N365 X-2.4937 Y-0.811 I-0.0761 J-0.1878
N370 X-2.5697 Y-0.8233 I-0.0067 J-0.2003
N375 X-2.6347 Y-0.8648 I0.0625 J-0.1694
N380 X-2.3966 Y-1.1604 I0.1347 J-0.1352
N385 G2 X-2.3882 Y-1.1737 I0.0043 J-0.0066
N390 G1 X-2.508 Y-1.2473
N395 G3 X-2.504 Y-1.2619 I0.0041 J-0.0067
N400 X-2.3152 Y-0.8144 I0.004 J0.2619
N405 X-2.3962 Y-0.7605 I-0.1762 J-0.1769
N410 X-2.4913 Y-0.74 I-0.1043 J-0.2528
N415 X-2.5957 Y-0.7572 I-0.0091 J-0.2712
N420 X-2.6848 Y-0.8144 I0.0884 J-0.2355
N425 X-2.5139 Y-1.2615 I0.1848 J-0.1856
N430 G2 X-2.5065 Y-1.2706 I-0.0004 J-0.0079
N435 G1 X-2.5154 Y-1.3277
N440 G3 X-2.5066 Y-1.3367 I0.0078 J-0.0012
N445 G1 X-2.458 Y-1.3305
N450 G3 X-2.5641 Y-1.327 I-0.042 J0.3305
N455 G1 X-2.5163 Y-1.3363
N460 X-2.5139 Y-1.3365 Z0.4414
N465 X-2.5115 Y-1.3362 Z0.4419
N470 X-2.5096 Y-1.3356 Z0.4433
N475 X-2.5078 Y-1.3346 Z0.4446
N480 X-2.5057 Y-1.333 Z0.4487
N485 X-2.505 Y-1.3323 Z0.4534
N490 G0 Z1.0906
N495 G1 X-2.4838 Y-1.0105 F196.85
N500 G0 Z0.6969
N505 G1 Z0.5984 F13.123
N510 Z0.4771
N515 X-2.483 Y-1.01 Z0.4723
N520 X-2.481 Y-1.0081 Z0.4682
N525 X-2.4799 Y-1.0065 Z0.4669
N530 X-2.479 Y-1.0047 Z0.4655
N535 X-2.4783 Y-1.0024 Z0.465
N540 X-2.478 Y-1. Z0.4646
N545 G3 X-2.5219 I-0.0219 J0. F26.4
N550 X-2.478 I0.0219 J0.
N555 X-2.4937 Y-0.9987 I-0.0079 J0.
N560 G1 X-2.5093 Y-1.0931
N565 G3 X-2.4987 Y-1.1017 I0.0078 J-0.0013
N570 G1 X-2.4649 Y-1.0883
N575 G3 X-2.5409 Y-1.0857 I-0.035 J0.0883
N580 G1 X-2.5082 Y-1.1013
N585 X-2.507 Y-1.1016
N590 X-2.5059 Y-1.1015
N595 X-2.5049 Y-1.1008
N600 X-2.5042 Y-1.0999
N605 X-2.5039 Y-1.0987
N610 X-2.5036 Y-1.0844
N615 X-2.4975 Y-1.0139
N620 G3 X-2.5009 Y-1.019 I-0.0062 J0.0005
N625 G1 X-2.4838 Y-1.0105
N630 Z0.4416 F13.123
N635 X-2.483 Y-1.01 Z0.4369
N640 X-2.481 Y-1.0081 Z0.4328
N645 X-2.4799 Y-1.0065 Z0.4314
N650 X-2.479 Y-1.0047 Z0.4301
N655 X-2.4783 Y-1.0024 Z0.4296
N660 X-2.478 Y-1. Z0.4291
N665 G3 X-2.5219 I-0.0219 J0. F26.4
N670 X-2.478 I0.0219 J0.
N675 X-2.4937 Y-0.9987 I-0.0079 J0.
N680 G1 X-2.5093 Y-1.0931
N685 G3 X-2.4987 Y-1.1017 I0.0078 J-0.0013
N690 G1 X-2.4649 Y-1.0883
N695 G3 X-2.5409 Y-1.0857 I-0.035 J0.0883
N700 G1 X-2.5082 Y-1.1013
N705 X-2.5063 Y-1.102 Z0.4295
N710 X-2.5043 Y-1.1023 Z0.4299
N715 X-2.5027 Z0.431
N720 X-2.501 Y-1.102 Z0.4322
N725 X-2.4989 Y-1.1012 Z0.4355
N730 X-2.4982 Y-1.1008 Z0.4395
N735 G0 Z1.0906
N740 G1 X-0.9787 Y-0.8985 F196.85
N745 G0 Z0.6969
N750 G1 Z0.5984 F13.123
N755 Z0.4731
N760 Y-0.8975 Z0.4683
N765 X-0.9793 Y-0.8949 Z0.4643
N770 X-0.9801 Y-0.893 Z0.4629
N775 X-0.9811 Y-0.8913 Z0.4616
N780 X-0.9828 Y-0.8895 Z0.4611
N785 X-0.9847 Y-0.8881 Z0.4606
N790 X-0.9894 Y-0.8851 F26.4
N795 G3 X-1.0106 I-0.0106 J-0.016
N800 G1 X-1.017 Y-0.8891
N805 G3 X-1.0296 Y-0.911 I0.0128 J-0.0219
N810 G1 Y-1.089
N815 G3 X-1.017 Y-1.1109 I0.0254 J0.
N820 G1 X-1.0106 Y-1.1149
N825 G3 X-0.9894 I0.0106 J0.016
N830 G1 X-0.983 Y-1.1109
N835 G3 X-0.9704 Y-1.089 I-0.0128 J0.0219
N840 G1 Y-0.911
N845 G3 X-0.983 Y-0.8891 I-0.0254 J0.
N850 G1 X-0.9847 Y-0.8881
N855 G2 X-1.0019 Y-0.8086 I0.029 J0.0479
N860 G3 X-0.9779 Y-0.7309 I-0.1137 J0.0777
N865 G1 Y-0.6078
N870 X-1.0221
N875 Y-0.7737
N880 G2 X-1.0628 Y-0.8322 I-0.0625 J0.
N885 G3 X-1.1009 Y-0.852 I0.0628 J-0.1678
N890 G1 Y-1.148
N895 G3 X-1.0628 Y-1.1678 I0.1009 J0.148
N900 G2 X-1.0221 Y-1.2263 I-0.0219 J-0.0585
N905 G1 Y-1.3922
N910 X-0.9779
N915 Y-1.2263
N920 G2 X-0.9372 Y-1.1678 I0.0625 J0.
N925 G3 X-0.8991 Y-1.148 I-0.0628 J0.1678
N930 G1 Y-0.852
N935 G3 X-0.9372 Y-0.8322 I-0.1009 J-0.148
N940 G2 X-0.9779 Y-0.7737 I0.0219 J0.0585
N945 G1 Y-0.7309
N950 X-0.9781 Y-0.7296
N955 X-0.9788 Y-0.7286
N960 X-0.9799 Y-0.728
N965 X-0.9811 Y-0.7278
N970 X-0.9823 Y-0.728
N975 X-0.9833 Y-0.7288
N980 X-0.9839 Y-0.7299
N985 X-0.9872 Y-0.7402
N990 X-0.9876 Y-0.8897
N995 X-0.9845 Y-0.8995
N1000 X-0.9839 Y-0.9006
N1005 X-0.9829 Y-0.9013
N1010 X-0.9817 Y-0.9016
N1015 X-0.9805 Y-0.9013
N1020 X-0.9795 Y-0.9007
N1025 X-0.9789 Y-0.8997
N1030 X-0.9787 Y-0.8985
N1035 Z0.4338 F13.123
N1040 Y-0.8975 Z0.429
N1045 X-0.9793 Y-0.8949 Z0.4249
N1050 X-0.9801 Y-0.893 Z0.4236
N1055 X-0.9811 Y-0.8913 Z0.4222
N1060 X-0.9828 Y-0.8895 Z0.4217
N1065 X-0.9847 Y-0.8881 Z0.4213
N1070 X-0.9894 Y-0.8851 F26.4
N1075 G3 X-1.0106 I-0.0106 J-0.016
N1080 G1 X-1.017 Y-0.8891
N1085 G3 X-1.0296 Y-0.911 I0.0128 J-0.0219
N1090 G1 Y-1.089
N1095 G3 X-1.017 Y-1.1109 I0.0254 J0.
N1100 G1 X-1.0106 Y-1.1149
N1105 G3 X-0.9894 I0.0106 J0.016
N1110 G1 X-0.983 Y-1.1109
N1115 G3 X-0.9704 Y-1.089 I-0.0128 J0.0219
N1120 G1 Y-0.911
N1125 G3 X-0.983 Y-0.8891 I-0.0254 J0.
N1130 G1 X-0.9847 Y-0.8881
N1135 G2 X-1.0019 Y-0.8086 I0.029 J0.0479
N1140 G3 X-0.9779 Y-0.7309 I-0.1137 J0.0777
N1145 G1 Y-0.6078
N1150 X-1.0221
N1155 Y-0.7737
N1160 G2 X-1.0628 Y-0.8322 I-0.0625 J0.
N1165 G3 X-1.1009 Y-0.852 I0.0628 J-0.1678
N1170 G1 Y-1.148
N1175 G3 X-1.0628 Y-1.1678 I0.1009 J0.148
N1180 G2 X-1.0221 Y-1.2263 I-0.0219 J-0.0585
N1185 G1 Y-1.3922
N1190 X-0.9779
N1195 Y-1.2263
N1200 G2 X-0.9372 Y-1.1678 I0.0625 J0.
N1205 G3 X-0.8991 Y-1.148 I-0.0628 J0.1678
N1210 G1 Y-0.852
N1215 G3 X-0.9372 Y-0.8322 I-0.1009 J-0.148
N1220 G2 X-0.9779 Y-0.7737 I0.0219 J0.0585
N1225 G1 Y-0.7309
N1230 X-0.9781 Y-0.7285 Z0.4217
N1235 X-0.9789 Y-0.7262 Z0.4222
N1240 X-0.9799 Y-0.7245 Z0.4236
N1245 X-0.9811 Y-0.7229 Z0.4249
N1250 X-0.9832 Y-0.7211 Z0.429
N1255 X-0.984 Y-0.7206 Z0.4338
N1260 G0 Z1.0906

(Trace1)
N1265 G1 X-2.5243 Y-1.7237 F196.85
N1270 G0 Z1.0906
N1275 Z0.6969
N1280 G1 Z0.4213 F13.123
N1285 X-2.0243 Z0.4803 F15.4
N1290 Z0.6969
N1295 G0 X-2.5243
N1300 G1 Z0.4213 F13.123
N1305 X-2.5222 Y-1.6607 F15.4
N1310 X-2.5166 Y-1.4956 Z0.374
N1315 X-2.5055 Y-1.1652
N1320 X-2.5 Y-1. Z0.4213
N1325 Z0.6969
N1330 X-2.5243 Y-1.7237 F196.85
N1335 Z0.4213 F13.123
N1340 X-2.0243 Z0.4803 F15.4
N1345 Z0.6969
N1350 G0 X-2.5243
N1355 G1 Z0.4213 F13.123
N1360 X-2.5222 Y-1.6607 F15.4
N1365 X-2.5166 Y-1.4956 Z0.374
N1370 X-2.5055 Y-1.1652
N1375 X-2.5 Y-1. Z0.4213
N1380 Z0.6969
N1385 G0 Z1.0906
N1390 M9
N1395 M5
N1400 G53 G0 Z0.

(2D Contour1)
N1405 T5 M6
N1410 S4500 M3
N1415 G17 G90
N1420 G54
N1425 M8
N1430 G1 X-1.0633 Y-1.6006 F196.85
N1435 G0 G43 Z1.0906 H5
N1440 T10
N1445 G0 Z0.6969
N1450 G1 Z0.5394 F13.123
N1455 Z0.5103
N1460 Y-1.6003 Z0.5064 F25.
N1465 Y-1.5994 Z0.5025
N1470 Y-1.5979 Z0.4989
N1475 Y-1.5958 Z0.4956
N1480 Y-1.5933 Z0.4926
N1485 Y-1.5903 Z0.49
N1490 Y-1.5869 Z0.488
N1495 Y-1.5833 Z0.4865
N1500 Y-1.5795 Z0.4856
N1505 Y-1.5756 Z0.4853
N1510 Y-1.5506
N1515 G3 X-1.0883 Y-1.5256 I-0.025 J0.
N1520 G1 X-1.0906 Y-1.5254 F0.984
N1525 X-1.0928 Y-1.5247
N1530 X-1.0948 Y-1.5236
N1535 X-1.0966 Y-1.5221
N1540 X-1.0979 Y-1.5209
N1545 G2 X-1.0961 Y-1.5026 I0.0083 J0.0084
N1550 G1 X-1.0936 Y-1.501
N1555 G2 X-1.0761 Y-1.5154 I0.0065 J-0.0099
N1560 G1 X-1.0774 Y-1.5183
N1565 G2 X-1.0966 Y-1.5221 I-0.0109 J0.0045
N1570 G1 X-1.0979 Y-1.5209
N1575 G2 X-1.0961 Y-1.5026 I0.0083 J0.0084
N1580 G1 X-1.0936 Y-1.501
N1585 G2 X-1.0761 Y-1.5154 I0.0065 J-0.0099
N1590 G1 X-1.0774 Y-1.5183
N1595 G2 X-1.0883 Y-1.5256 I-0.0109 J0.0045
N1600 G3 X-1.1133 Y-1.5506 I0. J-0.025 F25.
N1605 G1 Y-1.5756
N1610 Y-1.5795 Z0.4856
N1615 Y-1.5833 Z0.4865
N1620 Y-1.5869 Z0.488
N1625 Y-1.5903 Z0.49
N1630 Y-1.5933 Z0.4926
N1635 Y-1.5958 Z0.4956
N1640 Y-1.5979 Z0.4989
N1645 Y-1.5994 Z0.5025
N1650 Y-1.6003 Z0.5064
N1655 Y-1.6006 Z0.5103
N1660 G0 Z1.0906
N1665 G1 X-0.9234 Y-0.9384 F196.85
N1670 G0 Z0.6969
N1675 G1 Z0.5394 F13.123
N1680 Z0.4541
N1685 G18 G2 X-0.8984 Z0.4291 I0.025 K0. F25.
N1690 G1 X-0.8734
N1695 G17 G3 X-0.8484 Y-0.9134 I0. J0.025
N1700 G1 Y-0.8272 F0.984
N1705 G3 X-0.9195 Y-0.7847 I-0.1516 J-0.1728
N1710 G2 X-0.9272 Y-0.7737 I0.0041 J0.0111
N1715 G1 Y-0.571
N1720 X-0.9411 Y-0.5571
N1725 X-1.0589
N1730 X-1.0728 Y-0.571
N1735 Y-0.7737
N1740 G2 X-1.0805 Y-0.7847 I-0.0118 J0.
N1745 G3 X-1.1516 Y-0.8272 I0.0805 J-0.2153
N1750 G1 Y-1.1728
N1755 G3 X-1.0805 Y-1.2153 I0.1516 J0.1728
N1760 G2 X-1.0728 Y-1.2263 I-0.0041 J-0.0111
N1765 G1 Y-1.429
N1770 X-1.0589 Y-1.4429
N1775 X-0.9411
N1780 X-0.9272 Y-1.429
N1785 Y-1.2263
N1790 G2 X-0.9195 Y-1.2153 I0.0118 J0.
N1795 G3 X-0.8484 Y-1.1728 I-0.0805 J0.2153
N1800 G1 Y-0.9134
N1805 Y-0.8272
N1810 G3 X-0.9195 Y-0.7847 I-0.1516 J-0.1728
N1815 G2 X-0.9272 Y-0.7737 I0.0041 J0.0111
N1820 G1 Y-0.571
N1825 X-0.9411 Y-0.5571
N1830 X-1.0589
N1835 X-1.0728 Y-0.571
N1840 Y-0.7737
N1845 G2 X-1.0805 Y-0.7847 I-0.0118 J0.
N1850 G3 X-1.1516 Y-0.8272 I0.0805 J-0.2153
N1855 G1 Y-1.1728
N1860 G3 X-1.0805 Y-1.2153 I0.1516 J0.1728
N1865 G2 X-1.0728 Y-1.2263 I-0.0041 J-0.0111
N1870 G1 Y-1.429
N1875 X-1.0589 Y-1.4429
N1880 X-0.9411
N1885 X-0.9272 Y-1.429
N1890 Y-1.2263
N1895 G2 X-0.9195 Y-1.2153 I0.0118 J0.
N1900 G3 X-0.8484 Y-1.1728 I-0.0805 J0.2153
N1905 G1 Y-0.9134
N1910 G3 X-0.8734 Y-0.8884 I-0.025 J0. F25.
N1915 G1 X-0.8984
N1920 G18 G3 X-0.9234 Z0.4541 I0. K0.025
N1925 G0 Z1.0906
N1930 M9
N1935 M5
N1940 G53 G0 Z0.

(2D Pocket2)
N1945 T10 M6
N1950 S6000 M3
N1955 G17 G90
N1960 G54
N1965 M8
N1970 G1 X-0.9927 Y-0.9187 F196.85
N1975 G0 G43 Z1.0906 H10
N1980 T1
N1985 G0 Z0.6969
N1990 G1 Z0.5984 F13.123
N1995 Z0.4275
N2000 X-0.992 Y-0.9182 Z0.4244
N2005 X-0.9912 Y-0.9174 Z0.4232
N2010 X-0.9906 Y-0.9164 Z0.4221
N2015 X-0.99 Y-0.915 Z0.4217
N2020 X-0.9898 Y-0.9134 Z0.4213
N2025 Y-0.9129 F13.2
N2030 X-0.9901 Y-0.9106
N2035 X-0.991 Y-0.9083
N2040 X-0.9925 Y-0.9064
N2045 X-0.9943 Y-0.905
N2050 X-0.9952 Y-0.9045
N2055 X-0.997 Y-0.9036
N2060 X-0.999 Y-0.9032
N2065 X-1.001
N2070 X-1.003 Y-0.9036
N2075 X-1.0048 Y-0.9045
N2080 X-1.0057 Y-0.905
N2085 X-1.0075 Y-0.9064
N2090 X-1.009 Y-0.9083
N2095 X-1.0099 Y-0.9106
N2100 X-1.0102 Y-0.9129
N2105 Y-1.0871
N2110 X-1.0099 Y-1.0894
N2115 X-1.009 Y-1.0917
N2120 X-1.0075 Y-1.0936
N2125 X-1.0057 Y-1.095
N2130 X-1.0048 Y-1.0955
N2135 X-1.003 Y-1.0964
N2140 X-1.001 Y-1.0968
N2145 X-0.999
N2150 X-0.997 Y-1.0964
N2155 X-0.9952 Y-1.0955
N2160 X-0.9943 Y-1.095
N2165 X-0.9925 Y-1.0936
N2170 X-0.991 Y-1.0917
N2175 X-0.9901 Y-1.0894
N2180 X-0.9898 Y-1.0871
N2185 Y-0.9134
N2190 G2 X-0.9829 Y-0.9013 I0.0142 J0.
N2195 G3 Y-0.8873 I-0.0042 J0.007
N2200 G1 X-0.9893 Y-0.8832
N2205 G3 X-1.0107 I-0.0107 J-0.0159
N2210 G1 X-1.0184 Y-0.8881
N2215 G3 X-1.0312 Y-0.9102 I0.0128 J-0.0222
N2220 G1 Y-1.0898
N2225 G3 X-1.0184 Y-1.1119 I0.0256 J0.
N2230 G1 X-1.0107 Y-1.1168
N2235 G3 X-0.9893 I0.0107 J0.0159
N2240 G1 X-0.9816 Y-1.1119
N2245 G3 X-0.9688 Y-1.0898 I-0.0128 J0.0222
N2250 G1 Y-0.9102
N2255 G3 X-0.9816 Y-0.8881 I-0.0256 J0.
N2260 G1 X-0.9829 Y-0.8873
N2265 G2 X-0.9929 Y-0.8606 I0.0116 J0.0195
N2270 G3 X-1.0168 Y-0.8452 I-0.0139 J0.0047
N2275 G2 X-1.0266 Y-0.8533 I-0.0663 J0.0704
N2280 X-1.0507 Y-0.8663 I-0.0613 J0.0851
N2285 G3 X-1.0648 Y-0.8866 I0.0077 J-0.0204
N2290 G1 Y-1.1134
N2295 G3 X-1.0507 Y-1.1337 I0.0218 J0.
N2300 G2 X-1.0266 Y-1.1467 I-0.0372 J-0.098
N2305 X-1.0069 Y-1.1657 I-0.0565 J-0.0784
N2310 G3 X-0.9931 I0.0069 J0.0053
N2315 G2 X-0.9734 Y-1.1467 I0.0763 J-0.0594
N2320 X-0.9493 Y-1.1337 I0.0613 J-0.0851
N2325 G3 X-0.9352 Y-1.1134 I-0.0077 J0.0204
N2330 G1 Y-0.8866
N2335 G3 X-0.9493 Y-0.8663 I-0.0218 J0.
N2340 G2 X-0.9734 Y-0.8533 I0.0372 J0.098
N2345 X-0.9931 Y-0.8343 I0.0565 J0.0784
N2350 G3 X-1.0069 I-0.0069 J-0.0053
N2355 G2 X-1.0168 Y-0.8452 I-0.0763 J0.0594
N2360 X-1.0497 Y-0.8467 I-0.0173 J0.0184
N2365 G3 X-1.0824 Y-0.8438 I-0.0187 J-0.0238
N2370 G1 X-1.0826 Y-0.8439
N2375 G3 X-1.0984 Y-0.8701 I0.0139 J-0.0263
N2380 G1 Y-1.1299
N2385 G3 X-1.0826 Y-1.1561 I0.0297 J0.
N2390 X-1.0719 Y-1.1609 I0.0423 J0.0801
N2395 G1 X-1.0616 Y-1.1648
N2400 G2 X-1.0301 Y-1.1887 I-0.0241 J-0.0644
N2405 X-1.0179 Y-1.2263 I-0.0516 J-0.0376
N2410 G1 X-1.0196 Y-1.3771
N2415 G3 X-1.0071 Y-1.3897 I0.0126 J0.
N2420 G1 X-0.9929
N2425 G3 X-0.9804 Y-1.3771 I0. J0.0126
N2430 G1 X-0.9821 Y-1.2263
N2435 G2 X-0.9699 Y-1.1887 I0.0639 J0.
N2440 X-0.9384 Y-1.1648 I0.0556 J-0.0405
N2445 G1 X-0.9281 Y-1.1609
N2450 G3 X-0.9174 Y-1.1561 I-0.0317 J0.0849
N2455 X-0.9016 Y-1.1299 I-0.0139 J0.0263
N2460 G1 Y-0.8701
N2465 G3 X-0.9174 Y-0.8439 I-0.0297 J0.
N2470 X-0.9281 Y-0.8391 I-0.0423 J-0.0801
N2475 G1 X-0.9384 Y-0.8352
N2480 G2 X-0.9699 Y-0.8113 I0.0241 J0.0644
N2485 X-0.9821 Y-0.7737 I0.0516 J0.0376
N2490 G1 X-0.9804 Y-0.6229
N2495 G3 X-0.9929 Y-0.6103 I-0.0126 J0.
N2500 G1 X-1.0071
N2505 G3 X-1.0196 Y-0.6229 I0. J-0.0126
N2510 G1 X-1.0179 Y-0.7737
N2515 G2 X-1.0301 Y-0.8113 I-0.0639 J0.
N2520 X-1.0616 Y-0.8352 I-0.0556 J0.0405
N2525 G1 X-1.0719 Y-0.8391
N2530 G3 X-1.0824 Y-0.8438 I0.0317 J-0.0849
N2535 G2 X-1.1076 Y-0.838 I-0.0092 J0.0176
N2540 G3 X-1.1321 Y-0.8461 I-0.0109 J-0.0081
N2545 G1 Y-1.1637
N2550 G3 X-1.0737 Y-1.1971 I0.1321 J0.1637
N2555 G2 X-1.0534 Y-1.2263 I-0.0109 J-0.0293
N2560 G1 Y-1.4209
N2565 X-1.0509 Y-1.4235
N2570 X-0.9491
N2575 X-0.9466 Y-1.4209
N2580 Y-1.2263
N2585 G2 X-0.9263 Y-1.1971 I0.0313 J0.
N2590 G3 X-0.8679 Y-1.1637 I-0.0737 J0.1971
N2595 G1 Y-0.8363
N2600 G3 X-0.9263 Y-0.8029 I-0.1321 J-0.1637
N2605 G2 X-0.9466 Y-0.7737 I0.0109 J0.0293
N2610 G1 Y-0.5791
N2615 X-0.9491 Y-0.5765
N2620 X-1.0509
N2625 X-1.0534 Y-0.5791
N2630 Y-0.7737
N2635 G2 X-1.0737 Y-0.8029 I-0.0312 J0.
N2640 G3 X-1.1321 Y-0.8363 I0.0737 J-0.1971
N2645 G1 Y-0.8461
N2650 X-1.1319 Y-0.8477 Z0.4217
N2655 X-1.1313 Y-0.8491 Z0.4221
N2660 X-1.1306 Y-0.85 Z0.4232
N2665 X-1.1298 Y-0.8508 Z0.4244
N2670 X-1.1291 Y-0.8513 Z0.4275
N2675 G0 Z1.0906

N2680 M5
N2685 M9
N2690 G53 G0 Z0.
N2695 X-1.5
N2700 G53 G0 Y0.
M98 P9004
N2705 M30

%
