%
O10005 (Automatic CAM Program)
#801 = 2
(Using high feed G1 F196.85 instead of G0.)
(T1 D=0.125 CR=0. - ZMIN=0.374 - flat end mill)
(T5 D=0.25 CR=0. TAPER=90deg - ZMIN=0.4291 - spot drill)
(T10 D=0.0625 CR=0. - ZMIN=0.4213 - flat end mill)
N10 G90 G17
N15 G20
N20 G53 G0 Z0.

(2D Pocket41)
N25 T1 M6
N30 S6000 M3
N35 G17 G90
N40 G54
N45 M8
N50 G1 X-1.3524 Y-0.2505 F196.85
N55 G0 G43 Z1.0906 H1
N60 T5
N65 G0 Z0.6969
N70 G1 Z0.5984 F13.123
N75 Z0.4803
N80 X-0.563 F26.4
N85 G2 X-0.5005 Y-0.313 I0. J-0.0625
N90 G1 Y-0.6094
N95 Y-0.6626
N100 Z0.4928
N105 G0 Z0.6969
N110 G1 X-0.4995 Y-0.6627 F196.85
N115 Z0.5984 F13.123
N120 Z0.4803
N125 Y-0.25 F26.4
N130 X-0.5 Y-0.2495
N135 X-1.3025
N140 X-1.3523
N145 Z0.4928
N150 G0 Z1.0906
N155 G1 X-2.4995 Y-0.564 F196.85
N160 G0 Z0.6969
N165 G1 Z0.5984 F13.123
N170 Z0.4803
N175 Y-0.313 F26.4
N180 G2 X-2.437 Y-0.2505 I0.0625 J0.
N185 G1 X-1.6975
N190 X-1.6477
N195 Z0.4928
N200 G0 Z0.6969
N205 G1 X-1.6476 Y-0.2495 F196.85
N210 Z0.5984 F13.123
N215 Z0.4803
N220 X-2.5 F26.4
N225 X-2.5003 Y-0.2497
N230 X-2.5005 Y-0.25
N235 Y-0.5059
N240 Y-0.5639
N245 Z0.4928
N250 G0 Z1.0906
N255 G1 X-2.4342 Y-1.3988 F196.85
N260 G0 Z0.6969
N265 G1 Z0.5984 F13.123
N270 Z0.4803
N275 X-2.382 Y-1.4148 F26.4
N280 X-2. Y-1.5324
N285 Z0.4928
N290 G0 Z0.6969
N295 G1 X-2.0001 Y-1.5313 F196.85
N300 Z0.5984 F13.123
N305 Z0.4803
N310 X-2.3944 Y-1.41 F26.4
N315 X-2.4341 Y-1.3978
N320 Z0.4928
N325 G0 Z1.0906
N330 G1 X-1.3878 Y-0.2387 F196.85
N335 G0 Z0.6969
N340 G1 Z0.5984 F13.123
N345 Z0.4606
N350 X-1.6235 F26.4
N355 Y-0.2613
N360 X-1.3765
N365 Y-0.2387
N370 X-1.3878
N375 X-1.3902 Y-0.2389 Z0.4611
N380 X-1.3925 Y-0.2396 Z0.4616
N385 X-1.3943 Y-0.2405 Z0.4629
N390 X-1.3959 Y-0.2417 Z0.4643
N395 X-1.3978 Y-0.2436 Z0.4683
N400 X-1.3983 Y-0.2444 Z0.4731
N405 G0 Z1.0906
N410 G1 X-0.5997 Y-1.0647 F196.85
N415 G0 Z0.6969
N420 G1 Z0.525 F13.123
N425 Z0.4534 F26.4
N430 X-0.5995 Y-1.0649 Z0.4507
N435 X-0.5989 Y-1.0656 Z0.448
N440 X-0.5979 Y-1.0668 Z0.4457
N445 X-0.5967 Y-1.0683 Z0.4437
N450 X-0.5952 Y-1.0701 Z0.4422
N455 X-0.5935 Y-1.0721 Z0.4413
N460 X-0.5917 Y-1.0743 Z0.4409
N465 X-0.5909 Y-1.0753
N470 G3 X-0.6039 Y-1.056 I0.0909 J0.0752
N475 G2 X-0.6057 Y-1.1124 I-0.0492 J-0.0266
N480 G3 X-0.5915 Y-1.1669 I0.0328 J-0.0206
N485 X-0.3433 Y-0.8942 I0.0911 J0.1664
N490 X-0.6727 Y-1.08 I-0.1572 J-0.1061
N495 G1 X-0.6697 Y-1.0872
N500 X-0.6666 Y-1.0944
N505 G3 X-0.6498 Y-1.1192 I0.0856 J0.0396
N510 G1 X-0.6443 Y-1.1248
N515 X-0.6388 Y-1.1303
N520 G3 X-0.5915 Y-1.1669 I0.1383 J0.1298
N525 G2 X-0.5629 Y-1.2167 I-0.0265 J-0.0484
N530 G3 X-0.5248 Y-1.2598 I0.0421 J-0.0011
N535 X-0.2844 Y-0.8545 I0.0244 J0.2595
N540 X-0.7369 Y-1.1098 I-0.216 J-0.1458
N545 G2 X-0.7316 Y-1.1222 I-0.1963 J-0.0909
N550 G3 X-0.7263 Y-1.1346 I0.2017 J0.0785
N555 X-0.7095 Y-1.1595 I0.0856 J0.0396
N560 X-0.6999 Y-1.1691 I0.1578 J0.1481
N565 G2 X-0.6904 Y-1.1787 I-0.1483 J-0.1577
N570 G3 X-0.5248 Y-1.2598 I0.19 J0.1783
N575 X-0.522 Y-1.2443 I0.0007 J0.0078
N580 G1 X-0.7687 Y-1.1793
N585 G3 X-0.7764 Y-1.1923 I-0.002 J-0.0076
N590 G1 X-0.7429 Y-1.228
N595 G3 X-0.8023 Y-1.1401 I0.2429 J0.228
N600 G1 X-0.7818 Y-1.1843
N605 X-0.7806 Y-1.1863 Z0.4414
N610 X-0.7789 Y-1.188 Z0.4419
N615 X-0.7773 Y-1.1892 Z0.4433
N620 X-0.7755 Y-1.1901 Z0.4446
N625 X-0.7729 Y-1.1909 Z0.4487
N630 X-0.7719 Y-1.191 Z0.4534
N635 G0 Z1.0906
N640 G1 X-0.4838 Y-1.0105 F196.85
N645 G0 Z0.6969
N650 G1 Z0.5984 F13.123
N655 Z0.4771
N660 X-0.483 Y-1.01 Z0.4723
N665 X-0.481 Y-1.0081 Z0.4682
N670 X-0.4799 Y-1.0065 Z0.4669
N675 X-0.479 Y-1.0047 Z0.4655
N680 X-0.4783 Y-1.0024 Z0.465
N685 X-0.478 Y-1. Z0.4646
N690 G3 X-0.5219 I-0.0219 J0. F26.4
N695 X-0.478 I0.0219 J0.
N700 X-0.4899 Y-0.9932 I-0.0079 J0.
N705 G1 X-0.5813 Y-1.0473
N710 G3 X-0.5815 Y-1.0608 I0.004 J-0.0068
N715 G1 X-0.5509 Y-1.0802
N720 G3 X-0.5934 Y-1.0172 I0.0509 J0.0802
N725 G1 X-0.5868 Y-1.0529
N730 X-0.5864 Y-1.054
N735 X-0.5856 Y-1.0548
N740 X-0.5845 Y-1.0553
N745 X-0.5833
N750 X-0.5822 Y-1.0548
N755 X-0.5704 Y-1.0467
N760 X-0.5025 Y-1.0061
N765 X-0.5011 Y-1.0056
N770 X-0.4997 Y-1.0055
N775 X-0.4983 Y-1.0059
N780 X-0.4881 Y-1.0108
N785 X-0.4867 Y-1.0112
N790 X-0.4852 Y-1.0111
N795 X-0.4838 Y-1.0105
N800 Z0.4416 F13.123
N805 X-0.483 Y-1.01 Z0.4369
N810 X-0.481 Y-1.0081 Z0.4328
N815 X-0.4799 Y-1.0065 Z0.4314
N820 X-0.479 Y-1.0047 Z0.4301
N825 X-0.4783 Y-1.0024 Z0.4296
N830 X-0.478 Y-1. Z0.4291
N835 G3 X-0.5219 I-0.0219 J0. F26.4
N840 X-0.478 I0.0219 J0.
N845 X-0.4899 Y-0.9932 I-0.0079 J0.
N850 G1 X-0.5813 Y-1.0473
N855 G3 X-0.5815 Y-1.0608 I0.004 J-0.0068
N860 G1 X-0.5509 Y-1.0802
N865 G3 X-0.5934 Y-1.0172 I0.0509 J0.0802
N870 G1 X-0.5868 Y-1.0529
N875 X-0.5863 Y-1.0548 Z0.4295
N880 X-0.5854 Y-1.0566 Z0.4299
N885 X-0.5844 Y-1.0579 Z0.431
N890 X-0.5832 Y-1.0591 Z0.4322
N895 X-0.5813 Y-1.0603 Z0.4355
N900 X-0.5806 Y-1.0606 Z0.4395
N905 G0 Z1.0906
N910 G1 X-2.4762 Y-1.0971 F196.85
N915 G0 Z0.6969
N920 G1 Z0.5984 F13.123
N925 Z0.4731
N930 X-2.4754 Y-1.0966 Z0.4683
N935 X-2.4734 Y-1.0947 Z0.4643
N940 X-2.4722 Y-1.0931 Z0.4629
N945 X-2.4713 Y-1.0912 Z0.4616
N950 X-2.4706 Y-1.089 Z0.4611
N955 X-2.4704 Y-1.0866 Z0.4606
N960 Y-0.911 F26.4
N965 G3 X-2.483 Y-0.8891 I-0.0254 J0.
N970 G1 X-2.4894 Y-0.8851
N975 G3 X-2.5106 I-0.0106 J-0.016
N980 G1 X-2.517 Y-0.8891
N985 G3 X-2.5296 Y-0.911 I0.0128 J-0.0219
N990 G1 Y-1.089
N995 G3 X-2.517 Y-1.1109 I0.0254 J0.
N1000 G1 X-2.5106 Y-1.1149
N1005 G3 X-2.4894 I0.0106 J0.016
N1010 G1 X-2.483 Y-1.1109
N1015 G3 X-2.4704 Y-1.089 I-0.0128 J0.0219
N1020 G1 Y-1.0866
N1025 G2 X-2.4348 Y-1.0331 I0.0579 J0.
N1030 G3 X-2.3991 Y-0.9796 I-0.0223 J0.0535
N1035 G1 Y-0.852
N1040 G3 X-2.4372 Y-0.8322 I-0.1009 J-0.148
N1045 G2 X-2.4779 Y-0.7737 I0.0219 J0.0585
N1050 G1 Y-0.6078
N1055 X-2.5221
N1060 Y-0.7737
N1065 G2 X-2.5628 Y-0.8322 I-0.0625 J0.
N1070 G3 X-2.6009 Y-0.852 I0.0628 J-0.1678
N1075 G1 Y-1.148
N1080 G3 X-2.5628 Y-1.1678 I0.1009 J0.148
N1085 G2 X-2.5221 Y-1.2263 I-0.0219 J-0.0585
N1090 G1 Y-1.3922
N1095 X-2.4779
N1100 Y-1.2263
N1105 G2 X-2.4372 Y-1.1678 I0.0625 J0.
N1110 G3 X-2.3991 Y-1.148 I-0.0628 J0.1678
N1115 G1 Y-0.9796
N1120 G3 X-2.4098 Y-0.9753 I-0.0062 J0.
N1125 G1 X-2.4344 Y-1.0007
N1130 X-2.4768 Y-1.0791
N1135 X-2.4814 Y-1.0931
N1140 X-2.4815 Y-1.0945
N1145 X-2.4811 Y-1.0959
N1150 X-2.4802 Y-1.0969
N1155 X-2.4789 Y-1.0975
N1160 X-2.4775 Y-1.0976
N1165 X-2.4762 Y-1.0971
N1170 Z0.4338 F13.123
N1175 X-2.4754 Y-1.0966 Z0.429
N1180 X-2.4734 Y-1.0947 Z0.4249
N1185 X-2.4722 Y-1.0931 Z0.4236
N1190 X-2.4713 Y-1.0912 Z0.4222
N1195 X-2.4706 Y-1.089 Z0.4217
N1200 X-2.4704 Y-1.0866 Z0.4213
N1205 Y-0.911 F26.4
N1210 G3 X-2.483 Y-0.8891 I-0.0254 J0.
N1215 G1 X-2.4894 Y-0.8851
N1220 G3 X-2.5106 I-0.0106 J-0.016
N1225 G1 X-2.517 Y-0.8891
N1230 G3 X-2.5296 Y-0.911 I0.0128 J-0.0219
N1235 G1 Y-1.089
N1240 G3 X-2.517 Y-1.1109 I0.0254 J0.
N1245 G1 X-2.5106 Y-1.1149
N1250 G3 X-2.4894 I0.0106 J0.016
N1255 G1 X-2.483 Y-1.1109
N1260 G3 X-2.4704 Y-1.089 I-0.0128 J0.0219
N1265 G1 Y-1.0866
N1270 G2 X-2.4348 Y-1.0331 I0.0579 J0.
N1275 G3 X-2.3991 Y-0.9796 I-0.0223 J0.0535
N1280 G1 Y-0.852
N1285 G3 X-2.4372 Y-0.8322 I-0.1009 J-0.148
N1290 G2 X-2.4779 Y-0.7737 I0.0219 J0.0585
N1295 G1 Y-0.6078
N1300 X-2.5221
N1305 Y-0.7737
N1310 G2 X-2.5628 Y-0.8322 I-0.0625 J0.
N1315 G3 X-2.6009 Y-0.852 I0.0628 J-0.1678
N1320 G1 Y-1.148
N1325 G3 X-2.5628 Y-1.1678 I0.1009 J0.148
N1330 G2 X-2.5221 Y-1.2263 I-0.0219 J-0.0585
N1335 G1 Y-1.3922
N1340 X-2.4779
N1345 Y-1.2263
N1350 G2 X-2.4372 Y-1.1678 I0.0625 J0.
N1355 G3 X-2.3991 Y-1.148 I-0.0628 J0.1678
N1360 G1 Y-0.9796
N1365 X-2.3994 Y-0.9773 Z0.4217
N1370 X-2.4002 Y-0.975 Z0.4222
N1375 X-2.4011 Y-0.9732 Z0.4236
N1380 X-2.4024 Y-0.9716 Z0.4249
N1385 X-2.4044 Y-0.9699 Z0.429
N1390 X-2.4052 Y-0.9694 Z0.4338
N1395 G0 Z1.0906

(Trace21)
N1400 G1 X-1.5109 Y-1.6824 F196.85
N1405 G0 Z1.0906
N1410 Z0.6969
N1415 G1 Z0.4213 F13.123
N1420 X-2.0054 Y-1.5302 Z0.4803 F15.4
N1425 Z0.6969
N1430 X-1.5109 Y-1.6824 F196.85
N1435 Z0.4213 F13.123
N1440 X-1.4587 Y-1.6472 F15.4
N1445 X-1.219 Y-1.4854 Z0.374
N1450 X-0.7397 Y-1.1618
N1455 X-0.5 Y-1. Z0.4213
N1460 Z0.6969
N1465 X-1.5109 Y-1.6824 F196.85
N1470 Z0.4213 F13.123
N1475 X-2.0054 Y-1.5302 Z0.4803 F15.4
N1480 Z0.6969
N1485 X-1.5109 Y-1.6824 F196.85
N1490 Z0.4213 F13.123
N1495 X-1.4587 Y-1.6472 F15.4
N1500 X-1.219 Y-1.4854 Z0.374
N1505 X-0.7397 Y-1.1618
N1510 X-0.5 Y-1. Z0.4213
N1515 Z0.6969
N1520 G0 Z1.0906
N1525 M9
N1530 M5
N1535 G53 G0 Z0.

(2D Contour22)
N1540 T5 M6
N1545 S4500 M3
N1550 G17 G90
N1555 G54
N1560 M8
N1565 G1 X-2.4234 Y-1.1116 F196.85
N1570 G0 G43 Z1.0906 H5
N1575 T10
N1580 G0 Z0.6969
N1585 G1 Z0.5394 F13.123
N1590 Z0.4541
N1595 G18 G2 X-2.3984 Z0.4291 I0.025 K0. F25.
N1600 G1 X-2.3734
N1605 G17 G3 X-2.3484 Y-1.0866 I0. J0.025
N1610 G1 Y-0.8272 F0.984
N1615 G3 X-2.4195 Y-0.7847 I-0.1516 J-0.1728
N1620 G2 X-2.4272 Y-0.7737 I0.0041 J0.0111
N1625 G1 Y-0.571
N1630 X-2.4411 Y-0.5571
N1635 X-2.5589
N1640 X-2.5728 Y-0.571
N1645 Y-0.7737
N1650 G2 X-2.5805 Y-0.7847 I-0.0118 J0.
N1655 G3 X-2.6516 Y-0.8272 I0.0805 J-0.2153
N1660 G1 Y-1.1728
N1665 G3 X-2.5805 Y-1.2153 I0.1516 J0.1728
N1670 G2 X-2.5728 Y-1.2263 I-0.0041 J-0.0111
N1675 G1 Y-1.429
N1680 X-2.5589 Y-1.4429
N1685 X-2.4411
N1690 X-2.4272 Y-1.429
N1695 Y-1.2263
N1700 G2 X-2.4195 Y-1.2153 I0.0118 J0.
N1705 G3 X-2.3484 Y-1.1728 I-0.0805 J0.2153
N1710 G1 Y-0.8272
N1715 G3 X-2.4195 Y-0.7847 I-0.1516 J-0.1728
N1720 G2 X-2.4272 Y-0.7737 I0.0041 J0.0111
N1725 G1 Y-0.571
N1730 X-2.4411 Y-0.5571
N1735 X-2.5589
N1740 X-2.5728 Y-0.571
N1745 Y-0.7737
N1750 G2 X-2.5805 Y-0.7847 I-0.0118 J0.
N1755 G3 X-2.6516 Y-0.8272 I0.0805 J-0.2153
N1760 G1 Y-1.1728
N1765 G3 X-2.5805 Y-1.2153 I0.1516 J0.1728
N1770 G2 X-2.5728 Y-1.2263 I-0.0041 J-0.0111
N1775 G1 Y-1.429
N1780 X-2.5589 Y-1.4429
N1785 X-2.4411
N1790 X-2.4272 Y-1.429
N1795 Y-1.2263
N1800 G2 X-2.4195 Y-1.2153 I0.0118 J0.
N1805 G3 X-2.3484 Y-1.1728 I-0.0805 J0.2153
N1810 G1 Y-1.0866
N1815 G3 X-2.3734 Y-1.0616 I-0.025 J0. F25.
N1820 G1 X-2.3984
N1825 G18 G3 X-2.4234 Z0.4541 I0. K0.025
N1830 G0 Z1.0906

(2D Contour23)
N1835 G17
N1840 G1 X-1.389 Y-0.275 F196.85
N1845 G0 Z1.0906
N1850 Z0.6969
N1855 G1 Z0.5394 F13.123
N1860 Z0.4856
N1865 G18 G2 X-1.364 Z0.4606 I0.025 K0. F25.
N1870 G1 X-1.339
N1875 G17 G3 X-1.314 Y-0.25 I0. J0.025
N1880 G1 Y-0.2175 F0.984
N1885 G3 X-1.3553 Y-0.1762 I-0.0413 J0.
N1890 G1 X-1.6447
N1895 G3 X-1.686 Y-0.2175 I0. J-0.0413
N1900 G1 Y-0.2825
N1905 G3 X-1.6447 Y-0.3238 I0.0413 J0.
N1910 G1 X-1.3553
N1915 G3 X-1.314 Y-0.2825 I0. J0.0413
N1920 G1 Y-0.2175
N1925 G3 X-1.3553 Y-0.1762 I-0.0413 J0.
N1930 G1 X-1.6447
N1935 G3 X-1.686 Y-0.2175 I0. J-0.0413
N1940 G1 Y-0.2825
N1945 G3 X-1.6447 Y-0.3238 I0.0413 J0.
N1950 G1 X-1.3553
N1955 G3 X-1.314 Y-0.2825 I0. J0.0413
N1960 G1 Y-0.25
N1965 G3 X-1.339 Y-0.225 I-0.025 J0. F25.
N1970 G1 X-1.364
N1975 G18 G3 X-1.389 Z0.4856 I0. K0.025
N1980 G0 Z1.0906
N1985 M9
N1990 M5
N1995 G53 G0 Z0.

(2D Pocket42)
N2000 T10 M6
N2005 S6000 M3
N2010 G17 G90
N2015 G54
N2020 M8
N2025 G1 X-1.3839 Y-0.2553 F196.85
N2030 G0 G43 Z1.0906 H10
N2035 T1
N2040 G0 Z0.6969
N2045 G1 Z0.5984 F13.123
N2050 Z0.4669
N2055 X-1.3832 Y-0.2548 Z0.4638
N2060 X-1.3824 Y-0.2539 Z0.4626
N2065 X-1.3818 Y-0.253 Z0.4615
N2070 X-1.3812 Y-0.2515 Z0.461
N2075 X-1.381 Y-0.25 Z0.4606
N2080 G3 X-1.3898 Y-0.2412 I-0.0088 J0. F13.2
N2085 G1 X-1.6141
N2090 X-1.6159 Y-0.2414
N2095 X-1.6176 Y-0.2421
N2100 X-1.619 Y-0.2432
N2105 X-1.6201 Y-0.2446
N2110 X-1.6208 Y-0.2463
N2115 X-1.621 Y-0.2481
N2120 Y-0.2519
N2125 X-1.6208 Y-0.2537
N2130 X-1.6201 Y-0.2554
N2135 X-1.619 Y-0.2568
N2140 X-1.6176 Y-0.2579
N2145 X-1.6159 Y-0.2586
N2150 X-1.6141 Y-0.2588
N2155 X-1.3898
N2160 G3 X-1.381 Y-0.25 I0. J0.0088
N2165 G2 X-1.371 Y-0.2292 I0.0265 J0.
N2170 G3 X-1.3786 Y-0.2074 I-0.0076 J0.0096
N2175 G1 X-1.6447
N2180 G3 X-1.6548 Y-0.2175 I0. J-0.0101
N2185 G1 Y-0.2825
N2190 G3 X-1.6447 Y-0.2926 I0.0101 J0.
N2195 G1 X-1.3553
N2200 G3 X-1.3452 Y-0.2825 I0. J0.0101
N2205 G1 Y-0.2175
N2210 G3 X-1.3553 Y-0.2074 I-0.0101 J0.
N2215 G1 X-1.3786
N2220 X-1.3801 Y-0.2077 Z0.461
N2225 X-1.3816 Y-0.2083 Z0.4615
N2230 X-1.3825 Y-0.209 Z0.4626
N2235 X-1.3833 Y-0.2098 Z0.4638
N2240 X-1.3837 Y-0.2105 Z0.4669
N2245 G0 Z1.0906
N2250 G1 X-2.4927 Y-0.9187 F196.85
N2255 G0 Z0.6969
N2260 G1 Z0.5984 F13.123
N2265 Z0.4275
N2270 X-2.492 Y-0.9182 Z0.4244
N2275 X-2.4912 Y-0.9174 Z0.4232
N2280 X-2.4906 Y-0.9164 Z0.4221
N2285 X-2.49 Y-0.915 Z0.4217
N2290 X-2.4898 Y-0.9134 Z0.4213
N2295 Y-0.9129 F13.2
N2300 X-2.4901 Y-0.9106
N2305 X-2.491 Y-0.9083
N2310 X-2.4925 Y-0.9064
N2315 X-2.4943 Y-0.905
N2320 X-2.4952 Y-0.9045
N2325 X-2.497 Y-0.9036
N2330 X-2.499 Y-0.9032
N2335 X-2.501
N2340 X-2.503 Y-0.9036
N2345 X-2.5048 Y-0.9045
N2350 X-2.5057 Y-0.905
N2355 X-2.5075 Y-0.9064
N2360 X-2.509 Y-0.9083
N2365 X-2.5099 Y-0.9106
N2370 X-2.5102 Y-0.9129
N2375 Y-1.0871
N2380 X-2.5099 Y-1.0894
N2385 X-2.509 Y-1.0917
N2390 X-2.5075 Y-1.0936
N2395 X-2.5057 Y-1.095
N2400 X-2.5048 Y-1.0955
N2405 X-2.503 Y-1.0964
N2410 X-2.501 Y-1.0968
N2415 X-2.499
N2420 X-2.497 Y-1.0964
N2425 X-2.4952 Y-1.0955
N2430 X-2.4943 Y-1.095
N2435 X-2.4925 Y-1.0936
N2440 X-2.491 Y-1.0917
N2445 X-2.4901 Y-1.0894
N2450 X-2.4898 Y-1.0871
N2455 Y-0.9134
N2460 G2 X-2.4829 Y-0.9013 I0.0142 J0.
N2465 G3 Y-0.8873 I-0.0042 J0.007
N2470 G1 X-2.4893 Y-0.8832
N2475 G3 X-2.5107 I-0.0107 J-0.0159
N2480 G1 X-2.5184 Y-0.8881
N2485 G3 X-2.5312 Y-0.9102 I0.0128 J-0.0222
N2490 G1 Y-1.0898
N2495 G3 X-2.5184 Y-1.1119 I0.0256 J0.
N2500 G1 X-2.5107 Y-1.1168
N2505 G3 X-2.4893 I0.0107 J0.0159
N2510 G1 X-2.4816 Y-1.1119
N2515 G3 X-2.4688 Y-1.0898 I-0.0128 J0.0222
N2520 G1 Y-0.9102
N2525 G3 X-2.4816 Y-0.8881 I-0.0256 J0.
N2530 G1 X-2.4829 Y-0.8873
N2535 G2 X-2.4929 Y-0.8606 I0.0116 J0.0195
N2540 G3 X-2.5168 Y-0.8452 I-0.0139 J0.0047
N2545 G2 X-2.5266 Y-0.8533 I-0.0663 J0.0704
N2550 X-2.5507 Y-0.8663 I-0.0613 J0.0851
N2555 G3 X-2.5648 Y-0.8866 I0.0077 J-0.0204
N2560 G1 Y-1.1134
N2565 G3 X-2.5507 Y-1.1337 I0.0218 J0.
N2570 G2 X-2.5266 Y-1.1467 I-0.0372 J-0.098
N2575 X-2.5069 Y-1.1657 I-0.0565 J-0.0784
N2580 G3 X-2.4931 I0.0069 J0.0053
N2585 G2 X-2.4734 Y-1.1467 I0.0763 J-0.0594
N2590 X-2.4493 Y-1.1337 I0.0613 J-0.0851
N2595 G3 X-2.4352 Y-1.1134 I-0.0077 J0.0204
N2600 G1 Y-0.8866
N2605 G3 X-2.4493 Y-0.8663 I-0.0218 J0.
N2610 G2 X-2.4734 Y-0.8533 I0.0372 J0.098
N2615 X-2.4931 Y-0.8343 I0.0565 J0.0784
N2620 G3 X-2.5069 I-0.0069 J-0.0053
N2625 G2 X-2.5168 Y-0.8452 I-0.0763 J0.0594
N2630 X-2.5497 Y-0.8467 I-0.0173 J0.0184
N2635 G3 X-2.5824 Y-0.8438 I-0.0186 J-0.0238
N2640 G1 X-2.5826 Y-0.8439
N2645 G3 X-2.5984 Y-0.8701 I0.0139 J-0.0263
N2650 G1 Y-1.1299
N2655 G3 X-2.5826 Y-1.1561 I0.0297 J0.
N2660 X-2.5719 Y-1.1609 I0.0423 J0.0801
N2665 G1 X-2.5616 Y-1.1648
N2670 G2 X-2.5301 Y-1.1887 I-0.0241 J-0.0644
N2675 X-2.5179 Y-1.2263 I-0.0516 J-0.0376
N2680 G1 X-2.5196 Y-1.3771
N2685 G3 X-2.5071 Y-1.3897 I0.0126 J0.
N2690 G1 X-2.4929
N2695 G3 X-2.4804 Y-1.3771 I0. J0.0126
N2700 G1 X-2.4821 Y-1.2263
N2705 G2 X-2.4699 Y-1.1887 I0.0639 J0.
N2710 X-2.4384 Y-1.1648 I0.0556 J-0.0405
N2715 G1 X-2.4281 Y-1.1609
N2720 G3 X-2.4174 Y-1.1561 I-0.0317 J0.0849
N2725 X-2.4016 Y-1.1299 I-0.0139 J0.0263
N2730 G1 Y-0.8701
N2735 G3 X-2.4174 Y-0.8439 I-0.0297 J0.
N2740 X-2.4281 Y-0.8391 I-0.0423 J-0.0801
N2745 G1 X-2.4384 Y-0.8352
N2750 G2 X-2.4699 Y-0.8113 I0.0241 J0.0644
N2755 X-2.4821 Y-0.7737 I0.0516 J0.0376
N2760 G1 X-2.4804 Y-0.6229
N2765 G3 X-2.4929 Y-0.6103 I-0.0126 J0.
N2770 G1 X-2.5071
N2775 G3 X-2.5196 Y-0.6229 I0. J-0.0126
N2780 G1 X-2.5179 Y-0.7737
N2785 G2 X-2.5301 Y-0.8113 I-0.0639 J0.
N2790 X-2.5616 Y-0.8352 I-0.0556 J0.0405
N2795 G1 X-2.5719 Y-0.8391
N2800 G3 X-2.5824 Y-0.8438 I0.0317 J-0.0849
N2805 G2 X-2.6076 Y-0.838 I-0.0092 J0.0176
N2810 G3 X-2.6321 Y-0.8461 I-0.0109 J-0.0081
N2815 G1 Y-1.1637
N2820 G3 X-2.5737 Y-1.1971 I0.1321 J0.1637
N2825 G2 X-2.5534 Y-1.2263 I-0.0109 J-0.0293
N2830 G1 Y-1.4209
N2835 X-2.5509 Y-1.4235
N2840 X-2.4491
N2845 X-2.4466 Y-1.4209
N2850 Y-1.2263
N2855 G2 X-2.4263 Y-1.1971 I0.0313 J0.
N2860 G3 X-2.3679 Y-1.1637 I-0.0737 J0.1971
N2865 G1 Y-0.8363
N2870 G3 X-2.4263 Y-0.8029 I-0.1321 J-0.1637
N2875 G2 X-2.4466 Y-0.7737 I0.0109 J0.0293
N2880 G1 Y-0.5791
N2885 X-2.4491 Y-0.5765
N2890 X-2.5509
N2895 X-2.5534 Y-0.5791
N2900 Y-0.7737
N2905 G2 X-2.5737 Y-0.8029 I-0.0313 J0.
N2910 G3 X-2.6321 Y-0.8363 I0.0737 J-0.1971
N2915 G1 Y-0.8461
N2920 X-2.6319 Y-0.8477 Z0.4217
N2925 X-2.6313 Y-0.8491 Z0.4221
N2930 X-2.6306 Y-0.85 Z0.4232
N2935 X-2.6298 Y-0.8508 Z0.4244
N2940 X-2.6291 Y-0.8513 Z0.4275
N2945 G0 Z1.0906

N2950 M5
N2955 M9
N2960 G53 G0 Z0.
N2965 X-1.5
N2970 G53 G0 Y0.
#801 = 3
M98 P9004
N2975 M30

%
