%
O10032 (testingwithnewfusionupdate)
(Using high feed G1 F196.85 instead of G0.)
(T1 D=0.125 CR=0. - ZMIN=0.374 - flat end mill)
(T5 D=0.25 CR=0. TAPER=90deg - ZMIN=0.4291 - spot drill)
(T10 D=0.0625 CR=0. - ZMIN=0.4213 - flat end mill)
N10 G90 G17
N15 G20
N20 G53 G0 Z0.

(2D Pocket1)
N25 T1 M6
N30 S6000 M3
N35 G17 G90
N40 G54
N45 M8
N50 G1 X-1.6476 Y-0.2495 F196.85
N55 G0 G43 Z1.0906 H1
N60 T5
N65 G0 Z0.6969
N70 G1 Z0.5984 F13.123
N75 Z0.4803
N80 X-2.5 F26.4
N85 X-2.5003 Y-0.2497
N90 X-2.5005 Y-0.25
N95 Y-0.4879
N100 Y-0.5459
N105 X-2.4995 Y-0.546
N110 Y-0.313
N115 G2 X-2.437 Y-0.2505 I0.0625 J0.
N120 G1 X-1.6975
N125 X-1.6477
N130 Z0.4928
N135 G0 Z1.0906
N140 X-1.3524
N145 Z0.6969
N150 G1 Z0.5984 F13.123
N155 Z0.4803
N160 X-0.563 F26.4
N165 G2 X-0.5005 Y-0.313 I0. J-0.0625
N170 G1 Y-0.6094
N175 Y-0.6626
N180 X-0.4995 Y-0.6627
N185 Y-0.25
N190 X-0.5 Y-0.2495
N195 X-1.3025
N200 X-1.3523
N205 Z0.4928
N210 G0 Z1.0906
N215 G1 X-1.4913 Y-1.7247 F196.85
N220 G0 Z0.6969
N225 G1 Z0.5984 F13.123
N230 Z0.4803
N235 X-2.4391 Y-1.7303 F26.4
N240 G2 X-2.502 Y-1.6673 I-0.0004 J0.0625
N245 G1 X-2.5006 Y-1.5116
N250 X-2.5002 Y-1.4536
N255 X-2.5011 Y-1.4537
N260 X-2.5016 Y-1.5126
N265 X-2.5035 Y-1.7312
N270 X-2.503 Y-1.7317
N275 X-1.4913 Y-1.7257
N280 Z0.4928
N285 G0 Z1.0906
N290 G1 X-1.3878 Y-0.2387 F196.85
N295 G0 Z0.6969
N300 G1 Z0.5984 F13.123
N305 Z0.4606
N310 X-1.6235 F26.4
N315 Y-0.2613
N320 X-1.3765
N325 Y-0.2387
N330 X-1.3878
N335 X-1.3902 Y-0.2389 Z0.4611
N340 X-1.3925 Y-0.2396 Z0.4616
N345 X-1.3943 Y-0.2405 Z0.4629
N350 X-1.3959 Y-0.2417 Z0.4643
N355 X-1.3978 Y-0.2436 Z0.4683
N360 X-1.3983 Y-0.2444 Z0.4731
N365 G0 Z1.0906
N370 G1 X-0.4989 Y-1.1188 F196.85
N375 G0 Z0.6969
N380 G1 Z0.525 F13.123
N385 Z0.4534 F26.4
N390 X-0.4986 Z0.4507
N395 X-0.4976 Y-1.1186 Z0.448
N400 X-0.4962 Y-1.1185 Z0.4457
N405 X-0.4942 Y-1.1182 Z0.4437
N410 X-0.4919 Y-1.1179 Z0.4422
N415 X-0.4892 Y-1.1176 Z0.4413
N420 X-0.4865 Y-1.1172 Z0.4409
N425 X-0.4852 Y-1.1171
N430 G3 X-0.5091 Y-1.1177 I-0.0148 J0.1171
N435 G2 X-0.4628 Y-1.1497 I-0.0043 J-0.0557
N440 G3 X-0.4093 Y-1.1673 I0.035 J0.0164
N445 X-0.5047 Y-0.811 I-0.0906 J0.1667
N450 X-0.5256 Y-1.1886 I0.0047 J-0.1897
N455 G1 X-0.5179 Y-1.1899
N460 X-0.5102 Y-1.1912
N465 G3 X-0.4802 Y-1.1905 I0.0127 J0.0934
N470 G1 X-0.4726 Y-1.1888
N475 X-0.465 Y-1.1871
N480 G3 X-0.4093 Y-1.1673 I-0.0349 J0.1865
N485 G2 X-0.3519 Y-1.1702 I0.0263 J-0.0484
N490 G3 X-0.295 Y-1.1615 I0.0237 J0.0347
N495 X-0.5065 Y-0.7399 I-0.2049 J0.161
N500 X-0.5351 Y-1.2587 I0.0065 J-0.2605
N505 G2 X-0.5218 Y-1.2609 I-0.0291 J-0.2146
N510 G3 X-0.5084 Y-1.2632 I0.0424 J0.2123
N515 X-0.4784 Y-1.2624 I0.0127 J0.0934
N520 X-0.4652 Y-1.2595 I-0.0398 J0.2128
N525 G2 X-0.452 Y-1.2566 I0.053 J-0.2099
N530 G3 X-0.295 Y-1.1615 I-0.0479 J0.2562
N535 X-0.3065 Y-1.1508 I-0.0062 J0.0049
N540 G1 X-0.4936 Y-1.323
N545 G3 X-0.4869 Y-1.3365 I0.0053 J-0.0058
N550 G1 X-0.4387 Y-1.3275
N555 G3 X-0.5448 Y-1.3301 I-0.0612 J0.3275
N560 G1 X-0.4965 Y-1.3367
N565 X-0.4942 Z0.4414
N570 X-0.4918 Y-1.3363 Z0.4419
N575 X-0.4899 Y-1.3356 Z0.4433
N580 X-0.4882 Y-1.3345 Z0.4446
N585 X-0.4862 Y-1.3327 Z0.4487
N590 X-0.4855 Y-1.332 Z0.4534
N595 G0 Z1.0906
N600 G1 X-0.4838 Y-1.0105 F196.85
N605 G0 Z0.6969
N610 G1 Z0.5984 F13.123
N615 Z0.4771
N620 X-0.483 Y-1.01 Z0.4723
N625 X-0.481 Y-1.0081 Z0.4682
N630 X-0.4799 Y-1.0065 Z0.4669
N635 X-0.479 Y-1.0047 Z0.4655
N640 X-0.4783 Y-1.0024 Z0.465
N645 X-0.478 Y-1. Z0.4646
N650 G3 X-0.5219 I-0.0219 J0. F26.4
N655 X-0.478 I0.0219 J0.
N660 X-0.4938 Y-0.9992 I-0.0079 J0.
N665 G1 X-0.5039 Y-1.0934
N670 G3 X-0.4927 Y-1.1014 I0.0078 J-0.0008
N675 G1 X-0.4598 Y-1.0861
N680 G3 X-0.5358 Y-1.088 I-0.0402 J0.0861
N685 G1 X-0.5022 Y-1.1016
N690 X-0.5011 Y-1.1019
N695 X-0.4999 Y-1.1016
N700 X-0.4989 Y-1.1009
N705 X-0.4983 Y-1.1
N710 X-0.4981 Y-1.0988
N715 X-0.4986 Y-1.0845
N720 X-0.4968 Y-1.0142
N725 G3 X-0.5001 Y-1.0195 I-0.0062 J0.0002
N730 G1 X-0.4838 Y-1.0105
N735 Z0.4416 F13.123
N740 X-0.483 Y-1.01 Z0.4369
N745 X-0.481 Y-1.0081 Z0.4328
N750 X-0.4799 Y-1.0065 Z0.4314
N755 X-0.479 Y-1.0047 Z0.4301
N760 X-0.4783 Y-1.0024 Z0.4296
N765 X-0.478 Y-1. Z0.4291
N770 G3 X-0.5219 I-0.0219 J0. F26.4
N775 X-0.478 I0.0219 J0.
N780 X-0.4938 Y-0.9992 I-0.0079 J0.
N785 G1 X-0.5039 Y-1.0934
N790 G3 X-0.4927 Y-1.1014 I0.0078 J-0.0008
N795 G1 X-0.4598 Y-1.0861
N800 G3 X-0.5358 Y-1.088 I-0.0402 J0.0861
N805 G1 X-0.5022 Y-1.1016
N810 X-0.5003 Y-1.1022 Z0.4295
N815 X-0.4983 Y-1.1024 Z0.4299
N820 X-0.4967 Y-1.1023 Z0.431
N825 X-0.495 Y-1.1019 Z0.4322
N830 X-0.493 Y-1.101 Z0.4355
N835 X-0.4923 Y-1.1005 Z0.4395
N840 G0 Z1.0906
N845 G1 X-2.4582 Y-1.0995 F196.85
N850 G0 Z0.6969
N855 G1 Z0.5984 F13.123
N860 Z0.4731
N865 X-2.4574 Y-1.0989 Z0.4683
N870 X-2.4554 Y-1.0971 Z0.4643
N875 X-2.4542 Y-1.0954 Z0.4629
N880 X-2.4533 Y-1.0936 Z0.4616
N885 X-2.4526 Y-1.0913 Z0.4611
N890 X-2.4524 Y-1.0889 Z0.4606
N895 Y-0.8989 F26.4
N900 G3 X-2.465 Y-0.877 I-0.0254 J0.
N905 G2 X-2.4919 Y-0.8562 I0.0676 J0.1155
N910 G3 X-2.5081 I-0.0081 J-0.0081
N915 G2 X-2.535 Y-0.877 I-0.0945 J0.0947
N920 G3 X-2.5476 Y-0.8989 I0.0128 J-0.0219
N925 G1 Y-1.1011
N930 G3 X-2.535 Y-1.123 I0.0254 J0.
N935 G2 X-2.5081 Y-1.1438 I-0.0676 J-0.1155
N940 G3 X-2.4919 I0.0081 J0.0081
N945 G2 X-2.465 Y-1.123 I0.0945 J-0.0947
N950 G3 X-2.4524 Y-1.1011 I-0.0128 J0.0219
N955 G1 Y-1.0889
N960 G2 X-2.4168 Y-1.0355 I0.0579 J0.
N965 G3 X-2.3811 Y-0.982 I-0.0223 J0.0535
N970 G1 Y-0.8427
N975 G3 X-2.4221 Y-0.8189 I-0.1189 J-0.1573
N980 G2 X-2.4599 Y-0.7615 I0.0247 J0.0574
N985 G1 Y-0.5898
N990 X-2.5401
N995 Y-0.7615
N1000 G2 X-2.5779 Y-0.8189 I-0.0625 J0.
N1005 G3 X-2.6189 Y-0.8427 I0.0779 J-0.1811
N1010 G1 Y-1.1573
N1015 G3 X-2.5779 Y-1.1811 I0.1189 J0.1573
N1020 G2 X-2.5401 Y-1.2385 I-0.0247 J-0.0574
N1025 G1 Y-1.4102
N1030 X-2.4599
N1035 Y-1.2385
N1040 G2 X-2.4221 Y-1.1811 I0.0625 J0.
N1045 G3 X-2.3811 Y-1.1573 I-0.0779 J0.1811
N1050 G1 Y-0.982
N1055 G3 X-2.3904 Y-0.9785 I-0.0053 J0.
N1060 G1 X-2.4053 Y-0.9955
N1065 X-2.4583 Y-1.0819
N1070 X-2.4633 Y-1.0954
N1075 X-2.4635 Y-1.0968
N1080 X-2.4631 Y-1.0982
N1085 X-2.4622 Y-1.0993
N1090 X-2.4609 Y-1.0999
N1095 X-2.4595 Y-1.1
N1100 X-2.4582 Y-1.0995
N1105 Z0.4338 F13.123
N1110 X-2.4574 Y-1.0989 Z0.429
N1115 X-2.4554 Y-1.0971 Z0.4249
N1120 X-2.4542 Y-1.0954 Z0.4236
N1125 X-2.4533 Y-1.0936 Z0.4222
N1130 X-2.4526 Y-1.0913 Z0.4217
N1135 X-2.4524 Y-1.0889 Z0.4213
N1140 Y-0.8989 F26.4
N1145 G3 X-2.465 Y-0.877 I-0.0254 J0.
N1150 G2 X-2.4919 Y-0.8562 I0.0676 J0.1155
N1155 G3 X-2.5081 I-0.0081 J-0.0081
N1160 G2 X-2.535 Y-0.877 I-0.0945 J0.0947
N1165 G3 X-2.5476 Y-0.8989 I0.0128 J-0.0219
N1170 G1 Y-1.1011
N1175 G3 X-2.535 Y-1.123 I0.0254 J0.
N1180 G2 X-2.5081 Y-1.1438 I-0.0676 J-0.1155
N1185 G3 X-2.4919 I0.0081 J0.0081
N1190 G2 X-2.465 Y-1.123 I0.0945 J-0.0947
N1195 G3 X-2.4524 Y-1.1011 I-0.0128 J0.0219
N1200 G1 Y-1.0889
N1205 G2 X-2.4168 Y-1.0355 I0.0579 J0.
N1210 G3 X-2.3811 Y-0.982 I-0.0223 J0.0535
N1215 G1 Y-0.8427
N1220 G3 X-2.4221 Y-0.8189 I-0.1189 J-0.1573
N1225 G2 X-2.4599 Y-0.7615 I0.0247 J0.0574
N1230 G1 Y-0.5898
N1235 X-2.5401
N1240 Y-0.7615
N1245 G2 X-2.5779 Y-0.8189 I-0.0625 J0.
N1250 G3 X-2.6189 Y-0.8427 I0.0779 J-0.1811
N1255 G1 Y-1.1573
N1260 G3 X-2.5779 Y-1.1811 I0.1189 J0.1573
N1265 G2 X-2.5401 Y-1.2385 I-0.0247 J-0.0574
N1270 G1 Y-1.4102
N1275 X-2.4599
N1280 Y-1.2385
N1285 G2 X-2.4221 Y-1.1811 I0.0625 J0.
N1290 G3 X-2.3811 Y-1.1573 I-0.0779 J0.1811
N1295 G1 Y-0.982
N1300 X-2.3814 Y-0.9796 Z0.4217
N1305 X-2.3822 Y-0.9774 Z0.4222
N1310 X-2.3831 Y-0.9756 Z0.4236
N1315 X-2.3844 Y-0.974 Z0.4249
N1320 X-2.3864 Y-0.9722 Z0.429
N1325 X-2.3872 Y-0.9717 Z0.4338
N1330 G0 Z1.0906

(Trace1)
N1335 G1 X-0.482 Y-1.7192 F196.85
N1340 G0 Z1.0906
N1345 Z0.6969
N1350 G1 Z0.4213 F13.123
N1355 X-1.4925 Y-1.7252 Z0.4803 F15.4
N1360 Z0.6969
N1365 X-0.482 Y-1.7192 F196.85
N1370 Z0.4213 F13.123
N1375 X-0.4836 Y-1.6562 F15.4
N1380 X-0.4877 Y-1.4922 Z0.374
N1385 X-0.4959 Y-1.1641
N1390 X-0.5 Y-1. Z0.4213
N1395 Z0.6969
N1400 X-0.482 Y-1.7192 F196.85
N1405 Z0.4213 F13.123
N1410 X-1.4925 Y-1.7252 Z0.4803 F15.4
N1415 Z0.6969
N1420 X-0.482 Y-1.7192 F196.85
N1425 Z0.4213 F13.123
N1430 X-0.4836 Y-1.6562 F15.4
N1435 X-0.4877 Y-1.4922 Z0.374
N1440 X-0.4959 Y-1.1641
N1445 X-0.5 Y-1. Z0.4213
N1450 Z0.6969
N1455 G0 Z1.0906
N1460 M9
N1465 M5
N1470 G53 G0 Z0.

(2D Contour1)
N1475 T5 M6
N1480 S4500 M3
N1485 G17 G90
N1490 G54
N1495 M8
N1500 G1 X-2.4054 Y-1.1139 F196.85
N1505 G0 G43 Z1.0906 H5
N1510 T10
N1515 G0 Z0.6969
N1520 G1 Z0.5394 F13.123
N1525 Z0.4541
N1530 G18 G2 X-2.3804 Z0.4291 I0.025 K0. F25.
N1535 G1 X-2.3554
N1540 G17 G3 X-2.3304 Y-1.0889 I0. J0.025
N1545 G1 Y-0.8193
N1550 G3 X-2.402 Y-0.7724 I-0.1696 J-0.1807
N1555 G2 X-2.4092 Y-0.7615 I0.0047 J0.0108
N1560 G1 Y-0.5635
N1565 X-2.4336 Y-0.5391
N1570 X-2.5664
N1575 X-2.5908 Y-0.5635
N1580 Y-0.7615
N1585 G2 X-2.598 Y-0.7724 I-0.0118 J0.
N1590 G3 X-2.6696 Y-0.8193 I0.098 J-0.2276
N1595 G1 Y-1.1807
N1600 G3 X-2.598 Y-1.2276 I0.1696 J0.1807
N1605 G2 X-2.5908 Y-1.2385 I-0.0047 J-0.0108
N1610 G1 Y-1.4365
N1615 X-2.5664 Y-1.4609
N1620 X-2.4336
N1625 X-2.4092 Y-1.4365
N1630 Y-1.2385
N1635 G2 X-2.402 Y-1.2276 I0.0118 J0.
N1640 G3 X-2.3304 Y-1.1807 I-0.098 J0.2276
N1645 G1 Y-0.8193
N1650 G3 X-2.402 Y-0.7724 I-0.1696 J-0.1807
N1655 G2 X-2.4092 Y-0.7615 I0.0047 J0.0108
N1660 G1 Y-0.5635
N1665 X-2.4336 Y-0.5391
N1670 X-2.5664
N1675 X-2.5908 Y-0.5635
N1680 Y-0.7615
N1685 G2 X-2.598 Y-0.7724 I-0.0118 J0.
N1690 G3 X-2.6696 Y-0.8193 I0.098 J-0.2276
N1695 G1 Y-1.1807
N1700 G3 X-2.598 Y-1.2276 I0.1696 J0.1807
N1705 G2 X-2.5908 Y-1.2385 I-0.0047 J-0.0108
N1710 G1 Y-1.4365
N1715 X-2.5664 Y-1.4609
N1720 X-2.4336
N1725 X-2.4092 Y-1.4365
N1730 Y-1.2385
N1735 G2 X-2.402 Y-1.2276 I0.0118 J0.
N1740 G3 X-2.3304 Y-1.1807 I-0.098 J0.2276
N1745 G1 Y-1.0889
N1750 G3 X-2.3554 Y-1.0639 I-0.025 J0.
N1755 G1 X-2.3804
N1760 G18 G3 X-2.4054 Z0.4541 I0. K0.025
N1765 G0 Z1.0906

(2D Contour2)
N1770 G17
N1775 G1 X-1.389 Y-0.275 F196.85
N1780 G0 Z1.0906
N1785 Z0.6969
N1790 G1 Z0.5394 F13.123
N1795 Z0.4856
N1800 G18 G2 X-1.364 Z0.4606 I0.025 K0. F25.
N1805 G1 X-1.339
N1810 G17 G3 X-1.314 Y-0.25 I0. J0.025
N1815 G1 Y-0.2175
N1820 G3 X-1.3553 Y-0.1762 I-0.0413 J0.
N1825 G1 X-1.6447
N1830 G3 X-1.686 Y-0.2175 I0. J-0.0413
N1835 G1 Y-0.2825
N1840 G3 X-1.6447 Y-0.3238 I0.0413 J0.
N1845 G1 X-1.3553
N1850 G3 X-1.314 Y-0.2825 I0. J0.0413
N1855 G1 Y-0.2175
N1860 G3 X-1.3553 Y-0.1762 I-0.0413 J0.
N1865 G1 X-1.6447
N1870 G3 X-1.686 Y-0.2175 I0. J-0.0413
N1875 G1 Y-0.2825
N1880 G3 X-1.6447 Y-0.3238 I0.0413 J0.
N1885 G1 X-1.3553
N1890 G3 X-1.314 Y-0.2825 I0. J0.0413
N1895 G1 Y-0.25
N1900 G3 X-1.339 Y-0.225 I-0.025 J0.
N1905 G1 X-1.364
N1910 G18 G3 X-1.389 Z0.4856 I0. K0.025
N1915 G0 Z1.0906
N1920 M9
N1925 M5
N1930 G53 G0 Z0.

(2D Pocket2)
N1935 T10 M6
N1940 S6000 M3
N1945 G17 G90
N1950 G54
N1955 M8
N1960 G1 X-1.3839 Y-0.2553 F196.85
N1965 G0 G43 Z1.0906 H10
N1970 T1
N1975 G0 Z0.6969
N1980 G1 Z0.5984 F13.123
N1985 Z0.4669
N1990 X-1.3832 Y-0.2548 Z0.4638
N1995 X-1.3824 Y-0.2539 Z0.4626
N2000 X-1.3818 Y-0.253 Z0.4615
N2005 X-1.3812 Y-0.2515 Z0.461
N2010 X-1.381 Y-0.25 Z0.4606
N2015 G3 X-1.3898 Y-0.2412 I-0.0088 J0. F13.2
N2020 G1 X-1.6141
N2025 X-1.6159 Y-0.2414
N2030 X-1.6176 Y-0.2421
N2035 X-1.619 Y-0.2432
N2040 X-1.6201 Y-0.2446
N2045 X-1.6208 Y-0.2463
N2050 X-1.621 Y-0.2481
N2055 Y-0.2519
N2060 X-1.6208 Y-0.2537
N2065 X-1.6201 Y-0.2554
N2070 X-1.619 Y-0.2568
N2075 X-1.6176 Y-0.2579
N2080 X-1.6159 Y-0.2586
N2085 X-1.6141 Y-0.2588
N2090 X-1.3898
N2095 G3 X-1.381 Y-0.25 I0. J0.0088
N2100 G2 X-1.371 Y-0.2292 I0.0265 J0.
N2105 G3 X-1.3786 Y-0.2074 I-0.0076 J0.0096
N2110 G1 X-1.6447
N2115 G3 X-1.6548 Y-0.2175 I0. J-0.0101
N2120 G1 Y-0.2825
N2125 G3 X-1.6447 Y-0.2926 I0.0101 J0.
N2130 G1 X-1.3553
N2135 G3 X-1.3452 Y-0.2825 I0. J0.0101
N2140 G1 Y-0.2175
N2145 G3 X-1.3553 Y-0.2074 I-0.0101 J0.
N2150 G1 X-1.3786
N2155 X-1.3801 Y-0.2077 Z0.461
N2160 X-1.3816 Y-0.2083 Z0.4615
N2165 X-1.3825 Y-0.209 Z0.4626
N2170 X-1.3833 Y-0.2098 Z0.4638
N2175 X-1.3837 Y-0.2105 Z0.4669
N2180 G0 Z1.0906
N2185 G1 X-2.4868 Y-1.0942 F196.85
N2190 G0 Z0.6969
N2195 G1 Z0.5984 F13.123
N2200 Z0.4275
N2205 X-2.4861 Y-1.0937 Z0.4244
N2210 X-2.4853 Y-1.0929 Z0.4232
N2215 X-2.4847 Y-1.0919 Z0.4221
N2220 X-2.4841 Y-1.0905 Z0.4217
N2225 X-2.4839 Y-1.0889 Z0.4213
N2230 Y-0.9091 F13.2
N2235 G3 X-2.4894 Y-0.8988 I-0.0124 J0.
N2240 G1 X-2.4928 Y-0.8964
N2245 G3 X-2.5072 I-0.0072 J-0.0101
N2250 G1 X-2.5106 Y-0.8988
N2255 G3 X-2.5161 Y-0.9091 I0.0069 J-0.0103
N2260 G1 Y-1.0909
N2265 G3 X-2.5106 Y-1.1012 I0.0124 J0.
N2270 G1 X-2.5072 Y-1.1036
N2275 G3 X-2.4928 I0.0072 J0.0101
N2280 G1 X-2.4894 Y-1.1012
N2285 G3 X-2.4839 Y-1.0909 I-0.0069 J0.0103
N2290 G1 Y-1.0889
N2295 G2 X-2.4671 Y-1.0638 I0.0273 J0.
N2300 G3 X-2.4503 Y-1.0386 I-0.0105 J0.0252
N2305 G1 Y-0.8978
N2310 G3 X-2.4631 Y-0.8756 I-0.0255 J0.
N2315 G2 X-2.4919 Y-0.8532 I0.0658 J0.1141
N2320 G3 X-2.5081 I-0.0081 J-0.0079
N2325 G2 X-2.5369 Y-0.8756 I-0.0945 J0.0917
N2330 G3 X-2.5497 Y-0.8978 I0.0127 J-0.0221
N2335 G1 Y-1.1022
N2340 G3 X-2.5369 Y-1.1244 I0.0255 J0.
N2345 G2 X-2.5081 Y-1.1468 I-0.0658 J-0.1141
N2350 G3 X-2.4919 I0.0081 J0.0079
N2355 G2 X-2.4631 Y-1.1244 I0.0945 J-0.0917
N2360 G3 X-2.4503 Y-1.1022 I-0.0127 J0.0221
N2365 G1 Y-1.0386
N2370 G2 X-2.4336 Y-1.0134 I0.0273 J0.
N2375 G3 X-2.4168 Y-0.9883 I-0.0105 J0.0252
N2380 G1 Y-0.8748
N2385 G3 X-2.4293 Y-0.8548 I-0.0222 J0.
N2390 G1 X-2.4327 Y-0.8533
N2395 X-2.4363 Y-0.8519
N2400 G2 X-2.4803 Y-0.8159 I0.0408 J0.0948
N2405 X-2.4973 Y-0.7615 I0.0785 J0.0543
N2410 G1 X-2.4955 Y-0.6292
N2415 X-2.4958 Y-0.6278
N2420 X-2.4966 Y-0.6266
N2425 X-2.4979 Y-0.6257
N2430 X-2.4993 Y-0.6254
N2435 X-2.5007
N2440 X-2.5021 Y-0.6257
N2445 X-2.5034 Y-0.6266
N2450 X-2.5042 Y-0.6278
N2455 X-2.5045 Y-0.6292
N2460 G3 X-2.5036 Y-0.6954 I2.4694 J0.
N2465 G2 X-2.5027 Y-0.7615 I-2.4685 J-0.0661
N2470 X-2.5197 Y-0.8159 I-0.0954 J0.
N2475 X-2.5637 Y-0.8519 I-0.0849 J0.0588
N2480 G1 X-2.5673 Y-0.8533
N2485 X-2.5707 Y-0.8548
N2490 G3 X-2.5832 Y-0.8748 I0.0097 J-0.02
N2495 G1 Y-1.1252
N2500 G3 X-2.5707 Y-1.1452 I0.0222 J0.
N2505 G1 X-2.5673 Y-1.1467
N2510 X-2.5637 Y-1.1481
N2515 G2 X-2.5197 Y-1.1841 I-0.0408 J-0.0948
N2520 X-2.5027 Y-1.2385 I-0.0785 J-0.0543
N2525 G1 X-2.5045 Y-1.3708
N2530 X-2.5042 Y-1.3722
N2535 X-2.5034 Y-1.3734
N2540 X-2.5021 Y-1.3743
N2545 X-2.5007 Y-1.3746
N2550 X-2.4993
N2555 X-2.4979 Y-1.3743
N2560 X-2.4966 Y-1.3734
N2565 X-2.4958 Y-1.3722
N2570 X-2.4955 Y-1.3708
N2575 X-2.4973 Y-1.2385
N2580 G2 X-2.4803 Y-1.1841 I0.0954 J0.
N2585 X-2.4363 Y-1.1481 I0.0849 J-0.0588
N2590 G1 X-2.4327 Y-1.1467
N2595 X-2.4293 Y-1.1452
N2600 G3 X-2.4168 Y-1.1252 I-0.0097 J0.02
N2605 G1 Y-0.9883
N2610 G2 X-2.4002 Y-0.9634 I0.0269 J0.
N2615 G3 X-2.3836 Y-0.9385 I-0.0104 J0.0249
N2620 G1 Y-0.8597
N2625 G3 X-2.3977 Y-0.8344 I-0.0297 J0.
N2630 X-2.4103 Y-0.8278 I-0.0552 J-0.0894
N2635 X-2.4234 Y-0.822 I-0.5277 J-1.1899
N2640 G2 X-2.4528 Y-0.7979 I0.0271 J0.0631
N2645 X-2.4641 Y-0.7615 I0.0529 J0.0364
N2650 G1 X-2.4624 Y-0.6049
N2655 G3 X-2.4749 Y-0.5923 I-0.0126 J0.
N2660 G1 X-2.5251
N2665 G3 X-2.5376 Y-0.6049 I0. J-0.0126
N2670 G1 X-2.5359 Y-0.7615
N2675 G2 X-2.5472 Y-0.7979 I-0.0642 J0.
N2680 X-2.5766 Y-0.822 I-0.0566 J0.0389
N2685 G3 X-2.5897 Y-0.8278 I0.5149 J-1.1965
N2690 X-2.6023 Y-0.8344 I0.0426 J-0.096
N2695 X-2.6164 Y-0.8597 I0.0156 J-0.0253
N2700 G1 Y-1.1403
N2705 G3 X-2.6023 Y-1.1656 I0.0297 J0.
N2710 X-2.5897 Y-1.1722 I0.0552 J0.0894
N2715 X-2.5766 Y-1.178 I0.5277 J1.1899
N2720 G2 X-2.5472 Y-1.2021 I-0.0271 J-0.0631
N2725 X-2.5359 Y-1.2385 I-0.0529 J-0.0364
N2730 G1 X-2.5376 Y-1.3951
N2735 G3 X-2.5251 Y-1.4077 I0.0126 J0.
N2740 G1 X-2.4749
N2745 G3 X-2.4624 Y-1.3951 I0. J0.0126
N2750 G1 X-2.4641 Y-1.2385
N2755 G2 X-2.4528 Y-1.2021 I0.0642 J0.
N2760 X-2.4234 Y-1.178 I0.0566 J-0.0389
N2765 G3 X-2.4103 Y-1.1722 I-0.5145 J1.1954
N2770 X-2.3977 Y-1.1656 I-0.0426 J0.096
N2775 X-2.3836 Y-1.1403 I-0.0156 J0.0253
N2780 G1 Y-0.9385
N2785 G2 X-2.3667 Y-0.9132 I0.0274 J0.
N2790 G3 X-2.3499 Y-0.8879 I-0.0106 J0.0253
N2795 G1 Y-0.8279
N2800 G3 X-2.4097 Y-0.7902 I-0.1501 J-0.1721
N2805 G2 X-2.4286 Y-0.7615 I0.0124 J0.0287
N2810 G1 Y-0.5716
N2815 X-2.4417 Y-0.5585
N2820 X-2.5583
N2825 X-2.5714 Y-0.5716
N2830 Y-0.7615
N2835 G2 X-2.5903 Y-0.7902 I-0.0312 J0.
N2840 G3 X-2.6501 Y-0.8279 I0.0903 J-0.2098
N2845 G1 Y-1.1721
N2850 G3 X-2.5903 Y-1.2098 I0.1501 J0.1721
N2855 G2 X-2.5714 Y-1.2385 I-0.0124 J-0.0287
N2860 G1 Y-1.4284
N2865 X-2.5583 Y-1.4415
N2870 X-2.4417
N2875 X-2.4286 Y-1.4284
N2880 Y-1.2385
N2885 G2 X-2.4097 Y-1.2098 I0.0313 J0.
N2890 G3 X-2.3499 Y-1.1721 I-0.0903 J0.2098
N2895 G1 Y-0.8879
N2900 X-2.3501 Y-0.8863 Z0.4217
N2905 X-2.3507 Y-0.8849 Z0.4221
N2910 X-2.3514 Y-0.884 Z0.4232
N2915 X-2.3522 Y-0.8832 Z0.4244
N2920 X-2.3529 Y-0.8827 Z0.4275
N2925 G0 Z1.0906

N2930 M5
N2935 M9
N2940 G53 G0 Z0.
N2945 X-1.5
N2950 G53 G0 Y0.
M98 P9004
N2955 M30

%
