%
O10006 (Automatic CAM Program)
#801 = 2
(Using high feed G1 F196.85 instead of G0.)
(T1 D=0.125 CR=0. - ZMIN=0.374 - flat end mill)
(T5 D=0.25 CR=0. TAPER=90deg - ZMIN=0.4291 - spot drill)
(T10 D=0.0625 CR=0. - ZMIN=0.4213 - flat end mill)
N10 G90 G17
N15 G20
N20 G53 G0 Z0.

(2D Pocket3)
N25 T1 M6
N30 S6000 M3
N35 G17 G90
N40 G54
N45 M8
N50 G1 X-2.4995 Y-0.6625 F196.85
N55 G0 G43 Z1.0906 H1
N60 T5
N65 G0 Z0.6969
N70 G1 Z0.5984 F13.123
N75 Z0.4803
N80 Y-0.6094 F26.4
N85 Y-0.563
N90 G2 X-2.437 Y-0.5005 I0.0625 J0.
N95 G1 X-1.6975
N100 X-1.6477
N105 Z0.4928
N110 G0 Z0.6969
N115 G1 X-1.6472 Y-0.4995 F196.85
N120 Z0.5984 F13.123
N125 Z0.4803
N130 X-2.5 F26.4
N135 X-2.5003 Y-0.4997
N140 X-2.5005 Y-0.5
N145 Y-0.6094
N150 Y-0.6626
N155 Z0.4928
N160 G0 Z1.0906
N165 G1 X-1.3522 Y-0.5005 F196.85
N170 G0 Z0.6969
N175 G1 Z0.5984 F13.123
N180 Z0.4803
N185 X-0.4995 F26.4
N190 Y-0.5
N195 X-0.5 Y-0.4995
N200 X-1.3025
N205 X-1.3523
N210 Z0.4928
N215 G0 Z1.0906
N220 G1 X-0.5005 Y-1.4358 F196.85
N225 G0 Z0.6969
N230 G1 Z0.5984 F13.123
N235 Z0.4803
N240 Y-1.6143 F26.4
N245 G2 X-0.563 Y-1.6768 I-0.0625 J0.
N250 G1 X-1.5015
N255 Z0.4928
N260 G0 Z0.6969
N265 G1 X-1.5012 Y-1.6778 F196.85
N270 Z0.5984 F13.123
N275 Z0.4803
N280 X-0.5 F26.4
N285 X-0.4995 Y-1.6773
N290 Y-1.4941
N295 Y-1.4361
N300 Z0.4928
N305 G0 Z1.0906
N310 G1 X-1.3878 Y-0.4887 F196.85
N315 G0 Z0.6969
N320 G1 Z0.5984 F13.123
N325 Z0.4606
N330 X-1.6235 F26.4
N335 Y-0.5113
N340 X-1.3765
N345 Y-0.4887
N350 X-1.3878
N355 X-1.3902 Y-0.4889 Z0.4611
N360 X-1.3925 Y-0.4896 Z0.4616
N365 X-1.3943 Y-0.4905 Z0.4629
N370 X-1.3959 Y-0.4917 Z0.4643
N375 X-1.3978 Y-0.4936 Z0.4683
N380 X-1.3983 Y-0.4944 Z0.4731
N385 G0 Z1.0906
N390 G1 X-2.5043 Y-1.1058 F196.85
N395 G0 Z0.6969
N400 G1 Z0.525 F13.123
N405 Z0.4534 F26.4
N410 X-2.5042 Y-1.1061 Z0.4507
N415 X-2.5039 Y-1.107 Z0.448
N420 X-2.5034 Y-1.1084 Z0.4457
N425 X-2.5028 Y-1.1103 Z0.4437
N430 X-2.5021 Y-1.1126 Z0.4422
N435 X-2.5013 Y-1.1151 Z0.4413
N440 X-2.5004 Y-1.1177 Z0.4409
N445 X-2.5 Y-1.118
N450 G3 Y-0.882 I0. J0.118
N455 Y-1.118 I0. J-0.118
N460 G2 X-2.4923 Y-1.1274 I0. J-0.0079
N465 G1 X-2.5031 Y-1.1814
N470 G3 X-2.4952 Y-1.1908 I0.0077 J-0.0016
N475 X-2.3653 Y-0.8648 I-0.0048 J0.1908
N480 X-2.4273 Y-0.8245 I-0.1268 J-0.1274
N485 X-2.5727 I-0.0727 J-0.1879
N490 X-2.6347 Y-0.8648 I0.0648 J-0.1676
N495 X-2.5046 Y-1.1908 I0.1347 J-0.1352
N500 G2 X-2.497 Y-1.1996 I-0.0002 J-0.0079
N505 G1 X-2.5032 Y-1.2531
N510 G3 X-2.4952 Y-1.2619 I0.0078 J-0.0009
N515 X-2.3152 Y-0.8144 I-0.0048 J0.2619
N520 X-2.4002 Y-0.7588 I-0.1769 J-0.1776
N525 X-2.5998 I-0.0998 J-0.2534
N530 X-2.6848 Y-0.8144 I0.0919 J-0.2332
N535 X-2.5048 Y-1.2619 I0.1848 J-0.1856
N540 G2 X-2.4971 Y-1.2707 I-0.0001 J-0.0079
N545 G1 X-2.5044 Y-1.328
N550 G3 X-2.4953 Y-1.3367 I0.0078 J-0.001
N555 G1 X-2.447 Y-1.3289
N560 G3 X-2.553 I-0.053 J0.3289
N565 G1 X-2.505 Y-1.3367
N570 X-2.5026 Y-1.3368 Z0.4414
N575 X-2.5002 Y-1.3364 Z0.4419
N580 X-2.4983 Y-1.3357 Z0.4433
N585 X-2.4965 Y-1.3347 Z0.4446
N590 X-2.4945 Y-1.333 Z0.4487
N595 X-2.4939 Y-1.3323 Z0.4534
N600 G0 Z1.0906
N605 G1 X-2.4838 Y-1.0105 F196.85
N610 G0 Z0.6969
N615 G1 Z0.5984 F13.123
N620 Z0.4771
N625 X-2.483 Y-1.01 Z0.4723
N630 X-2.481 Y-1.0081 Z0.4682
N635 X-2.4799 Y-1.0065 Z0.4669
N640 X-2.479 Y-1.0047 Z0.4655
N645 X-2.4783 Y-1.0024 Z0.465
N650 X-2.478 Y-1. Z0.4646
N655 G3 X-2.522 I-0.022 J0. F26.4
N660 X-2.478 I0.022 J0.
N665 X-2.4937 Y-0.999 I-0.0079 J0.
N670 G1 X-2.5062 Y-1.0933
N675 G3 X-2.4953 Y-1.1016 I0.0078 J-0.001
N680 G1 X-2.462 Y-1.0871
N685 G3 X-2.538 I-0.038 J0.0871
N690 G1 X-2.5047 Y-1.1016
N695 X-2.5036 Y-1.1018
N700 X-2.5024 Y-1.1016
N705 X-2.5015 Y-1.1009
N710 X-2.5008 Y-1.1
N715 X-2.5006 Y-1.0988
N720 X-2.5007 Y-1.0845
N725 X-2.4971 Y-1.0141
N730 G3 X-2.5004 Y-1.0193 I-0.0062 J0.0003
N735 G1 X-2.4838 Y-1.0105
N740 Z0.4416 F13.123
N745 X-2.483 Y-1.01 Z0.4369
N750 X-2.481 Y-1.0081 Z0.4328
N755 X-2.4799 Y-1.0065 Z0.4314
N760 X-2.479 Y-1.0047 Z0.4301
N765 X-2.4783 Y-1.0024 Z0.4296
N770 X-2.478 Y-1. Z0.4291
N775 G3 X-2.522 I-0.022 J0. F26.4
N780 X-2.478 I0.022 J0.
N785 X-2.4937 Y-0.999 I-0.0079 J0.
N790 G1 X-2.5062 Y-1.0933
N795 G3 X-2.4953 Y-1.1016 I0.0078 J-0.001
N800 G1 X-2.462 Y-1.0871
N805 G3 X-2.538 I-0.038 J0.0871
N810 G1 X-2.5047 Y-1.1016
N815 X-2.5029 Y-1.1022 Z0.4295
N820 X-2.5009 Y-1.1024 Z0.4299
N825 X-2.4992 Y-1.1023 Z0.431
N830 X-2.4976 Y-1.102 Z0.4322
N835 X-2.4955 Y-1.1011 Z0.4355
N840 X-2.4949 Y-1.1007 Z0.4395
N845 G0 Z1.0906
N850 G1 X-0.4787 Y-0.8985 F196.85
N855 G0 Z0.6969
N860 G1 Z0.5984 F13.123
N865 Z0.4731
N870 Y-0.8975 Z0.4683
N875 X-0.4793 Y-0.8949 Z0.4643
N880 X-0.4801 Y-0.893 Z0.4629
N885 X-0.4811 Y-0.8913 Z0.4616
N890 X-0.4828 Y-0.8895 Z0.4611
N895 X-0.4847 Y-0.8881 Z0.4606
N900 X-0.4894 Y-0.8851 F26.4
N905 G3 X-0.5106 I-0.0106 J-0.016
N910 G1 X-0.517 Y-0.8891
N915 G3 X-0.5296 Y-0.911 I0.0128 J-0.0219
N920 G1 Y-1.089
N925 G3 X-0.517 Y-1.1109 I0.0254 J0.
N930 G1 X-0.5106 Y-1.1149
N935 G3 X-0.4894 I0.0106 J0.016
N940 G1 X-0.483 Y-1.1109
N945 G3 X-0.4704 Y-1.089 I-0.0128 J0.0219
N950 G1 Y-0.911
N955 G3 X-0.483 Y-0.8891 I-0.0254 J0.
N960 G1 X-0.4847 Y-0.8881
N965 G2 X-0.5019 Y-0.8086 I0.029 J0.0479
N970 G3 X-0.4779 Y-0.7309 I-0.1137 J0.0777
N975 G1 Y-0.6078
N980 X-0.5221
N985 Y-0.7737
N990 G2 X-0.5628 Y-0.8322 I-0.0625 J0.
N995 G3 X-0.6009 Y-0.852 I0.0628 J-0.1678
N1000 G1 Y-1.148
N1005 G3 X-0.5628 Y-1.1678 I0.1009 J0.148
N1010 G2 X-0.5221 Y-1.2263 I-0.0219 J-0.0585
N1015 G1 Y-1.3922
N1020 X-0.4779
N1025 Y-1.2263
N1030 G2 X-0.4372 Y-1.1678 I0.0625 J0.
N1035 G3 X-0.3991 Y-1.148 I-0.0628 J0.1678
N1040 G1 Y-0.852
N1045 G3 X-0.4372 Y-0.8322 I-0.1009 J-0.148
N1050 G2 X-0.4779 Y-0.7737 I0.0219 J0.0585
N1055 G1 Y-0.7309
N1060 X-0.4781 Y-0.7296
N1065 X-0.4788 Y-0.7286
N1070 X-0.4799 Y-0.728
N1075 X-0.4811 Y-0.7278
N1080 X-0.4823 Y-0.728
N1085 X-0.4833 Y-0.7288
N1090 X-0.4839 Y-0.7299
N1095 X-0.4872 Y-0.7402
N1100 X-0.4876 Y-0.8897
N1105 X-0.4845 Y-0.8995
N1110 X-0.4839 Y-0.9006
N1115 X-0.4829 Y-0.9013
N1120 X-0.4817 Y-0.9016
N1125 X-0.4805 Y-0.9013
N1130 X-0.4795 Y-0.9007
N1135 X-0.4789 Y-0.8997
N1140 X-0.4787 Y-0.8985
N1145 Z0.4338 F13.123
N1150 Y-0.8975 Z0.429
N1155 X-0.4793 Y-0.8949 Z0.4249
N1160 X-0.4801 Y-0.893 Z0.4236
N1165 X-0.4811 Y-0.8913 Z0.4222
N1170 X-0.4828 Y-0.8895 Z0.4217
N1175 X-0.4847 Y-0.8881 Z0.4213
N1180 X-0.4894 Y-0.8851 F26.4
N1185 G3 X-0.5106 I-0.0106 J-0.016
N1190 G1 X-0.517 Y-0.8891
N1195 G3 X-0.5296 Y-0.911 I0.0128 J-0.0219
N1200 G1 Y-1.089
N1205 G3 X-0.517 Y-1.1109 I0.0254 J0.
N1210 G1 X-0.5106 Y-1.1149
N1215 G3 X-0.4894 I0.0106 J0.016
N1220 G1 X-0.483 Y-1.1109
N1225 G3 X-0.4704 Y-1.089 I-0.0128 J0.0219
N1230 G1 Y-0.911
N1235 G3 X-0.483 Y-0.8891 I-0.0254 J0.
N1240 G1 X-0.4847 Y-0.8881
N1245 G2 X-0.5019 Y-0.8086 I0.029 J0.0479
N1250 G3 X-0.4779 Y-0.7309 I-0.1137 J0.0777
N1255 G1 Y-0.6078
N1260 X-0.5221
N1265 Y-0.7737
N1270 G2 X-0.5628 Y-0.8322 I-0.0625 J0.
N1275 G3 X-0.6009 Y-0.852 I0.0628 J-0.1678
N1280 G1 Y-1.148
N1285 G3 X-0.5628 Y-1.1678 I0.1009 J0.148
N1290 G2 X-0.5221 Y-1.2263 I-0.0219 J-0.0585
N1295 G1 Y-1.3922
N1300 X-0.4779
N1305 Y-1.2263
N1310 G2 X-0.4372 Y-1.1678 I0.0625 J0.
N1315 G3 X-0.3991 Y-1.148 I-0.0628 J0.1678
N1320 G1 Y-0.852
N1325 G3 X-0.4372 Y-0.8322 I-0.1009 J-0.148
N1330 G2 X-0.4779 Y-0.7737 I0.0219 J0.0585
N1335 G1 Y-0.7309
N1340 X-0.4781 Y-0.7285 Z0.4217
N1345 X-0.4789 Y-0.7262 Z0.4222
N1350 X-0.4799 Y-0.7245 Z0.4236
N1355 X-0.4811 Y-0.7229 Z0.4249
N1360 X-0.4832 Y-0.7211 Z0.429
N1365 X-0.484 Y-0.7206 Z0.4338
N1370 G0 Z1.0906

(Trace2)
N1375 G1 X-2.5 Y-1.6773 F196.85
N1380 G0 Z1.0906
N1385 Z0.6969
N1390 G1 Z0.4213 F13.123
N1395 X-1.5 Z0.4803 F15.4
N1400 Z0.6969
N1405 G0 X-2.5
N1410 G1 Z0.4213 F13.123
N1415 Y-1.6143 F15.4
N1420 Y-1.4607 Z0.374
N1425 Y-1.1536
N1430 Y-1. Z0.4213
N1435 Z0.6969
N1440 G0 Y-1.6773
N1445 G1 Z0.4213 F13.123
N1450 X-1.5 Z0.4803 F15.4
N1455 Z0.6969
N1460 G0 X-2.5
N1465 G1 Z0.4213 F13.123
N1470 Y-1.6143 F15.4
N1475 Y-1.4607 Z0.374
N1480 Y-1.1536
N1485 Y-1. Z0.4213
N1490 Z0.6969
N1495 G0 Z1.0906
N1500 M9
N1505 M5
N1510 G53 G0 Z0.

(2D Contour3)
N1515 T5 M6
N1520 S4500 M3
N1525 G17 G90
N1530 G54
N1535 M8
N1540 G1 X-0.4234 Y-0.9384 F196.85
N1545 G0 G43 Z1.0906 H5
N1550 T10
N1555 G0 Z0.6969
N1560 G1 Z0.5394 F13.123
N1565 Z0.4541
N1570 G18 G2 X-0.3984 Z0.4291 I0.025 K0. F25.
N1575 G1 X-0.3734
N1580 G17 G3 X-0.3484 Y-0.9134 I0. J0.025
N1585 G1 Y-0.8272 F0.984
N1590 G3 X-0.4195 Y-0.7847 I-0.1516 J-0.1728
N1595 G2 X-0.4272 Y-0.7737 I0.0041 J0.0111
N1600 G1 Y-0.571
N1605 X-0.4411 Y-0.5571
N1610 X-0.5589
N1615 X-0.5728 Y-0.571
N1620 Y-0.7737
N1625 G2 X-0.5805 Y-0.7847 I-0.0118 J0.
N1630 G3 X-0.6516 Y-0.8272 I0.0805 J-0.2153
N1635 G1 Y-1.1728
N1640 G3 X-0.5805 Y-1.2153 I0.1516 J0.1728
N1645 G2 X-0.5728 Y-1.2263 I-0.0041 J-0.0111
N1650 G1 Y-1.429
N1655 X-0.5589 Y-1.4429
N1660 X-0.4411
N1665 X-0.4272 Y-1.429
N1670 Y-1.2263
N1675 G2 X-0.4195 Y-1.2153 I0.0118 J0.
N1680 G3 X-0.3484 Y-1.1728 I-0.0805 J0.2153
N1685 G1 Y-0.9134
N1690 Y-0.8272
N1695 G3 X-0.4195 Y-0.7847 I-0.1516 J-0.1728
N1700 G2 X-0.4272 Y-0.7737 I0.0041 J0.0111
N1705 G1 Y-0.571
N1710 X-0.4411 Y-0.5571
N1715 X-0.5589
N1720 X-0.5728 Y-0.571
N1725 Y-0.7737
N1730 G2 X-0.5805 Y-0.7847 I-0.0118 J0.
N1735 G3 X-0.6516 Y-0.8272 I0.0805 J-0.2153
N1740 G1 Y-1.1728
N1745 G3 X-0.5805 Y-1.2153 I0.1516 J0.1728
N1750 G2 X-0.5728 Y-1.2263 I-0.0041 J-0.0111
N1755 G1 Y-1.429
N1760 X-0.5589 Y-1.4429
N1765 X-0.4411
N1770 X-0.4272 Y-1.429
N1775 Y-1.2263
N1780 G2 X-0.4195 Y-1.2153 I0.0118 J0.
N1785 G3 X-0.3484 Y-1.1728 I-0.0805 J0.2153
N1790 G1 Y-0.9134
N1795 G3 X-0.3734 Y-0.8884 I-0.025 J0. F25.
N1800 G1 X-0.3984
N1805 G18 G3 X-0.4234 Z0.4541 I0. K0.025
N1810 G0 Z1.0906

(2D Contour4)
N1815 G17
N1820 G1 X-1.389 Y-0.525 F196.85
N1825 G0 Z1.0906
N1830 Z0.6969
N1835 G1 Z0.5394 F13.123
N1840 Z0.4856
N1845 G18 G2 X-1.364 Z0.4606 I0.025 K0. F25.
N1850 G1 X-1.339
N1855 G17 G3 X-1.314 Y-0.5 I0. J0.025
N1860 G1 Y-0.4675 F0.984
N1865 G3 X-1.3553 Y-0.4262 I-0.0413 J0.
N1870 G1 X-1.6447
N1875 G3 X-1.686 Y-0.4675 I0. J-0.0413
N1880 G1 Y-0.5325
N1885 G3 X-1.6447 Y-0.5738 I0.0413 J0.
N1890 G1 X-1.3553
N1895 G3 X-1.314 Y-0.5325 I0. J0.0413
N1900 G1 Y-0.5
N1905 Y-0.4675
N1910 G3 X-1.3553 Y-0.4262 I-0.0413 J0.
N1915 G1 X-1.6447
N1920 G3 X-1.686 Y-0.4675 I0. J-0.0413
N1925 G1 Y-0.5325
N1930 G3 X-1.6447 Y-0.5738 I0.0413 J0.
N1935 G1 X-1.3553
N1940 G3 X-1.314 Y-0.5325 I0. J0.0413
N1945 G1 Y-0.5
N1950 G3 X-1.339 Y-0.475 I-0.025 J0. F25.
N1955 G1 X-1.364
N1960 G18 G3 X-1.389 Z0.4856 I0. K0.025
N1965 G0 Z1.0906
N1970 M9
N1975 M5
N1980 G53 G0 Z0.

(2D Pocket4)
N1985 T10 M6
N1990 S6000 M3
N1995 G17 G90
N2000 G54
N2005 M8
N2010 G1 X-1.3839 Y-0.5053 F196.85
N2015 G0 G43 Z1.0906 H10
N2020 T1
N2025 G0 Z0.6969
N2030 G1 Z0.5984 F13.123
N2035 Z0.4669
N2040 X-1.3832 Y-0.5048 Z0.4638
N2045 X-1.3824 Y-0.5039 Z0.4626
N2050 X-1.3818 Y-0.503 Z0.4615
N2055 X-1.3812 Y-0.5015 Z0.461
N2060 X-1.381 Y-0.5 Z0.4606
N2065 G3 X-1.3898 Y-0.4912 I-0.0088 J0. F13.2
N2070 G1 X-1.6141
N2075 X-1.6159 Y-0.4914
N2080 X-1.6176 Y-0.4921
N2085 X-1.619 Y-0.4932
N2090 X-1.6201 Y-0.4946
N2095 X-1.6208 Y-0.4963
N2100 X-1.621 Y-0.4981
N2105 Y-0.5019
N2110 X-1.6208 Y-0.5037
N2115 X-1.6201 Y-0.5054
N2120 X-1.619 Y-0.5068
N2125 X-1.6176 Y-0.5079
N2130 X-1.6159 Y-0.5086
N2135 X-1.6141 Y-0.5088
N2140 X-1.3898
N2145 G3 X-1.381 Y-0.5 I0. J0.0088
N2150 G2 X-1.371 Y-0.4792 I0.0265 J0.
N2155 G3 X-1.3786 Y-0.4574 I-0.0076 J0.0096
N2160 G1 X-1.6447
N2165 G3 X-1.6548 Y-0.4675 I0. J-0.0101
N2170 G1 Y-0.5325
N2175 G3 X-1.6447 Y-0.5426 I0.0101 J0.
N2180 G1 X-1.3553
N2185 G3 X-1.3452 Y-0.5325 I0. J0.0101
N2190 G1 Y-0.4675
N2195 G3 X-1.3553 Y-0.4574 I-0.0101 J0.
N2200 G1 X-1.3786
N2205 X-1.3801 Y-0.4577 Z0.461
N2210 X-1.3816 Y-0.4583 Z0.4615
N2215 X-1.3825 Y-0.459 Z0.4626
N2220 X-1.3833 Y-0.4598 Z0.4638
N2225 X-1.3837 Y-0.4605 Z0.4669
N2230 G0 Z1.0906
N2235 G1 X-0.4927 Y-0.9187 F196.85
N2240 G0 Z0.6969
N2245 G1 Z0.5984 F13.123
N2250 Z0.4275
N2255 X-0.492 Y-0.9182 Z0.4244
N2260 X-0.4912 Y-0.9174 Z0.4232
N2265 X-0.4906 Y-0.9164 Z0.4221
N2270 X-0.49 Y-0.915 Z0.4217
N2275 X-0.4898 Y-0.9134 Z0.4213
N2280 Y-0.9129 F13.2
N2285 X-0.4901 Y-0.9106
N2290 X-0.491 Y-0.9083
N2295 X-0.4925 Y-0.9064
N2300 X-0.4943 Y-0.905
N2305 X-0.4952 Y-0.9045
N2310 X-0.497 Y-0.9036
N2315 X-0.499 Y-0.9032
N2320 X-0.501
N2325 X-0.503 Y-0.9036
N2330 X-0.5048 Y-0.9045
N2335 X-0.5057 Y-0.905
N2340 X-0.5075 Y-0.9064
N2345 X-0.509 Y-0.9083
N2350 X-0.5099 Y-0.9106
N2355 X-0.5102 Y-0.9129
N2360 Y-1.0871
N2365 X-0.5099 Y-1.0894
N2370 X-0.509 Y-1.0917
N2375 X-0.5075 Y-1.0936
N2380 X-0.5057 Y-1.095
N2385 X-0.5048 Y-1.0955
N2390 X-0.503 Y-1.0964
N2395 X-0.501 Y-1.0968
N2400 X-0.499
N2405 X-0.497 Y-1.0964
N2410 X-0.4952 Y-1.0955
N2415 X-0.4943 Y-1.095
N2420 X-0.4925 Y-1.0936
N2425 X-0.491 Y-1.0917
N2430 X-0.4901 Y-1.0894
N2435 X-0.4898 Y-1.0871
N2440 Y-0.9134
N2445 G2 X-0.4829 Y-0.9013 I0.0142 J0.
N2450 G3 Y-0.8873 I-0.0042 J0.007
N2455 G1 X-0.4893 Y-0.8832
N2460 G3 X-0.5107 I-0.0107 J-0.0159
N2465 G1 X-0.5184 Y-0.8881
N2470 G3 X-0.5312 Y-0.9102 I0.0128 J-0.0222
N2475 G1 Y-1.0898
N2480 G3 X-0.5184 Y-1.1119 I0.0256 J0.
N2485 G1 X-0.5107 Y-1.1168
N2490 G3 X-0.4893 I0.0107 J0.0159
N2495 G1 X-0.4816 Y-1.1119
N2500 G3 X-0.4688 Y-1.0898 I-0.0128 J0.0222
N2505 G1 Y-0.9102
N2510 G3 X-0.4816 Y-0.8881 I-0.0256 J0.
N2515 G1 X-0.4829 Y-0.8873
N2520 G2 X-0.4929 Y-0.8606 I0.0116 J0.0195
N2525 G3 X-0.5168 Y-0.8452 I-0.0139 J0.0047
N2530 G2 X-0.5266 Y-0.8533 I-0.0663 J0.0704
N2535 X-0.5507 Y-0.8663 I-0.0613 J0.0851
N2540 G3 X-0.5648 Y-0.8866 I0.0077 J-0.0204
N2545 G1 Y-1.1134
N2550 G3 X-0.5507 Y-1.1337 I0.0218 J0.
N2555 G2 X-0.5266 Y-1.1467 I-0.0372 J-0.098
N2560 X-0.5069 Y-1.1657 I-0.0565 J-0.0784
N2565 G3 X-0.4931 I0.0069 J0.0053
N2570 G2 X-0.4734 Y-1.1467 I0.0763 J-0.0594
N2575 X-0.4493 Y-1.1337 I0.0613 J-0.0851
N2580 G3 X-0.4352 Y-1.1134 I-0.0077 J0.0204
N2585 G1 Y-0.8866
N2590 G3 X-0.4493 Y-0.8663 I-0.0218 J0.
N2595 G2 X-0.4734 Y-0.8533 I0.0372 J0.098
N2600 X-0.4931 Y-0.8343 I0.0565 J0.0784
N2605 G3 X-0.5069 I-0.0069 J-0.0053
N2610 G2 X-0.5168 Y-0.8452 I-0.0763 J0.0594
N2615 X-0.5497 Y-0.8467 I-0.0173 J0.0184
N2620 G3 X-0.5824 Y-0.8438 I-0.0187 J-0.0238
N2625 G1 X-0.5826 Y-0.8439
N2630 G3 X-0.5984 Y-0.8701 I0.0139 J-0.0263
N2635 G1 Y-1.1299
N2640 G3 X-0.5826 Y-1.1561 I0.0297 J0.
N2645 X-0.5719 Y-1.1609 I0.0423 J0.0801
N2650 G1 X-0.5616 Y-1.1648
N2655 G2 X-0.5301 Y-1.1887 I-0.0241 J-0.0644
N2660 X-0.5179 Y-1.2263 I-0.0516 J-0.0376
N2665 G1 X-0.5196 Y-1.3771
N2670 G3 X-0.5071 Y-1.3897 I0.0126 J0.
N2675 G1 X-0.4929
N2680 G3 X-0.4804 Y-1.3771 I0. J0.0126
N2685 G1 X-0.4821 Y-1.2263
N2690 G2 X-0.4699 Y-1.1887 I0.0639 J0.
N2695 X-0.4384 Y-1.1648 I0.0556 J-0.0405
N2700 G1 X-0.4281 Y-1.1609
N2705 G3 X-0.4174 Y-1.1561 I-0.0317 J0.0849
N2710 X-0.4016 Y-1.1299 I-0.0139 J0.0263
N2715 G1 Y-0.8701
N2720 G3 X-0.4174 Y-0.8439 I-0.0297 J0.
N2725 X-0.4281 Y-0.8391 I-0.0423 J-0.0801
N2730 G1 X-0.4384 Y-0.8352
N2735 G2 X-0.4699 Y-0.8113 I0.0241 J0.0644
N2740 X-0.4821 Y-0.7737 I0.0516 J0.0376
N2745 G1 X-0.4804 Y-0.6229
N2750 G3 X-0.4929 Y-0.6103 I-0.0126 J0.
N2755 G1 X-0.5071
N2760 G3 X-0.5196 Y-0.6229 I0. J-0.0126
N2765 G1 X-0.5179 Y-0.7737
N2770 G2 X-0.5301 Y-0.8113 I-0.0639 J0.
N2775 X-0.5616 Y-0.8352 I-0.0556 J0.0405
N2780 G1 X-0.5719 Y-0.8391
N2785 G3 X-0.5824 Y-0.8438 I0.0317 J-0.0849
N2790 G2 X-0.6076 Y-0.838 I-0.0092 J0.0176
N2795 G3 X-0.6321 Y-0.8461 I-0.0109 J-0.0081
N2800 G1 Y-1.1637
N2805 G3 X-0.5737 Y-1.1971 I0.1321 J0.1637
N2810 G2 X-0.5534 Y-1.2263 I-0.0109 J-0.0293
N2815 G1 Y-1.4209
N2820 X-0.5509 Y-1.4235
N2825 X-0.4491
N2830 X-0.4466 Y-1.4209
N2835 Y-1.2263
N2840 G2 X-0.4263 Y-1.1971 I0.0312 J0.
N2845 G3 X-0.3679 Y-1.1637 I-0.0737 J0.1971
N2850 G1 Y-0.8363
N2855 G3 X-0.4263 Y-0.8029 I-0.1321 J-0.1637
N2860 G2 X-0.4466 Y-0.7737 I0.0109 J0.0293
N2865 G1 Y-0.5791
N2870 X-0.4491 Y-0.5765
N2875 X-0.5509
N2880 X-0.5534 Y-0.5791
N2885 Y-0.7737
N2890 G2 X-0.5737 Y-0.8029 I-0.0313 J0.
N2895 G3 X-0.6321 Y-0.8363 I0.0737 J-0.1971
N2900 G1 Y-0.8461
N2905 X-0.6319 Y-0.8477 Z0.4217
N2910 X-0.6313 Y-0.8491 Z0.4221
N2915 X-0.6306 Y-0.85 Z0.4232
N2920 X-0.6298 Y-0.8508 Z0.4244
N2925 X-0.6291 Y-0.8513 Z0.4275
N2930 G0 Z1.0906

N2935 M5
N2940 M9
N2945 G53 G0 Z0.
N2950 X-1.5
N2955 G53 G0 Y0.
#801 = 3
M98 P9004
N2960 M30

%
